!!!COM: back number
!!!OTL: ヒロイン
**kern	**dynam	**mxhm	**kern	**dynam	**mxhm	**kern	**dynam	**mxhm	**kern	**dynam	**mxhm	**kern	**dynam	**mxhm	**kern	**dynam	**mxhm	**kern	**dynam	**mxhm	**kern	**dynam	**mxhm	**kern	**dynam	**mxhm
*part9	*part9	*part9	*part8	*part8	*part8	*part7	*part7	*part7	*part6	*part6	*part6	*part5	*part5	*part5	*part4	*part4	*part4	*part3	*part3	*part3	*part2	*part2	*part2	*part1	*part1	*part1
*staff9	*	*	*staff8	*	*	*staff7	*	*	*staff6	*	*	*staff5	*	*	*staff4	*	*	*staff3	*	*	*staff2	*	*	*staff1	*	*
*I"Contrabass	*	*	*I"Classical Guitar	*	*	*I"Acoustic Guitar	*	*	*I"Mandoloncello	*	*	*I"Mandola	*	*	*I"Mandolin 3rd	*	*	*I"Mandolin 2nd	*	*	*I"Mandolin 1st	*	*	*I"Lead Vocal	*	*
*I'Cb.	*	*	*I'C.Guit.	*	*	*I'A.Guit.	*	*	*I'Mncl.	*	*	*I'Mda.	*	*	*I'3rd.	*	*	*I'2nd.	*	*	*I'1st.	*	*	*I'Pno.	*	*
*clefFv4	*	*	*clefGv2	*	*	*clefGv2	*	*	*clefF4	*	*	*clefGv2	*	*	*clefG2	*	*	*clefG2	*	*	*clefG2	*	*	*clefG2	*	*
*k[f#]	*	*	*k[f#]	*	*	*k[f#]	*	*	*k[f#]	*	*	*k[f#]	*	*	*k[f#]	*	*	*k[f#]	*	*	*k[f#]	*	*	*k[f#]	*	*
*M4/4	*	*	*M4/4	*	*	*M4/4	*	*	*M4/4	*	*	*M4/4	*	*	*M4/4	*	*	*M4/4	*	*	*M4/4	*	*	*M4/4	*	*
*	*	*	*	*	*	*	*	*	*	*	*	*	*	*	*	*	*	*	*	*	*15ma	*	*	*	*	*
=1	=1	=1	=1	=1	=1	=1	=1	=1	=1	=1	=1	=1	=1	=1	=1	=1	=1	=1	=1	=1	=1	=1	=1	=1	=1	=1
*MM76	*	*	*MM76	*	*	*MM76	*	*	*MM76	*	*	*MM76	*	*	*MM76	*	*	*MM76	*	*	*MM76	*	*	*MM76	*	*
1r	.	.	8BL	mp	.	1r	.	.	2Gu	p	.	1r	.	.	1r	.	.	8buL	p	.	8bbbuL	p	.	1r	.	.
.	.	.	8c	.	.	.	.	.	.	.	.	.	.	.	.	.	.	8ccu	.	.	8ccccu	.	.	.	.	.
.	.	.	8d	.	.	.	.	.	.	.	.	.	.	.	.	.	.	8ddu	.	.	8ddddu	.	.	.	.	.
.	.	.	8BJ	.	.	.	.	.	.	.	.	.	.	.	.	.	.	8eeuJ	.	.	8eeeeuJ	.	.	.	.	.
.	.	.	4d	.	.	.	.	.	2F#u	.	.	.	.	.	.	.	.	4ddu	.	.	4ddddu	.	.	.	.	.
.	.	.	4A	.	.	.	.	.	.	.	.	.	.	.	.	.	.	4f#u	.	.	4aaau	.	.	.	.	.
=2	=2	=2	=2	=2	=2	=2	=2	=2	=2	=2	=2	=2	=2	=2	=2	=2	=2	=2	=2	=2	=2	=2	=2	=2	=2	=2
1r	.	.	4d	.	.	1r	.	.	2Fnu	.	.	1r	.	.	1r	.	.	4ddu	.	.	4ddddu	.	.	1r	.	.
.	.	.	4A	.	.	.	.	.	.	.	.	.	.	.	.	.	.	4au	.	.	4aaau	.	.	.	.	.
.	.	.	8cL	.	.	.	.	.	4Eu	.	.	.	.	.	.	.	.	8ccuL	.	.	8ccccuL	.	.	.	.	.
.	.	.	8B	.	.	.	.	.	.	.	.	.	.	.	.	.	.	8bu	.	.	8bbbu	.	.	.	.	.
.	.	.	8A	.	.	.	.	.	4G#Xu	.	.	.	.	.	.	.	.	8au	.	.	8aaau	.	.	.	.	.
.	.	.	8G#XJ	.	.	.	.	.	.	.	.	.	.	.	.	.	.	8g#XuJ	.	.	8ggg#XuJ	.	.	.	.	.
=3	=3	=3	=3	=3	=3	=3	=3	=3	=3	=3	=3	=3	=3	=3	=3	=3	=3	=3	=3	=3	=3	=3	=3	=3	=3	=3
2.r	.	.	4B	.	.	1r	.	.	2.Au	.	.	2.r	.	.	1r	.	.	[4eu 4b	.	.	4bbbu	.	.	1r	.	.
.	.	.	2A	.	.	.	.	.	.	.	.	.	.	.	.	.	.	2eu] 2a	.	.	2aaau	.	.	.	.	.
*	*	*	*	*	*	*	*	*	*	*	*	*	*	*	*	*	*	*	*	*	*X15ma	*	*	*	*	*
8AAAL	mp	.	4r	.	.	.	.	.	8AAL	mp	.	8cL	mp	.	.	.	.	8AL	mp	.	8eL	mf	.	.	.	.
8BBBJ	.	.	.	.	.	.	.	.	8BBJ	.	.	8dJ	.	.	.	.	.	8BJ	.	.	8f#J	.	.	.	.	.
=4	=4	=4	=4	=4	=4	=4	=4	=4	=4	=4	=4	=4	=4	=4	=4	=4	=4	=4	=4	=4	=4	=4	=4	=4	=4	=4
2CC	.	.	2C 2D#X 2G	mf	.	1r	.	.	4.C	.	.	8d#XL	.	.	2r	.	.	4.c	.	.	8gL	.	.	1r	.	.
.	.	.	.	.	.	.	.	.	.	.	.	8c	.	.	.	.	.	.	.	.	8d#X	.	.	.	.	.
.	.	.	.	.	.	.	.	.	.	.	.	8G	.	.	.	.	.	.	.	.	8dn	.	.	.	.	.
.	.	.	.	.	.	.	.	.	8C	.	.	8GJ	.	.	.	.	.	8c	.	.	8cJ	.	.	.	.	.
[2DD	.	.	[2AA [2Dn [2F#	.	.	.	.	.	[2D	.	.	2F#	.	.	4r	.	.	[2d	.	.	[2A	.	.	.	.	.
.	.	.	.	.	.	.	.	.	.	.	.	.	.	.	8r	.	.	.	.	.	.	.	.	.	.	.
.	.	.	.	.	.	.	.	.	.	.	.	.	.	.	16dLL	mp	.	.	.	.	.	.	.	.	.	.
.	.	.	.	.	.	.	.	.	.	.	.	.	.	.	16AJJ	.	.	.	.	.	.	.	.	.	.	.
=5	=5	=5	=5	=5	=5	=5	=5	=5	=5	=5	=5	=5	=5	=5	=5	=5	=5	=5	=5	=5	=5	=5	=5	=5	=5	=5
*M2/4	*	*	*M2/4	*	*	*M2/4	*	*	*M2/4	*	*	*M2/4	*	*	*M2/4	*	*	*M2/4	*	*	*M2/4	*	*	*M2/4	*	*
2DD]	.	.	2AA] 2D] 2F#]	.	.	2r	.	.	2D]	.	.	4.r	.	.	2a	.	.	2d]	.	.	2A]	.	.	4.r	.	.
.	.	.	.	.	.	.	.	.	.	.	.	16r	.	.	.	.	.	.	.	.	.	.	.	16r	.	.
.	.	.	.	.	.	.	.	.	.	.	.	16D	mf	.	.	.	.	.	.	.	.	.	.	16D	mf	.
=6	=6	=6	=6	=6	=6	=6	=6	=6	=6	=6	=6	=6	=6	=6	=6	=6	=6	=6	=6	=6	=6	=6	=6	=6	=6	=6
*M4/4	*	*	*M4/4	*	*	*M4/4	*	*	*M4/4	*	*	*M4/4	*	*	*M4/4	*	*	*M4/4	*	*	*M4/4	*	*	*M4/4	*	*
1r	.	.	4BB 4D 4G	p	.	4GG: 4BB: 4D: 4G: 4B: 4g:	p	G major	1r	.	.	4d	.	.	1r	.	.	1r	.	.	1r	.	.	4d	.	.
.	.	.	4BB 4D 4G	.	.	8GGL 8BB 8D 8G 8B 8g	.	.	.	.	.	8dL	.	.	.	.	.	.	.	.	.	.	.	8dL	.	.
.	.	.	.	.	.	16GGL 16BB 16D 16G 16B 16g	.	.	.	.	.	16dL	.	.	.	.	.	.	.	.	.	.	.	16dL	.	.
.	.	.	.	.	.	16GJJ 16B	.	.	.	.	.	16eJJ	.	.	.	.	.	.	.	.	.	.	.	16eJJ	.	.
.	.	.	4AA 4D 4F#	.	.	4BB 4F# 4A 4d 4f#	.	B minor-seventh	.	.	.	16dLL	.	.	.	.	.	.	.	.	.	.	.	16dLL	.	.
.	.	.	.	.	.	.	.	.	.	.	.	16cJ	.	.	.	.	.	.	.	.	.	.	.	16cJ	.	.
.	.	.	.	.	.	.	.	.	.	.	.	8BJ	.	.	.	.	.	.	.	.	.	.	.	8BJ	.	.
.	.	.	4AA 4D 4F#	.	.	8BBL 8F# 8A 8d 8f#	.	.	.	.	.	8r	.	.	.	.	.	.	.	.	.	.	.	8r	.	.
.	.	.	.	.	.	16BBL 16F# 16A 16d 16f#	.	.	.	.	.	16ALL	.	.	.	.	.	.	.	.	.	.	.	16ALL	.	.
.	.	.	.	.	.	16AJJ 16d	.	.	.	.	.	16BJJ	.	.	.	.	.	.	.	.	.	.	.	16BJJ	.	.
=7	=7	=7	=7	=7	=7	=7	=7	=7	=7	=7	=7	=7	=7	=7	=7	=7	=7	=7	=7	=7	=7	=7	=7	=7	=7	=7
1r	.	.	4GG 4C 4E	.	.	4C 4E 4G 4c 4e	.	C major	1r	.	.	8cL	.	.	1r	.	.	1r	.	.	1r	.	.	8cL	.	.
.	.	.	.	.	.	.	.	.	.	.	.	8B	.	.	.	.	.	.	.	.	.	.	.	8B	.	.
.	.	.	4GG 4C 4E	.	.	8.CL 8.E 8.G 8.c 8.e	.	.	.	.	.	8c	.	.	.	.	.	.	.	.	.	.	.	8c	.	.
.	.	.	.	.	.	.	.	.	.	.	.	8dJ	.	.	.	.	.	.	.	.	.	.	.	8dJ	.	.
.	.	.	.	.	.	16GJk 16c	.	.	.	.	.	.	.	.	.	.	.	.	.	.	.	.	.	.	.	.
.	.	.	4BB 4D 4G	.	.	8.GGL 8.BB 8.D 8.G 8.B	.	G major	.	.	.	8BL	.	.	.	.	.	.	.	.	.	.	.	8BL	.	.
.	.	.	.	.	.	.	.	.	.	.	.	8AJ	.	.	.	.	.	.	.	.	.	.	.	8AJ	.	.
.	.	.	.	.	.	16GJk 16B	.	.	.	.	.	.	.	.	.	.	.	.	.	.	.	.	.	.	.	.
.	.	.	4AA 4D 4F#	.	.	8.DL 8.A 8.d 8.f#	.	D major	.	.	.	16GKL	.	.	.	.	.	.	.	.	.	.	.	16GKL	.	.
.	.	.	.	.	.	.	.	.	.	.	.	8.AJ	.	.	.	.	.	.	.	.	.	.	.	8.AJ	.	.
.	.	.	.	.	.	16AJk 16d	.	.	.	.	.	.	.	.	.	.	.	.	.	.	.	.	.	.	.	.
=8	=8	=8	=8	=8	=8	=8	=8	=8	=8	=8	=8	=8	=8	=8	=8	=8	=8	=8	=8	=8	=8	=8	=8	=8	=8	=8
1r	.	.	4BB 4E 4G	.	.	8EEL 8BB 8E 8G 8B 8e	.	E minor	1r	.	.	8.r	.	.	1r	.	.	1r	.	.	1r	.	.	8.r	.	.
.	.	.	.	.	.	8GJ 8B	.	.	.	.	.	.	.	.	.	.	.	.	.	.	.	.	.	.	.	.
.	.	.	.	.	.	.	.	.	.	.	.	16D	.	.	.	.	.	.	.	.	.	.	.	16D	.	.
.	.	.	4BB 4E 4G	.	.	8EEL 8BB 8E 8G 8B 8e	.	.	.	.	.	12GL	.	.	.	.	.	.	.	.	.	.	.	12GL	.	.
.	.	.	.	.	.	.	.	.	.	.	.	12G	.	.	.	.	.	.	.	.	.	.	.	12G	.	.
.	.	.	.	.	.	16EEL 16BB 16E 16G 16B 16e	.	.	.	.	.	.	.	.	.	.	.	.	.	.	.	.	.	.	.	.
.	.	.	.	.	.	.	.	.	.	.	.	12AJ	.	.	.	.	.	.	.	.	.	.	.	12AJ	.	.
.	.	.	.	.	.	16GJJ 16B	.	.	.	.	.	.	.	.	.	.	.	.	.	.	.	.	.	.	.	.
.	.	.	4D 4F#	.	.	8BBL 8F# 8A 8d 8f#	.	B minor-seventh	.	.	.	8BL	.	.	.	.	.	.	.	.	.	.	.	8BL	.	.
.	.	.	.	.	.	8AJ 8d	.	.	.	.	.	16dK	.	.	.	.	.	.	.	.	.	.	.	16dK	.	.
.	.	.	.	.	.	.	.	.	.	.	.	8dJ	.	.	.	.	.	.	.	.	.	.	.	8dJ	.	.
.	.	.	8DL 8F#	.	.	8BBL 8F# 8A 8d 8f#	.	.	.	.	.	.	.	.	.	.	.	.	.	.	.	.	.	.	.	.
.	.	.	.	.	.	.	.	.	.	.	.	8r	.	.	.	.	.	.	.	.	.	.	.	8r	.	.
.	.	.	8AAJ	.	.	16BBL 16F# 16A 16d 16f#	.	.	.	.	.	.	.	.	.	.	.	.	.	.	.	.	.	.	.	.
.	.	.	.	.	.	16AJJ 16d	.	.	.	.	.	16D	.	.	.	.	.	.	.	.	.	.	.	16D	.	.
=9	=9	=9	=9	=9	=9	=9	=9	=9	=9	=9	=9	=9	=9	=9	=9	=9	=9	=9	=9	=9	=9	=9	=9	=9	=9	=9
2r	.	.	4C 4E	.	.	4C 4E 4G 4c 4e	.	C major	1r	.	.	8EL	.	.	1r	.	.	1r	.	.	1r	.	.	8EL	.	.
.	.	.	.	.	.	.	.	.	.	.	.	16GK	.	.	.	.	.	.	.	.	.	.	.	16GK	.	.
.	.	.	.	.	.	.	.	.	.	.	.	8G	.	.	.	.	.	.	.	.	.	.	.	8G	.	.
.	.	.	4GG	.	.	8CL 8E 8G 8c 8e	.	.	.	.	.	.	.	.	.	.	.	.	.	.	.	.	.	.	.	.
.	.	.	.	.	.	.	.	.	.	.	.	16EL	.	.	.	.	.	.	.	.	.	.	.	16EL	.	.
.	.	.	.	.	.	16CL 16E 16G 16c 16e	.	.	.	.	.	16E	.	.	.	.	.	.	.	.	.	.	.	16E	.	.
.	.	.	.	.	.	16GJJ 16c	.	.	.	.	.	[16AJJ	.	.	.	.	.	.	.	.	.	.	.	[16AJJ	.	.
4r	.	.	8AAL 8D 8E	.	.	8DL 8A 8d 8f#	.	D major	.	.	.	4A]	.	.	.	.	.	.	.	.	.	.	.	4A]	.	.
.	.	.	8AA	.	.	8AJ 8d	.	.	.	.	.	.	.	.	.	.	.	.	.	.	.	.	.	.	.	.
8.r	.	.	8AA 8D 8A	.	.	8DL 8A 8d 8f#	.	.	.	.	.	8.r	.	.	.	.	.	.	.	.	.	.	.	8.r	.	.
.	.	.	8AAJ	.	.	16DL 16A 16d 16f#	.	.	.	.	.	.	.	.	.	.	.	.	.	.	.	.	.	.	.	.
16DD	mf	.	.	.	.	16AJJ 16d	.	.	.	.	.	16D	mf	.	.	.	.	.	.	.	.	.	.	16D	mf	.
=10	=10	=10	=10	=10	=10	=10	=10	=10	=10	=10	=10	=10	=10	=10	=10	=10	=10	=10	=10	=10	=10	=10	=10	=10	=10	=10
4GG	.	.	4BB 4D 4G	mp	.	4GG 4BB 4D 4G 4B 4g	mp	G major	1r	.	.	4d	.	.	1r	.	.	1r	.	.	1r	.	.	4d	.	.
8.GGL	.	.	4BB 4D 4G	.	.	8.GGL 8.BB 8.D 8.G 8.B 8.g	.	.	.	.	.	8.dL	.	.	.	.	.	.	.	.	.	.	.	8.dL	.	.
16AAJk	.	.	.	.	.	16GJk 16B	.	.	.	.	.	16eJk	.	.	.	.	.	.	.	.	.	.	.	16eJk	.	.
4BB	.	.	4AA 4D 4F#	.	.	8BBL 8F# 8A 8d 8f#	.	B minor-seventh	.	.	.	16dLL	.	.	.	.	.	.	.	.	.	.	.	16dLL	.	.
.	.	.	.	.	.	.	.	.	.	.	.	16cJ	.	.	.	.	.	.	.	.	.	.	.	16cJ	.	.
.	.	.	.	.	.	8AJ 8d	.	.	.	.	.	8BJ	.	.	.	.	.	.	.	.	.	.	.	8BJ	.	.
8.BBL	.	.	4AA 4D 4F#	.	.	8BBL 8F# 8A 8d 8f#	.	.	.	.	.	8r	.	.	.	.	.	.	.	.	.	.	.	8r	.	.
.	.	.	.	.	.	16BBL 16F# 16A 16d 16f#	.	.	.	.	.	16ALL	.	.	.	.	.	.	.	.	.	.	.	16ALL	.	.
16BBJk	.	.	.	.	.	16AJJ 16d	.	.	.	.	.	16BJJ	.	.	.	.	.	.	.	.	.	.	.	16BJJ	.	.
=11	=11	=11	=11	=11	=11	=11	=11	=11	=11	=11	=11	=11	=11	=11	=11	=11	=11	=11	=11	=11	=11	=11	=11	=11	=11	=11
4C	.	.	4GG 4C 4E	.	.	4C 4E 4G 4c 4e	.	C major	1r	.	.	8cL	.	.	1r	.	.	1r	.	.	1r	.	.	8cL	.	.
.	.	.	.	.	.	.	.	.	.	.	.	8B	.	.	.	.	.	.	.	.	.	.	.	8B	.	.
8.CL	.	.	4GG 4C 4E	.	.	8CL 8E 8G 8c 8e	.	.	.	.	.	8c	.	.	.	.	.	.	.	.	.	.	.	8c	.	.
.	.	.	.	.	.	16CL 16E 16G 16c 16e	.	.	.	.	.	8dJ	.	.	.	.	.	.	.	.	.	.	.	8dJ	.	.
16CJk	.	.	.	.	.	16GJJ 16c	.	.	.	.	.	.	.	.	.	.	.	.	.	.	.	.	.	.	.	.
8GGL	.	.	4BB 4D 4G	.	.	8GGL 8BB 8D 8G 8B	.	G major	.	.	.	8BL	.	.	.	.	.	.	.	.	.	.	.	8BL	.	.
8GGJ	.	.	.	.	.	16GGL 16BB 16D 16G 16B	.	.	.	.	.	8AJ	.	.	.	.	.	.	.	.	.	.	.	8AJ	.	.
.	.	.	.	.	.	16GJJ 16B	.	.	.	.	.	.	.	.	.	.	.	.	.	.	.	.	.	.	.	.
4FF#	.	.	4AA 4D 4F#	.	.	8DL 8A 8d 8f#	.	D major	.	.	.	16GKL	.	.	.	.	.	.	.	.	.	.	.	16GKL	.	.
.	.	.	.	.	.	.	.	.	.	.	.	8.AJ	.	.	.	.	.	.	.	.	.	.	.	8.AJ	.	.
.	.	.	.	.	.	16DL 16A 16d 16f#	.	.	.	.	.	.	.	.	.	.	.	.	.	.	.	.	.	.	.	.
.	.	.	.	.	.	16AJJ 16d	.	.	.	.	.	.	.	.	.	.	.	.	.	.	.	.	.	.	.	.
=12	=12	=12	=12	=12	=12	=12	=12	=12	=12	=12	=12	=12	=12	=12	=12	=12	=12	=12	=12	=12	=12	=12	=12	=12	=12	=12
4EE	.	.	4BB 4E 4G	.	.	8EEL 8BB 8E 8G 8B 8e	.	E minor	1r	.	.	8.r	.	.	1r	.	.	1r	.	.	1r	.	.	8.r	.	.
.	.	.	.	.	.	8GJ 8B	.	.	.	.	.	.	.	.	.	.	.	.	.	.	.	.	.	.	.	.
.	.	.	.	.	.	.	.	.	.	.	.	16D	.	.	.	.	.	.	.	.	.	.	.	16D	.	.
8.EEL	.	.	4BB 4E 4G	.	.	8EEL 8BB 8E 8G 8B 8e	.	.	.	.	.	12GL	.	.	.	.	.	.	.	.	.	.	.	12GL	.	.
.	.	.	.	.	.	.	.	.	.	.	.	12G	.	.	.	.	.	.	.	.	.	.	.	12G	.	.
.	.	.	.	.	.	16EEL 16BB 16E 16G 16B 16e	.	.	.	.	.	.	.	.	.	.	.	.	.	.	.	.	.	.	.	.
.	.	.	.	.	.	.	.	.	.	.	.	12AJ	.	.	.	.	.	.	.	.	.	.	.	12AJ	.	.
16EEJk	.	.	.	.	.	16GJJ 16B	.	.	.	.	.	.	.	.	.	.	.	.	.	.	.	.	.	.	.	.
4BB	.	.	4D 4F#	.	.	4BB 4F# 4A 4d 4f#	.	B minor-seventh	.	.	.	8BL	.	.	.	.	.	.	.	.	.	.	.	8BL	.	.
.	.	.	.	.	.	.	.	.	.	.	.	16dL	.	.	.	.	.	.	.	.	.	.	.	16dL	.	.
.	.	.	.	.	.	.	.	.	.	.	.	16dJJ	.	.	.	.	.	.	.	.	.	.	.	16dJJ	.	.
8.BBL	.	.	8DL 8F#	.	.	8BBL 8F# 8A 8d 8f#	.	.	.	.	.	16r	.	.	.	.	.	.	.	.	.	.	.	16r	.	.
.	.	.	.	.	.	.	.	.	.	.	.	16DLL	.	.	.	.	.	.	.	.	.	.	.	16DLL	.	.
.	.	.	8AAJ	.	.	16BBL 16F# 16A 16d 16f#	.	.	.	.	.	16D	.	.	.	.	.	.	.	.	.	.	.	16D	.	.
16BBJk	.	.	.	.	.	16AJJ 16d	.	.	.	.	.	16dJJ	.	.	.	.	.	.	.	.	.	.	.	16dJJ	.	.
=13	=13	=13	=13	=13	=13	=13	=13	=13	=13	=13	=13	=13	=13	=13	=13	=13	=13	=13	=13	=13	=13	=13	=13	=13	=13	=13
4C	.	.	4C 4E	.	.	4C 4E 4G 4c 4e	.	C major	1r	.	.	8cL	.	.	1r	.	.	1r	.	.	1r	.	.	8cL	.	.
.	.	.	.	.	.	.	.	.	.	.	.	16BL	.	.	.	.	.	.	.	.	.	.	.	16BL	.	.
.	.	.	.	.	.	.	.	.	.	.	.	[16AJJ	.	.	.	.	.	.	.	.	.	.	.	[16AJJ	.	.
8.CL	.	.	4GG	.	.	8CL 8E 8G 8c 8e	.	.	.	.	.	16ALL]	.	.	.	.	.	.	.	.	.	.	.	16ALL]	.	.
.	.	.	.	.	.	.	.	.	.	.	.	16G	.	.	.	.	.	.	.	.	.	.	.	16G	.	.
.	.	.	.	.	.	16CL 16E 16G 16c 16e	.	.	.	.	.	16GJJ	.	.	.	.	.	.	.	.	.	.	.	16GJJ	.	.
16CJk	.	.	.	.	.	16GJJ 16c	.	.	.	.	.	4A	.	.	.	.	.	.	.	.	.	.	.	4A	.	.
4.D	.	.	4AA 4D 4F#	.	.	8DL 8A 8d 8f#	.	D major	.	.	.	.	.	.	.	.	.	.	.	.	.	.	.	.	.	.
.	.	.	.	.	.	8DJ 8A 8d 8f#	.	.	.	.	.	.	.	.	.	.	.	.	.	.	.	.	.	.	.	.
.	.	.	.	.	.	.	.	.	.	.	.	16r	.	.	.	.	.	.	.	.	.	.	.	16r	.	.
.	.	.	8AAL 8D 8F#	.	.	8DL 8A 8d 8f#	.	.	.	.	.	4r	.	.	.	.	.	.	.	.	.	.	.	4r	.	.
16AALL	.	.	8AAJ	.	.	16DL 16A 16d 16f#	.	.	.	.	.	.	.	.	.	.	.	.	.	.	.	.	.	.	.	.
16DDJJ	.	.	.	.	.	16AJJ 16d	.	.	.	.	.	.	.	.	.	.	.	.	.	.	.	.	.	.	.	.
=14	=14	=14	=14	=14	=14	=14	=14	=14	=14	=14	=14	=14	=14	=14	=14	=14	=14	=14	=14	=14	=14	=14	=14	=14	=14	=14
4CC	.	.	4.GG 4.C 4.E	.	.	4C 4E 4G 4c 4e	.	C major	8GL	mf	.	8C'L	mp	.	1r	.	.	1r	.	.	1r	.	.	8gL	mf	.
.	.	.	.	.	.	.	.	.	8A	.	.	8C'	.	.	.	.	.	.	.	.	.	.	.	8a	.	.
4CC	.	.	.	.	.	8CL 8E 8G 8c 8e	.	.	8BJ	.	.	8C'	.	.	.	.	.	.	.	.	.	.	.	8bJ	.	.
.	.	.	8C	.	.	8CJ 8E 8G 8c 8e	.	.	4d	.	.	8C'J	.	.	.	.	.	.	.	.	.	.	.	4dd	.	.
4DD	.	.	8DL 8F#	.	.	4D 4A 4d 4f#	.	D major	.	.	.	8D'L	.	.	.	.	.	.	.	.	.	.	.	.	.	.
.	.	.	8AA	.	.	.	.	.	8GL	.	.	8D'	.	.	.	.	.	.	.	.	.	.	.	8gL	.	.
4DD	.	.	8D 8A	.	.	8DL 8A 8d 8f#	.	.	8F#	.	.	8D'	.	.	.	.	.	.	.	.	.	.	.	8f#	.	.
.	.	.	8AAJ	.	.	16DL 16A 16d 16f#	.	.	[8GJ	.	.	8D'J	.	.	.	.	.	.	.	.	.	.	.	[8gJ	.	.
.	.	.	.	.	.	16AJJ 16d	.	.	.	.	.	.	.	.	.	.	.	.	.	.	.	.	.	.	.	.
=15	=15	=15	=15	=15	=15	=15	=15	=15	=15	=15	=15	=15	=15	=15	=15	=15	=15	=15	=15	=15	=15	=15	=15	=15	=15	=15
8EEL	.	.	4BB 4E	.	.	8EEL 8BB 8E 8G 8B 8e	.	E minor	2G]	.	.	8E'L	.	.	1r	.	.	1r	.	.	1r	.	.	2g]	.	.
8EE	.	.	.	.	.	8GJ 8B	.	.	.	.	.	8E'	.	.	.	.	.	.	.	.	.	.	.	.	.	.
8EE	.	.	4G	.	.	8EEL 8BB 8E 8G 8B 8e	.	.	.	.	.	8G'	.	.	.	.	.	.	.	.	.	.	.	.	.	.
8EEJ	.	.	.	.	.	16EEL 16BB 16E 16G 16B 16e	.	.	.	.	.	8E'J	.	.	.	.	.	.	.	.	.	.	.	.	.	.
.	.	.	.	.	.	16GJJ 16B	.	.	.	.	.	.	.	.	.	.	.	.	.	.	.	.	.	.	.	.
8GGL	.	.	4Fn	.	.	8GGL 8BB 8D 8G 8B 8fn	.	G dominant	4r	.	.	8G'L	.	.	.	.	.	.	.	.	.	.	.	4r	.	.
8GG	.	.	.	.	.	8GJ 8B	.	.	.	.	.	8G'	.	.	.	.	.	.	.	.	.	.	.	.	.	.
8GG	.	.	8DL	.	.	8GGL 8BB 8D 8G 8B 8f	.	.	8r	.	.	8G'	.	.	.	.	.	.	.	.	.	.	.	8r	.	.
8DDJ	.	.	8BBJ	.	.	16GGL 16BB 16D 16G 16B 16f	.	.	16eLL	.	.	8G'J	.	.	.	.	.	.	.	.	.	.	.	16eeLL	.	.
.	.	.	.	.	.	16GJJ 16B	.	.	[16dJJ	.	.	.	.	.	.	.	.	.	.	.	.	.	.	[16ddJJ	.	.
=16	=16	=16	=16	=16	=16	=16	=16	=16	=16	=16	=16	=16	=16	=16	=16	=16	=16	=16	=16	=16	=16	=16	=16	=16	=16	=16
4CC	.	.	4C 4E	.	.	8CL 8E 8G 8c 8e	.	C major	4.d]	.	.	8C'L	.	.	1r	.	.	1r	.	.	1r	.	.	4.dd]	.	.
.	.	.	.	.	.	8GJ 8c	.	.	.	.	.	8C'	.	.	.	.	.	.	.	.	.	.	.	.	.	.
8CCL	.	.	4GG 4C 4E	.	.	8CL 8E 8G 8c 8e	.	.	.	.	.	8C'	.	.	.	.	.	.	.	.	.	.	.	.	.	.
8CCJ	.	.	.	.	.	16CL 16E 16G 16c 16e	.	.	16e	.	.	8C'J	.	.	.	.	.	.	.	.	.	.	.	16ee	.	.
.	.	.	.	.	.	16GJJ 16c	.	.	4.d	.	.	.	.	.	.	.	.	.	.	.	.	.	.	4.dd	.	.
8DDL	.	.	8DL 8F#	.	.	8DL 8A 8d 8f#	.	D major	.	.	.	8D'L	.	.	.	.	.	.	.	.	.	.	.	.	.	.
8DDJ	.	.	8AA	.	.	8AJ 8d	.	.	.	.	.	8D'J	.	.	.	.	.	.	.	.	.	.	.	.	.	.
4DD	.	.	8D 8A	.	.	8DL 8A 8d 8f#	.	.	.	.	.	8D'L	.	.	.	.	.	.	.	.	.	.	.	.	.	.
.	.	.	.	.	.	.	.	.	16GLL	.	.	.	.	.	.	.	.	.	.	.	.	.	.	16gLL	.	.
.	.	.	8AAJ	.	.	16DL 16A 16d 16f#	.	.	16F#	.	.	16D'L	.	.	.	.	.	.	.	.	.	.	.	16f#	.	.
.	.	.	.	.	.	16AJJ 16d	.	.	[16GJJ	.	.	16D'JJ	.	.	.	.	.	.	.	.	.	.	.	[16gJJ	.	.
=17	=17	=17	=17	=17	=17	=17	=17	=17	=17	=17	=17	=17	=17	=17	=17	=17	=17	=17	=17	=17	=17	=17	=17	=17	=17	=17
4GG	.	.	4BB 4D 4G	.	.	8GGL 8BB 8D 8G 8B 8g	.	G major	16G]	.	.	8G'L	.	.	2r	.	.	1r	.	.	1r	.	.	16g]	.	.
.	.	.	.	.	.	.	.	.	8r	.	.	.	.	.	.	.	.	.	.	.	.	.	.	8r	.	.
.	.	.	.	.	.	8GG 8BB 8D 8G 8B 8g	.	.	.	.	.	8G'	.	.	.	.	.	.	.	.	.	.	.	.	.	.
.	.	.	.	.	.	.	.	.	16D	.	.	.	.	.	.	.	.	.	.	.	.	.	.	16d	.	.
8.GGL	.	.	8DL	.	.	8GG 8BB 8D 8G 8B 8g	.	.	16DLL	.	.	8G'	.	.	.	.	.	.	.	.	.	.	.	16dLL	.	.
.	.	.	.	.	.	.	.	.	16DJ	.	.	.	.	.	.	.	.	.	.	.	.	.	.	16dJ	.	.
.	.	.	8F#J	.	.	8GGJ 8BB 8D 8G 8B 8g	.	.	8GJ	.	.	8G'J	.	.	.	.	.	.	.	.	.	.	.	8gJ	.	.
16DDJk	.	.	.	.	.	.	.	.	.	.	.	.	.	.	.	.	.	.	.	.	.	.	.	.	.	.
4GG	.	.	2Fn	.	.	2GG: 2BB: 2D: 2G: 2B: 2fn:	.	G dominant	8cL	.	.	4D 4G	.	.	4.r	.	.	.	.	.	.	.	.	8ccL	.	.
.	.	.	.	.	.	.	.	.	8BJ	.	.	.	.	.	.	.	.	.	.	.	.	.	.	8bJ	.	.
8r	.	.	.	.	.	.	.	.	16ALL	.	.	8r	.	.	.	.	.	.	.	.	.	.	.	16aLL	.	.
.	.	.	.	.	.	.	.	.	16BJJ	.	.	.	.	.	.	.	.	.	.	.	.	.	.	16bJJ	.	.
16GGLL	f	.	.	.	.	.	.	.	8r	.	.	16GLL	f	.	16ggLL	f	.	.	.	.	.	.	.	8r	.	.
16DDJJ	.	.	.	.	.	.	.	.	.	.	.	16BJJ	.	.	16bbJJ	.	.	.	.	.	.	.	.	.	.	.
=18	=18	=18	=18	=18	=18	=18	=18	=18	=18	=18	=18	=18	=18	=18	=18	=18	=18	=18	=18	=18	=18	=18	=18	=18	=18	=18
*	*	*	*	*	*	*	*	*	*	*	*	*	*	*	*	*	*	*^	*	*	*	*	*	*	*	*
4CC	.	.	16CLL	f	.	8CL 8E 8G 8c 8e	mf	C major	8CL	f	.	2cc	.	.	2ccc	.	.	16ccLL	2g	f	.	16eeLL	f	.	16eeLL	f	.
.	.	.	16E	.	.	.	.	.	.	.	.	.	.	.	.	.	.	16cc	.	.	.	16ee	.	.	16ee	.	.
.	.	.	16G	.	.	8GJ 8c	.	.	8EJ	.	.	.	.	.	.	.	.	16cc	.	.	.	16ee	.	.	16ee	.	.
.	.	.	16cJJ	.	.	.	.	.	.	.	.	.	.	.	.	.	.	16ccJJ	.	.	.	16eeJJ	.	.	16eeJJ	.	.
8CCL	.	.	16eLL	.	.	8CL 8E 8G 8c 8e	.	.	16GLL	.	.	.	.	.	.	.	.	16ccLL	.	.	.	16eeLL	.	.	16eeLL	.	.
.	.	.	16c	.	.	.	.	.	16EJ	.	.	.	.	.	.	.	.	16g	.	.	.	16cc	.	.	16cc	.	.
8CCJ	.	.	16GJJ	.	.	16CL 16E 16G 16c 16e	.	.	8CJ	.	.	.	.	.	.	.	.	16g	.	.	.	16cc	.	.	16cc	.	.
.	.	.	16r	.	.	16GJJ 16c	.	.	.	.	.	.	.	.	.	.	.	16eeJJ	.	.	.	16ggJJ	.	.	16ggJJ	.	.
8DDL	.	.	16DLL	.	.	8DL 8A 8d 8f#	.	D major	8DL	.	.	2dd	.	.	2r	.	.	8ddL	2a	.	.	8ff#L	.	.	8ff#L	.	.
.	.	.	16A	.	.	.	.	.	.	.	.	.	.	.	.	.	.	.	.	.	.	.	.	.	.	.	.
8DD	.	.	16d	.	.	8AJ 8d	.	.	8F#	.	.	.	.	.	.	.	.	16eeK	.	.	.	16ggK	.	.	16ggK	.	.
.	.	.	16f#JJ	.	.	.	.	.	.	.	.	.	.	.	.	.	.	8.ff#	.	.	.	8.aa	.	.	8.aa	.	.
8DD	.	.	16aLL	.	.	8DL 8A 8d 8f#	.	.	8A	.	.	.	.	.	.	.	.	.	.	.	.	.	.	.	.	.	.
.	.	.	16d	.	.	.	.	.	.	.	.	.	.	.	.	.	.	.	.	.	.	.	.	.	.	.	.
8AAAJ	.	.	16AJJ	.	.	16DL 16A 16d 16f#	.	.	8F#J	.	.	.	.	.	.	.	.	8ddJ	.	.	.	8ff#J	.	.	8ff#J	.	.
.	.	.	16r	.	.	16AJJ 16d	.	.	.	.	.	.	.	.	.	.	.	.	.	.	.	.	.	.	.	.	.
=19	=19	=19	=19	=19	=19	=19	=19	=19	=19	=19	=19	=19	=19	=19	=19	=19	=19	=19	=19	=19	=19	=19	=19	=19	=19	=19	=19
4.GG	.	.	16BBLL	.	.	8GGL 8BB 8D 8G 8B 8g	.	G major	4.G	.	.	2dd	.	.	4r	.	.	8bL	2g	.	.	8ddL	.	.	8ddL	.	.
.	.	.	16D	.	.	.	.	.	.	.	.	.	.	.	.	.	.	.	.	.	.	.	.	.	.	.	.
.	.	.	16G	.	.	8GJ 8B	.	.	.	.	.	.	.	.	.	.	.	16ff#K	.	.	.	16aaK	.	.	16aaK	.	.
.	.	.	16BJJ	.	.	.	.	.	.	.	.	.	.	.	.	.	.	8.ee	.	.	.	8.gg	.	.	8.gg	.	.
.	.	.	16gLL	.	.	8GGL 8BB 8D 8G 8B 8g	.	.	.	.	.	.	.	.	4aaa	.	.	.	.	.	.	.	.	.	.	.	.
.	.	.	16B	.	.	.	.	.	.	.	.	.	.	.	.	.	.	.	.	.	.	.	.	.	.	.	.
8GG	.	.	16GJJ	.	.	16GGL 16BB 16D 16G 16B 16g	.	.	8G	.	.	.	.	.	.	.	.	16ddJk	.	.	.	16ff#Jk	.	.	16ff#Jk	.	.
.	.	.	16r	.	.	16GJJ 16B	.	.	.	.	.	.	.	.	.	.	.	4.ee	.	.	.	4.gg	.	.	4.gg	.	.
4EE	.	.	16EELL	.	.	16EELL 16BB 16E 16G 16B 16e	.	E minor	8GL	.	.	2ee	.	.	4ggg	.	.	.	2e	.	.	.	.	.	.	.	.
.	.	.	16BB	.	.	16EEJ 16BB 16E 16G 16B 16e	.	.	.	.	.	.	.	.	.	.	.	.	.	.	.	.	.	.	.	.	.
.	.	.	16G	.	.	8GJ 8B	.	.	(16eL	.	.	.	.	.	.	.	.	.	.	.	.	.	.	.	.	.	.
.	.	.	16BJJ	.	.	.	.	.	16dJJ)	.	.	.	.	.	.	.	.	.	.	.	.	.	.	.	.	.	.
8EEL	.	.	16eLL	.	.	8EEL 8BB 8E 8G 8B 8e	.	.	16BLL	.	.	.	.	.	4ddd	.	.	.	.	.	.	.	.	.	.	.	.
.	.	.	16G	.	.	.	.	.	16AJ	.	.	.	.	.	.	.	.	8r	.	.	.	8r	.	.	8r	.	.
8BBBJ	.	.	16EJJ	.	.	16EEL 16BB 16E 16G 16B 16e	.	.	8GJ	.	.	.	.	.	.	.	.	.	.	.	.	.	.	.	.	.	.
.	.	.	16r	.	.	16GJJ 16B	.	.	.	.	.	.	.	.	.	.	.	16g	.	.	.	16g	.	.	16g	.	.
=20	=20	=20	=20	=20	=20	=20	=20	=20	=20	=20	=20	=20	=20	=20	=20	=20	=20	=20	=20	=20	=20	=20	=20	=20	=20	=20	=20
4CC	.	.	16CLL	.	.	8CL 8E 8G 8c 8e	.	C major	2C 2G	.	.	2ee	.	.	2eee	.	.	16ccLL	2g	.	.	16ccLL	.	.	16ccLL	.	.
.	.	.	16E	.	.	.	.	.	.	.	.	.	.	.	.	.	.	16cc	.	.	.	16cc	.	.	16cc	.	.
.	.	.	16G	.	.	8GJ 8c	.	.	.	.	.	.	.	.	.	.	.	16cc	.	.	.	16cc	.	.	16cc	.	.
.	.	.	16cJJ	.	.	.	.	.	.	.	.	.	.	.	.	.	.	16ccJJ	.	.	.	16ccJJ	.	.	16ccJJ	.	.
8CCL	.	.	16eLL	.	.	8CL 8E 8G 8c 8e	.	.	.	.	.	.	.	.	.	.	.	8ccL	.	.	.	8ccL	.	.	8ccL	.	.
.	.	.	16c	.	.	.	.	.	.	.	.	.	.	.	.	.	.	.	.	.	.	.	.	.	.	.	.
16GGGL	.	.	16GJJ	.	.	16CL 16E 16G 16c 16e	.	.	.	.	.	.	.	.	.	.	.	16ggL	.	.	.	16ggL	.	.	16ggL	.	.
16CCJJ	.	.	16r	.	.	16GJJ 16c	.	.	.	.	.	.	.	.	.	.	.	16ggJJ	.	.	.	16ggJJ	.	.	16ggJJ	.	.
8DDL	.	.	16DLL	.	.	16DLL 16A 16d 16f#	.	D major	2D 2A	.	.	2ff#	.	.	2r	.	.	16ff#KL	2a	.	.	16ff#KL	.	.	16ff#KL	.	.
.	.	.	16A	.	.	16DJ 16A 16d 16f#	.	.	.	.	.	.	.	.	.	.	.	8gg	.	.	.	8gg	.	.	8gg	.	.
8DDJ	.	.	16d	.	.	8AJ 8d	.	.	.	.	.	.	.	.	.	.	.	.	.	.	.	.	.	.	.	.	.
.	.	.	16f#JJ	.	.	.	.	.	.	.	.	.	.	.	.	.	.	8aa	.	.	.	8aa	.	.	8aa	.	.
4DD	.	.	16aLL	.	.	8DL 8A 8d 8f#	.	.	.	.	.	.	.	.	.	.	.	.	.	.	.	.	.	.	.	.	.
.	.	.	16d	.	.	.	.	.	.	.	.	.	.	.	.	.	.	16eeL	.	.	.	16eeL	.	.	16eeL	.	.
.	.	.	16AJJ	.	.	16DL 16A 16d 16f#	.	.	.	.	.	.	.	.	.	.	.	16ee	.	.	.	16ee	.	.	16ee	.	.
.	.	.	16r	.	.	16AJJ 16d	.	.	.	.	.	.	.	.	.	.	.	16eeJJ	.	.	.	16eeJJ	.	.	16eeJJ	.	.
=21	=21	=21	=21	=21	=21	=21	=21	=21	=21	=21	=21	=21	=21	=21	=21	=21	=21	=21	=21	=21	=21	=21	=21	=21	=21	=21	=21
4GGG	.	.	16BBLL	.	.	8GGL 8BB 8D 8G 8B 8g	.	G major	8.BL	.	.	2.dd	.	.	4gg	.	.	2.dd	2g	.	.	2.dd	.	.	2.dd	.	.
.	.	.	16D	.	.	.	.	.	.	.	.	.	.	.	.	.	.	.	.	.	.	.	.	.	.	.	.
.	.	.	16G	.	.	8GJ 8B	.	.	.	.	.	.	.	.	.	.	.	.	.	.	.	.	.	.	.	.	.
.	.	.	16BJJ	.	.	.	.	.	16GJk	.	.	.	.	.	.	.	.	.	.	.	.	.	.	.	.	.	.
8.GGL	.	.	16gLL	.	.	8GGL 8BB 8D 8G 8B 8g	.	.	16BLL	.	.	.	.	.	4aa	.	.	.	.	.	.	.	.	.	.	.	.
.	.	.	16B	.	.	.	.	.	16A	.	.	.	.	.	.	.	.	.	.	.	.	.	.	.	.	.	.
.	.	.	16GJJ	.	.	16GGL 16BB 16D 16G 16B 16g	.	.	16B	.	.	.	.	.	.	.	.	.	.	.	.	.	.	.	.	.	.
16DDJk	.	.	16r	.	.	16GJJ 16B	.	.	16AJJ	.	.	.	.	.	.	.	.	.	.	.	.	.	.	.	.	.	.
8GG	.	.	16BBLL	.	.	8GGL 8BB 8D 8G 8B 8fn	.	G dominant	16BLL	.	.	.	.	.	4bb	.	.	.	2fn	.	.	.	.	.	.	.	.
.	.	.	16D	.	.	.	.	.	16eJ	.	.	.	.	.	.	.	.	.	.	.	.	.	.	.	.	.	.
4FFn	.	.	16G	.	.	8GJ 8B	.	.	[8dJ	.	.	.	.	.	.	.	.	.	.	.	.	.	.	.	.	.	.
.	.	.	16BJJ	.	.	.	.	.	.	.	.	.	.	.	.	.	.	.	.	.	.	.	.	.	.	.	.
.	.	.	16fnLL	.	.	8GGL 8BB 8D 8G 8B 8f	.	.	4d]	.	.	4gg	.	.	4gg	.	.	16r	.	.	.	16r	.	.	16r	.	.
.	.	.	16B	.	.	.	.	.	.	.	.	.	.	.	.	.	.	16gLL	.	.	.	16bLL	.	.	16bLL	.	.
8BBB	.	.	16GJJ	.	.	16GGL 16BB 16D 16G 16B 16f	.	.	.	.	.	.	.	.	.	.	.	16g	.	.	.	16b	.	.	16b	.	.
.	.	.	16r	.	.	16GJJ 16B	.	.	.	.	.	.	.	.	.	.	.	16bJJ	.	.	.	16ddJJ	.	.	16ddJJ	.	.
=22	=22	=22	=22	=22	=22	=22	=22	=22	=22	=22	=22	=22	=22	=22	=22	=22	=22	=22	=22	=22	=22	=22	=22	=22	=22	=22	=22
4CC	.	.	16CLL	.	.	8CL 8E 8G 8c 8e	.	C major	4c	.	.	2ee 2gg	.	.	2eee	.	.	8ccL	2g	.	.	8eeL	.	.	8eeL	.	.
.	.	.	16E	.	.	.	.	.	.	.	.	.	.	.	.	.	.	.	.	.	.	.	.	.	.	.	.
.	.	.	16G	.	.	8GJ 8c	.	.	.	.	.	.	.	.	.	.	.	16ccK	.	.	.	16eeK	.	.	16eeK	.	.
.	.	.	16cJJ	.	.	.	.	.	.	.	.	.	.	.	.	.	.	8cc	.	.	.	8ee	.	.	8ee	.	.
8CCL	.	.	16eLL	.	.	8CL 8E 8G 8c 8e	.	.	4e	.	.	.	.	.	.	.	.	.	.	.	.	.	.	.	.	.	.
.	.	.	16c	.	.	.	.	.	.	.	.	.	.	.	.	.	.	16gL	.	.	.	16ccL	.	.	16ccL	.	.
16CCL	.	.	16GJJ	.	.	16CL 16E 16G 16c 16e	.	.	.	.	.	.	.	.	.	.	.	16g	.	.	.	16cc	.	.	16cc	.	.
16CCJJ	.	.	16r	.	.	16GJJ 16c	.	.	.	.	.	.	.	.	.	.	.	16eeJJ	.	.	.	16ggJJ	.	.	16ggJJ	.	.
4DD	.	.	16DLL	.	.	8DL 8A 8d 8f#	.	D major	4d	.	.	2ff# 2aa	.	.	2fff#	.	.	8ddL	2a	.	.	8ff#L	.	.	8ff#L	.	.
.	.	.	16A	.	.	.	.	.	.	.	.	.	.	.	.	.	.	.	.	.	.	.	.	.	.	.	.
.	.	.	16d	.	.	8AJ 8d	.	.	.	.	.	.	.	.	.	.	.	16eeK	.	.	.	16ggK	.	.	16ggK	.	.
.	.	.	16f#JJ	.	.	.	.	.	.	.	.	.	.	.	.	.	.	8.ff#	.	.	.	8.aa	.	.	8.aa	.	.
4CC	.	.	16aLL	.	.	8DL 8A 8d 8f#	.	.	4f#	.	.	.	.	.	.	.	.	.	.	.	.	.	.	.	.	.	.
.	.	.	16d	.	.	.	.	.	.	.	.	.	.	.	.	.	.	.	.	.	.	.	.	.	.	.	.
.	.	.	16AJJ	.	.	16DL 16A 16d 16f#	.	.	.	.	.	.	.	.	.	.	.	8ddJ	.	.	.	8ff#J	.	.	8ff#J	.	.
.	.	.	16r	.	.	16AJJ 16d	.	.	.	.	.	.	.	.	.	.	.	.	.	.	.	.	.	.	.	.	.
=23	=23	=23	=23	=23	=23	=23	=23	=23	=23	=23	=23	=23	=23	=23	=23	=23	=23	=23	=23	=23	=23	=23	=23	=23	=23	=23	=23
4BBB	.	.	16BBLL	.	.	8BBL 8F# 8B 8d 8f#	.	B minor	4F# 4A	.	.	4d 4f#	.	.	4fff#	.	.	8bL	4d	.	.	8ddL	.	.	8ddL	.	.
.	.	.	16F#	.	.	.	.	.	.	.	.	.	.	.	.	.	.	.	.	.	.	.	.	.	.	.	.
.	.	.	16B	.	.	8BB 8F# 8B 8d 8f#	.	.	.	.	.	.	.	.	.	.	.	16ff#K	.	.	.	16aaK	.	.	16aaK	.	.
.	.	.	16dJJ	.	.	.	.	.	.	.	.	.	.	.	.	.	.	8.ee	.	.	.	8.gg	.	.	8.gg	.	.
4DD#X	.	.	16BBLL	.	.	8BB 8F# 8A 8d#X 8f#	.	B dominant	4d#X	.	.	4f# 4a	.	.	4aaa	.	.	.	4f#	.	.	.	.	.	.	.	.
.	.	.	16A	.	.	.	.	.	.	.	.	.	.	.	.	.	.	.	.	.	.	.	.	.	.	.	.
.	.	.	16d#X	.	.	8BBJ 8F# 8A 8d# 8f#	.	.	.	.	.	.	.	.	.	.	.	16dd#XK	.	.	.	16ff#K	.	.	16ff#K	.	.
.	.	.	16f#JJ	.	.	.	.	.	.	.	.	.	.	.	.	.	.	8eeJ	.	.	.	8ggJ	.	.	8ggJ	.	.
4EE	.	.	16ELL	.	.	8EEL 8BB 8E 8G 8B 8e	.	E minor	8eL	.	.	8eL 8g	.	.	8gggL	.	.	.	2e	.	.	.	.	.	.	.	.
.	.	.	16G	.	.	.	.	.	.	.	.	.	.	.	.	.	.	8r	.	.	.	8r	.	.	8r	.	.
.	.	.	16B	.	.	8GJ 8B	.	.	8f#	.	.	8f#J 8a	.	.	8aaaJ	.	.	.	.	.	.	.	.	.	.	.	.
.	.	.	16eJJ	.	.	.	.	.	.	.	.	.	.	.	.	.	.	16b	.	.	.	16b	.	.	16b	.	.
8EEL	.	.	16gLL	.	.	8EEL 8BB 8E 8G 8B 8e	.	.	8g	.	.	4g 4b	.	.	4bbb	.	.	8ddnL	.	.	.	8ddL	.	.	8ddL	.	.
.	.	.	16b	.	.	.	.	.	.	.	.	.	.	.	.	.	.	.	.	.	.	.	.	.	.	.	.
8DDnJ	.	.	16ddJJ	.	.	16EEL 16BB 16E 16G 16B 16e	.	.	8dnJ	.	.	.	.	.	.	.	.	16eeL	.	.	.	16eeL	.	.	16eeL	.	.
.	.	.	16r	.	.	16GJJ 16B	.	.	.	.	.	.	.	.	.	.	.	[16ggJJ	.	.	.	[16ggJJ	.	.	[16ggJJ	.	.
=24	=24	=24	=24	=24	=24	=24	=24	=24	=24	=24	=24	=24	=24	=24	=24	=24	=24	=24	=24	=24	=24	=24	=24	=24	=24	=24	=24
4CC	.	.	16CLL	.	.	8.CL 8.E 8.G 8.c 8.e	.	C major	4C	.	.	1c 1g	.	.	2.ccc	.	.	4.gg]	1g	.	.	4.gg]	.	.	4.gg]	.	.
.	.	.	16E	.	.	.	.	.	.	.	.	.	.	.	.	.	.	.	.	.	.	.	.	.	.	.	.
.	.	.	16G	.	.	.	.	.	.	.	.	.	.	.	.	.	.	.	.	.	.	.	.	.	.	.	.
.	.	.	16cJJ	.	.	16GJk 16c	.	.	.	.	.	.	.	.	.	.	.	.	.	.	.	.	.	.	.	.	.
8.CCL	.	.	4e	.	.	4C 4E 4G 4c 4e	.	.	8.CL	.	.	.	.	.	.	.	.	.	.	.	.	.	.	.	.	.	.
.	.	.	.	.	.	.	.	.	.	.	.	.	.	.	.	.	.	16eeKL	.	.	.	16eeKL	.	.	16eeKL	.	.
16GGGJk	.	.	.	.	.	.	.	.	16GGJk	.	.	.	.	.	.	.	.	8gg	.	.	.	8gg	.	.	8gg	.	.
16CC	.	.	8CL 8E 8G 8c 8e	.	.	8CL 8E 8G 8c 8e	.	.	16C	.	.	.	.	.	.	.	.	.	.	.	.	.	.	.	.	.	.
16r	.	.	.	.	.	.	.	.	16r	.	.	.	.	.	.	.	.	16aaL	.	.	.	16aaL	.	.	16aaL	.	.
[8CC	.	.	8C 8E 8G 8c 8e	.	.	8C 8E 8G 8c 8e	.	.	8C	.	.	.	.	.	.	.	.	16bbJ	.	.	.	16bbJ	.	.	16bbJ	.	.
.	.	.	.	.	.	.	.	.	.	.	.	.	.	.	.	.	.	8aa	.	.	.	8aa	.	.	8aa	.	.
8CCL]	.	.	8C 8E 8G 8c 8e	.	.	8C 8E 8G 8c 8e	.	.	16GLL	.	.	.	.	.	8ggL	.	.	.	.	.	.	.	.	.	.	.	.
.	.	.	.	.	.	.	.	.	16AJ	.	.	.	.	.	.	.	.	16ggL	.	.	.	16ggL	.	.	16ggL	.	.
8GGGJ	.	.	8CJ 8E 8G 8c 8e	.	.	8CJ 8E 8G 8c 8e	.	.	8cJ	.	.	.	.	.	8cccJ	.	.	16gg	.	.	.	16gg	.	.	16gg	.	.
.	.	.	.	.	.	.	.	.	.	.	.	.	.	.	.	.	.	[16aaJJ	.	.	.	[16aaJJ	.	.	[16aaJJ	.	.
=25	=25	=25	=25	=25	=25	=25	=25	=25	=25	=25	=25	=25	=25	=25	=25	=25	=25	=25	=25	=25	=25	=25	=25	=25	=25	=25	=25
4DD	.	.	16DLL	.	.	4D 4A 4d 4g	.	D suspended-fourth	4G	.	.	[1d [1a	.	.	1ddd	.	.	4aa]	1a	.	.	4aa]	.	.	4aa]	.	.
.	.	.	16A	.	.	.	.	.	.	.	.	.	.	.	.	.	.	.	.	.	.	.	.	.	.	.	.
.	.	.	16d	.	.	.	.	.	.	.	.	.	.	.	.	.	.	.	.	.	.	.	.	.	.	.	.
.	.	.	16gJJ	.	.	.	.	.	.	.	.	.	.	.	.	.	.	.	.	.	.	.	.	.	.	.	.
8.DDL	.	.	4d	.	.	4D 4A 4d 4g	.	.	4A	.	.	.	.	.	.	.	.	16r	.	.	.	16r	.	.	16r	.	.
.	.	.	.	.	.	.	.	.	.	.	.	.	.	.	.	.	.	16ddLL	.	.	.	16ddLL	.	.	16ddLL	.	.
.	.	.	.	.	.	.	.	.	.	.	.	.	.	.	.	.	.	16dd	.	.	.	16dd	.	.	16dd	.	.
16AAAJk	.	.	.	.	.	.	.	.	.	.	.	.	.	.	.	.	.	16ddJJ	.	.	.	16ddJJ	.	.	16ddJJ	.	.
8DDL	.	.	8DL 8A 8d 8f#	.	.	8DL 8A 8d 8f#	.	D major	2d	.	.	.	.	.	.	.	.	8ddL	.	.	.	8ddL	.	.	8ddL	.	.
8DD	.	.	8DJ 8A 8d 8f#	.	.	8DJ 8A 8d 8f#	.	.	.	.	.	.	.	.	.	.	.	8ggJ	.	.	.	8ggJ	.	.	8ggJ	.	.
8DD	.	.	8DL 8A 8d 8f#	.	.	8DL 8A 8d 8f#	.	.	.	.	.	.	.	.	.	.	.	8ff#L	.	.	.	8ff#L	.	.	8ff#L	.	.
8DDJ	.	.	16DL 16A 16d 16f#	.	.	16DL 16A 16d 16f#	.	.	.	.	.	.	.	.	.	.	.	16ff#L	.	.	.	16ff#L	.	.	16ff#L	.	.
.	.	.	16AJJ 16d	.	.	16AJJ 16d	.	.	.	.	.	.	.	.	.	.	.	[16ggJJ	.	.	.	[16ggJJ	.	.	[16ggJJ	.	.
=26	=26	=26	=26	=26	=26	=26	=26	=26	=26	=26	=26	=26	=26	=26	=26	=26	=26	=26	=26	=26	=26	=26	=26	=26	=26	=26	=26
2GG	.	.	2GG 2BB 2D 2G 2B 2g	.	.	2GG 2BB 2D 2G 2B 2g	.	G major	2G	.	.	2d] 2a]	.	.	2bb	.	.	2gg]	2g	.	.	2gg]	.	.	2gg]	.	.
2r	.	.	2r	.	.	2r	.	.	16GGLL	mp	.	2G	mp	.	16gLL	mp	.	16bLL	2r	mp	.	16bbLL	mp	.	2r	.	.
.	.	.	.	.	.	.	.	.	16AAJ	.	.	.	.	.	16ccJ	.	.	16ccJ	.	.	.	16cccJ	.	.	.	.	.
.	.	.	.	.	.	.	.	.	8BBJ	.	.	.	.	.	8ddJ	.	.	8ddJ	.	.	.	8dddJ	.	.	.	.	.
.	.	.	.	.	.	.	.	.	8AAL	.	.	.	.	.	8ccL	.	.	8ccL	.	.	.	8cccL	.	.	.	.	.
.	.	.	.	.	.	.	.	.	8GGJ	.	.	.	.	.	8bJ	.	.	8bJ	.	.	.	8bbJ	.	.	.	.	.
*	*	*	*	*	*	*	*	*	*	*	*	*	*	*	*	*	*	*v	*v	*	*	*	*	*	*	*	*
=27	=27	=27	=27	=27	=27	=27	=27	=27	=27	=27	=27	=27	=27	=27	=27	=27	=27	=27	=27	=27	=27	=27	=27	=27	=27	=27
2.r	.	.	1r	.	.	1r	.	.	8AA	.	.	2A	.	.	8ccL	.	.	8ccL	.	.	8cccL	.	.	8r	.	.
.	.	.	.	.	.	.	.	.	4C	.	.	.	.	.	8a	.	.	8a	.	.	8aa	.	.	8r	.	.
.	.	.	.	.	.	.	.	.	.	.	.	.	.	.	8g	.	.	8g	.	.	8gg	.	.	4r	.	.
.	.	.	.	.	.	.	.	.	8AA	.	.	.	.	.	8fnJ	.	.	8fnJ	.	.	8ffnJ	.	.	.	.	.
.	.	.	.	.	.	.	.	.	4DD	.	.	4D	.	.	4c	.	.	4e	.	.	4ee	.	.	16r	.	.
.	.	.	.	.	.	.	.	.	.	.	.	.	.	.	.	.	.	.	.	.	.	.	.	16r	.	.
.	.	.	.	.	.	.	.	.	.	.	.	.	.	.	.	.	.	.	.	.	.	.	.	8r	.	.
16DD^KL	mf	.	.	.	.	.	.	.	16D^KL	mf	.	16D^KL	mf	.	16dd^KL	mf	.	16dd^KL	mf	.	8.r	.	.	16r	.	.
8.FF#^J	.	.	.	.	.	.	.	.	8.F#^J	.	.	8.F#^J	.	.	8.ff#^J	.	.	8.ff#^J	.	.	.	.	.	16r	.	.
.	.	.	.	.	.	.	.	.	.	.	.	.	.	.	.	.	.	.	.	.	.	.	.	16r	.	.
.	.	.	.	.	.	.	.	.	.	.	.	.	.	.	.	.	.	.	.	.	16d	f	.	16d	f	.
=28	=28	=28	=28	=28	=28	=28	=28	=28	=28	=28	=28	=28	=28	=28	=28	=28	=28	=28	=28	=28	=28	=28	=28	=28	=28	=28
4GG	.	.	8GGL 8BB	mf	.	4GG 4BB 4D 4G 4B 4g	mf	G major	8G'L 8d	.	.	2G	.	.	2B	.	.	2g	.	.	8.ddL	.	.	8.ddL	.	.
.	.	.	8GGJ 8BB	.	.	.	.	.	8G' 8d	.	.	.	.	.	.	.	.	.	.	.	.	.	.	.	.	.
.	.	.	.	.	.	.	.	.	.	.	.	.	.	.	.	.	.	.	.	.	16ddJk	.	.	16ddJk	.	.
4GG	.	.	8.GGL 8.BB 8.D 8.G	.	.	8GGL 8BB 8D 8G 8B 8g	.	.	8G' 8d	.	.	.	.	.	.	.	.	.	.	.	8.ddL	.	.	8.ddL	.	.
.	.	.	.	.	.	16GGL 16BB 16D 16G 16B 16g	.	.	8G'J 8d	.	.	.	.	.	.	.	.	.	.	.	.	.	.	.	.	.
.	.	.	16GGJk 16BB 16D 16G	.	.	16GJJ 16B	.	.	.	.	.	.	.	.	.	.	.	.	.	.	16eeJk	.	.	16eeJk	.	.
4BB	.	.	8BBL 8D	.	.	4BB 4F# 4A 4d 4f#	.	B minor-seventh	8B'L 8f#	.	.	2B	.	.	2d	.	.	2d	.	.	16ddLL	.	.	16ddLL	.	.
.	.	.	.	.	.	.	.	.	.	.	.	.	.	.	.	.	.	.	.	.	16ccJ	.	.	16ccJ	.	.
.	.	.	8BBJ 8D	.	.	.	.	.	8B' 8f#	.	.	.	.	.	.	.	.	.	.	.	8bJ	.	.	8bJ	.	.
8BBL	.	.	8.BBL 8.D 8.A	.	.	8BBL 8F# 8A 8d 8f#	.	.	8B' 8f#	.	.	.	.	.	.	.	.	.	.	.	8r	.	.	8r	.	.
8FF#J	.	.	.	.	.	16BBL 16F# 16A 16d 16f#	.	.	8B'J 8f#	.	.	.	.	.	.	.	.	.	.	.	16aLL	.	.	16aLL	.	.
.	.	.	16BBJk 16D 16A	.	.	16AJJ 16d	.	.	.	.	.	.	.	.	.	.	.	.	.	.	16bJJ	.	.	16bJJ	.	.
=29	=29	=29	=29	=29	=29	=29	=29	=29	=29	=29	=29	=29	=29	=29	=29	=29	=29	=29	=29	=29	=29	=29	=29	=29	=29	=29
4.C	.	.	8CL 8E	.	.	4C 4E 4G 4c 4e	.	C major	8C'L 8G	.	.	2C	.	.	2e	.	.	2e	.	.	8ccL	.	.	8ccL	.	.
.	.	.	8CJ 8E	.	.	.	.	.	8C' 8G	.	.	.	.	.	.	.	.	.	.	.	8b	.	.	8b	.	.
.	.	.	8.CL 8.E 8.G 8.c	.	.	8CL 8E 8G 8c 8e	.	.	8C' 8G	.	.	.	.	.	.	.	.	.	.	.	8cc	.	.	8cc	.	.
8C	.	.	.	.	.	16CL 16E 16G 16c 16e	.	.	8C'J 8G	.	.	.	.	.	.	.	.	.	.	.	8ddJ	.	.	8ddJ	.	.
.	.	.	16CJk 16E 16G 16c	.	.	16GJJ 16c	.	.	.	.	.	.	.	.	.	.	.	.	.	.	.	.	.	.	.	.
4GG	.	.	8GGL 8BB 8D	.	.	8GGL 8BB 8D 8G 8B	.	G major	8G'L 8d	.	.	4G	.	.	4g	.	.	2d	.	.	8bL	.	.	8bL	.	.
.	.	.	8GGJ 8BB 8D	.	.	16GGL 16BB 16D 16G 16B	.	.	8G' 8d	.	.	.	.	.	.	.	.	.	.	.	16aK	.	.	16aK	.	.
.	.	.	.	.	.	16GJJ 16B	.	.	.	.	.	.	.	.	.	.	.	.	.	.	8g	.	.	8g	.	.
4FF#	.	.	8FF#L 8D	.	.	8DL 8A 8d 8f#	.	D major	8G' 8d	.	.	4F#	.	.	4a	.	.	.	.	.	.	.	.	.	.	.
.	.	.	.	.	.	.	.	.	.	.	.	.	.	.	.	.	.	.	.	.	8.aJ	.	.	8.aJ	.	.
.	.	.	16FF#L 16D	.	.	16DL 16A 16d 16f#	.	.	8G'J 8d	.	.	.	.	.	.	.	.	.	.	.	.	.	.	.	.	.
.	.	.	16FF#JJ 16D	.	.	16AJJ 16d	.	.	.	.	.	.	.	.	.	.	.	.	.	.	.	.	.	.	.	.
=30	=30	=30	=30	=30	=30	=30	=30	=30	=30	=30	=30	=30	=30	=30	=30	=30	=30	=30	=30	=30	=30	=30	=30	=30	=30	=30
4.EE	.	.	8EEL 8BB	.	.	16EELL 16BB 16E 16G 16B 16e	.	E minor	8E'L 8B	.	.	4.E	.	.	16bLL	.	.	1B	.	.	8.r	.	.	8.r	.	.
.	.	.	.	.	.	16EEJ 16BB 16E 16G 16B 16e	.	.	.	.	.	.	.	.	16aJ	.	.	.	.	.	.	.	.	.	.	.
.	.	.	8EEJ 8BB	.	.	8EEJ 8BB 8E 8G 8B 8e	.	.	8E' 8B	.	.	.	.	.	[8gJ	.	.	.	.	.	.	.	.	.	.	.
.	.	.	.	.	.	.	.	.	.	.	.	.	.	.	.	.	.	.	.	.	16d	.	.	16d	.	.
.	.	.	8.EEL 8.BB 8.E 8.G	.	.	8EEL 8BB 8E 8G 8B 8e	.	.	8E' 8B	.	.	.	.	.	8gL]	.	.	.	.	.	12gL	.	.	12gL	.	.
.	.	.	.	.	.	.	.	.	.	.	.	.	.	.	.	.	.	.	.	.	12g	.	.	12g	.	.
8EE	.	.	.	.	.	16EEL 16BB 16E 16G 16B 16e	.	.	8E'J 8B	.	.	8e	.	.	8eJ	.	.	.	.	.	.	.	.	.	.	.
.	.	.	.	.	.	.	.	.	.	.	.	.	.	.	.	.	.	.	.	.	12aJ	.	.	12aJ	.	.
.	.	.	16EEJk 16BB 16E 16G	.	.	16GJJ 16B	.	.	.	.	.	.	.	.	.	.	.	.	.	.	.	.	.	.	.	.
4BB	.	.	8BBL 8F#	.	.	8BBL 8F# 8A 8d 8f#	.	B minor-seventh	8BB'L 8F#	.	.	2B	.	.	4f#	.	.	.	.	.	8bL	.	.	8bL	.	.
.	.	.	8BBJ 8F#	.	.	8AJ 8d	.	.	8BB' 8F#	.	.	.	.	.	.	.	.	.	.	.	16ddK	.	.	16ddK	.	.
.	.	.	.	.	.	.	.	.	.	.	.	.	.	.	.	.	.	.	.	.	8ddJ	.	.	8ddJ	.	.
4BB	.	.	8BBL 8F# 8A	.	.	8BBL 8F# 8A 8d 8f#	.	.	8BB' 8F#	.	.	.	.	.	4d	.	.	.	.	.	.	.	.	.	.	.
.	.	.	.	.	.	.	.	.	.	.	.	.	.	.	.	.	.	.	.	.	16r	.	.	16r	.	.
.	.	.	16BBL 16F# 16A	.	.	16BBL 16F# 16A 16d 16f#	.	.	8BB'J 8F#	.	.	.	.	.	.	.	.	.	.	.	16dLL	.	.	16dLL	.	.
.	.	.	16F#JJ 16A	.	.	16AJJ 16d	.	.	.	.	.	.	.	.	.	.	.	.	.	.	16dJJ	.	.	16dJJ	.	.
=31	=31	=31	=31	=31	=31	=31	=31	=31	=31	=31	=31	=31	=31	=31	=31	=31	=31	=31	=31	=31	=31	=31	=31	=31	=31	=31
4.CC	.	.	8CL 8G	.	.	8CL 8E 8G 8c 8e	.	C major	8C'L 8G	.	.	2C	.	.	4.c	.	.	2c	.	.	8eL	.	.	8eL	.	.
.	.	.	8CJ 8G	.	.	8CJ 8E 8G 8c 8e	.	.	8C' 8G	.	.	.	.	.	.	.	.	.	.	.	16gL	.	.	16gL	.	.
.	.	.	.	.	.	.	.	.	.	.	.	.	.	.	.	.	.	.	.	.	16gJJ	.	.	16gJJ	.	.
.	.	.	4C 4G	.	.	8CL 8E 8G 8c 8e	.	.	8C' 8G	.	.	.	.	.	.	.	.	.	.	.	8gL	.	.	8gL	.	.
8CC	.	.	.	.	.	16CL 16E 16G 16c 16e	.	.	8C'J 8G	.	.	.	.	.	16cLL	.	.	.	.	.	16eL	.	.	16eL	.	.
.	.	.	.	.	.	16GJJ 16c	.	.	.	.	.	.	.	.	16AJJ	.	.	.	.	.	[16aJJ	.	.	[16aJJ	.	.
4DD	.	.	8DL 8A	.	.	8DL 8A 8d 8f#	.	D major	8AL	.	.	4.D	.	.	8AL	.	.	2d	.	.	4a]	.	.	4a]	.	.
.	.	.	8D 8A	.	.	8AJ 8d	.	.	16dL	.	.	.	.	.	16dL	.	.	.	.	.	.	.	.	.	.	.
.	.	.	.	.	.	.	.	.	[16AJJ	.	.	.	.	.	16AJJ	.	.	.	.	.	.	.	.	.	.	.
8DDL	.	.	8D 8A	.	.	8DL 8A 8d 8f#	.	.	16ALL]	.	.	.	.	.	16f#LL	.	.	.	.	.	8.r	.	.	8.r	.	.
.	.	.	.	.	.	.	.	.	16GJ	.	.	.	.	.	16g	.	.	.	.	.	.	.	.	.	.	.
8AAJ	.	.	8GJ	.	.	16DL 16A 16d 16f#	.	.	8F#J	.	.	8d	.	.	16a	.	.	.	.	.	.	.	.	.	.	.
.	.	.	.	.	.	16AJJ 16d	.	.	.	.	.	.	.	.	16dJJ	f	.	.	.	.	16r	.	.	16d	f	.
=32	=32	=32	=32	=32	=32	=32	=32	=32	=32	=32	=32	=32	=32	=32	=32	=32	=32	=32	=32	=32	=32	=32	=32	=32	=32	=32
4GG	.	.	8GGL 8BB	.	.	4GG 4BB 4D 4G 4B 4g	.	G major	2G	.	.	8GL	.	.	4dd	.	.	8dL	.	.	4d	mf	.	4dd	.	.
.	.	.	8GG 8BB	.	.	.	.	.	.	.	.	8BJ	.	.	.	.	.	8gJ	.	.	.	.	.	.	.	.
8GGL	.	.	8GG 8BB 8D 8G	.	.	8GGL 8BB 8D 8G 8B 8g	.	.	.	.	.	16BLL	.	.	16ddLL	.	.	16bLL	.	.	4g	.	.	16ddLL	.	.
.	.	.	.	.	.	.	.	.	.	.	.	16GJ	.	.	16ddJ	.	.	16dd	.	.	.	.	.	16ddJ	.	.
8DDJ	.	.	8GGJ 8BB 8D 8G	.	.	16GGL 16BB 16D 16G 16B 16g	.	.	.	.	.	8DJ	.	.	8eeJ	.	.	16gg	.	.	.	.	.	8eeJ	.	.
.	.	.	.	.	.	16GJJ 16B	.	.	.	.	.	.	.	.	.	.	.	16ddJJ	.	.	.	.	.	.	.	.
8BBBL	.	.	8BBL 8F#	.	.	8BBL 8F# 8A 8d 8f#	.	B minor-seventh	4F#	.	.	8f#L	.	.	16ddLL	.	.	8BL	.	.	2f#	.	.	16ddLL	.	.
.	.	.	.	.	.	.	.	.	.	.	.	.	.	.	16ccJ	.	.	.	.	.	.	.	.	16ccJ	.	.
8BBB	.	.	8BBJ 8F#	.	.	8AJ 8d	.	.	.	.	.	8d	.	.	8bJ	.	.	8f#	.	.	.	.	.	8bJ	.	.
8BBB	.	.	8BBL 8F# 8A	.	.	8BBL 8F# 8A 8d 8f#	.	.	8F#L	.	.	8A	.	.	8r	.	.	8dd	.	.	.	.	.	8r	.	.
8DDJ	.	.	16BBL 16F# 16A	.	.	16BBL 16F# 16A 16d 16f#	.	.	8dJ	.	.	8dJ	.	.	16aLL	.	.	8aJ	.	.	.	.	.	16aLL	.	.
.	.	.	16F#JJ 16A	.	.	16AJJ 16d	.	.	.	.	.	.	.	.	16bJJ	.	.	.	.	.	.	.	.	16bJJ	.	.
=33	=33	=33	=33	=33	=33	=33	=33	=33	=33	=33	=33	=33	=33	=33	=33	=33	=33	=33	=33	=33	=33	=33	=33	=33	=33	=33
8CCL	.	.	8CL 8E	.	.	4C 4E 4G 4c 4e	.	C major	2c	.	.	16ELL	.	.	8ccL	.	.	8eeL	.	.	2.g	.	.	8ccL	.	.
.	.	.	.	.	.	.	.	.	.	.	.	16G	.	.	.	.	.	.	.	.	.	.	.	.	.	.
8CC	.	.	8CJ 8E	.	.	.	.	.	.	.	.	16c	.	.	8b	.	.	8ccJ	.	.	.	.	.	8b	.	.
.	.	.	.	.	.	.	.	.	.	.	.	16eJJ	.	.	.	.	.	.	.	.	.	.	.	.	.	.
8CC	.	.	8CL 8E 8G 8c	.	.	8CL 8E 8G 8c 8e	.	.	.	.	.	8cL	.	.	8cc	.	.	16ccLL	.	.	.	.	.	8cc	.	.
.	.	.	.	.	.	.	.	.	.	.	.	.	.	.	.	.	.	16g	.	.	.	.	.	.	.	.
8CCJ	.	.	16CL 16E 16G 16c	.	.	16CL 16E 16G 16c 16e	.	.	.	.	.	8GJ	.	.	8ddJ	.	.	16e	.	.	.	.	.	8ddJ	.	.
.	.	.	16CJJ 16E 16G 16c	.	.	16GJJ 16c	.	.	.	.	.	.	.	.	.	.	.	16eeJJ	.	.	.	.	.	.	.	.
4GG	.	.	8GGL 8BB 8D	.	.	8GGL 8BB 8D 8G 8B	.	G major	4.d	.	.	8BL	.	.	8bL	.	.	4b	.	.	.	.	.	8bL	.	.
.	.	.	8GGJ 8BB 8D	.	.	16GGL 16BB 16D 16G 16B	.	.	.	.	.	8GJ	.	.	8aJ	.	.	.	.	.	.	.	.	8aJ	.	.
.	.	.	.	.	.	16GJJ 16B	.	.	.	.	.	.	.	.	.	.	.	.	.	.	.	.	.	.	.	.
4FF#	.	.	8FF#L 8D	.	.	8DL 8A 8d 8f#	.	D major	.	.	.	16AKL	.	.	16gKL	.	.	4dd	.	.	4a	.	.	16gKL	.	.
.	.	.	.	.	.	.	.	.	.	.	.	8.dJ	.	.	8.aJ	.	.	.	.	.	.	.	.	8.aJ	.	.
.	.	.	16FF#L 16D	.	.	16DL 16A 16d 16f#	.	.	8A	.	.	.	.	.	.	.	.	.	.	.	.	.	.	.	.	.
.	.	.	16DJJ	.	.	16AJJ 16d	.	.	.	.	.	.	.	.	.	.	.	.	.	.	.	.	.	.	.	.
=34	=34	=34	=34	=34	=34	=34	=34	=34	=34	=34	=34	=34	=34	=34	=34	=34	=34	=34	=34	=34	=34	=34	=34	=34	=34	=34
8EEL	.	.	8EEL 8BB	.	.	8EEL 8BB 8E 8G 8B 8e	.	E minor	16ALL	.	.	8eL	.	.	8.r	.	.	2gg	.	.	1b	.	.	8.r	.	.
.	.	.	.	.	.	.	.	.	16BJJ	.	.	.	.	.	.	.	.	.	.	.	.	.	.	.	.	.
8EEJ	.	.	8EEJ 8BB	.	.	8GJ 8B	.	.	4.e	.	.	8BJ	.	.	.	.	.	.	.	.	.	.	.	.	.	.
.	.	.	.	.	.	.	.	.	.	.	.	.	.	.	16d	.	.	.	.	.	.	.	.	16d	.	.
4EE	.	.	8.EEL 8.BB 8.E 8.G	.	.	8EEL 8BB 8E 8G 8B 8e	.	.	.	.	.	16GLL	.	.	12gL	.	.	.	.	.	.	.	.	12gL	.	.
.	.	.	.	.	.	.	.	.	.	.	.	16E	.	.	.	.	.	.	.	.	.	.	.	.	.	.
.	.	.	.	.	.	.	.	.	.	.	.	.	.	.	12g	.	.	.	.	.	.	.	.	12g	.	.
.	.	.	.	.	.	16EEL 16BB 16E 16G 16B 16e	.	.	.	.	.	16G	.	.	.	.	.	.	.	.	.	.	.	.	.	.
.	.	.	.	.	.	.	.	.	.	.	.	.	.	.	12aJ	.	.	.	.	.	.	.	.	12aJ	.	.
.	.	.	16EEJk 16BB 16E 16G	.	.	16GJJ 16B	.	.	.	.	.	16BJJ	.	.	.	.	.	.	.	.	.	.	.	.	.	.
8BBBL	.	.	8BBL 8F#	.	.	8BBL 8F# 8A 8d 8f#	.	B minor-seventh	8A	.	.	16F#LL	.	.	8bL	.	.	8ff#L	.	.	.	.	.	8bL	.	.
.	.	.	.	.	.	.	.	.	.	.	.	16A	.	.	.	.	.	.	.	.	.	.	.	.	.	.
8BBB	.	.	8BBJ 8F#	.	.	8BBJ 8F# 8A 8d 8f#	.	.	4.d	.	.	16d	.	.	16ddL	.	.	8dd	.	.	.	.	.	16ddL	.	.
.	.	.	.	.	.	.	.	.	.	.	.	16f#JJ	.	.	16ddJJ	.	.	.	.	.	.	.	.	16ddJJ	.	.
8BBB	.	.	8BBL 8F# 8A	.	.	8BBL 8F# 8A 8d 8f#	.	.	.	.	.	8dL	.	.	16r	.	.	8a	.	.	.	.	.	16r	.	.
.	.	.	.	.	.	.	.	.	.	.	.	.	.	.	16dLL	.	.	.	.	.	.	.	.	16dLL	.	.
8BBBJ	.	.	16BBL 16F# 16A	.	.	16BBL 16F# 16A 16d 16f#	.	.	.	.	.	8AJ	.	.	16d	.	.	8ddJ	.	.	.	.	.	16d	.	.
.	.	.	16F#JJ 16A	.	.	16AJJ 16d	.	.	.	.	.	.	.	.	16ddJJ	.	.	.	.	.	.	.	.	16ddJJ	.	.
=35	=35	=35	=35	=35	=35	=35	=35	=35	=35	=35	=35	=35	=35	=35	=35	=35	=35	=35	=35	=35	=35	=35	=35	=35	=35	=35
8CCL	.	.	8CL 8G	.	.	4C 4E 4G 4c 4e	.	C major	2c	.	.	4c	.	.	8ccL	.	.	8ccL	.	.	2cc	.	.	8ccL	.	.
8CC	.	.	8CJ 8G	.	.	.	.	.	.	.	.	.	.	.	16bL	.	.	8ee	.	.	.	.	.	16bL	.	.
.	.	.	.	.	.	.	.	.	.	.	.	.	.	.	[16aJJ	.	.	.	.	.	.	.	.	[16aJJ	.	.
8CC	.	.	4C 4G	.	.	8CL 8E 8G 8c 8e	.	.	.	.	.	4G	.	.	8aL]	.	.	8gg	.	.	.	.	.	8aL]	.	.
8CCJ	.	.	.	.	.	16CL 16E 16G 16c 16e	.	.	.	.	.	.	.	.	16gJk	.	.	8ccJ	.	.	.	.	.	16gJk	.	.
.	.	.	.	.	.	16GJJ 16c	.	.	.	.	.	.	.	.	4a	.	.	.	.	.	.	.	.	4a	.	.
8DDL	.	.	8DL 8A	.	.	8DL 8A 8d 8f#	.	D major	16DLL	.	.	16dLL	.	.	.	.	.	4a	.	.	2dd	.	.	.	.	.
.	.	.	.	.	.	.	.	.	16F#	.	.	16A	.	.	.	.	.	.	.	.	.	.	.	.	.	.
8DD	.	.	8D 8A	.	.	8DJ 8A 8d 8f#	.	.	16D	.	.	16A	.	.	.	.	.	.	.	.	.	.	.	.	.	.
.	.	.	.	.	.	.	.	.	16GJJ	.	.	16dJJ	.	.	16r	.	.	.	.	.	.	.	.	16r	.	.
8DD	.	.	8D 8A	.	.	8DL 8A 8d 8f#	.	.	16GLL	.	.	8f#L	.	.	4r	.	.	4dd	.	.	.	.	.	4r	.	.
.	.	.	.	.	.	.	.	.	16DJ	.	.	.	.	.	.	.	.	.	.	.	.	.	.	.	.	.
8AAJ	.	.	8GJ	.	.	16DL 16A 16d 16f#	.	.	8AJ	.	.	8dJ	.	.	.	.	.	.	.	.	.	.	.	.	.	.
.	.	.	.	.	.	16AJJ 16d	.	.	.	.	.	.	.	.	.	.	.	.	.	.	.	.	.	.	.	.
=36	=36	=36	=36	=36	=36	=36	=36	=36	=36	=36	=36	=36	=36	=36	=36	=36	=36	=36	=36	=36	=36	=36	=36	=36	=36	=36
4CC	.	.	4GG 4C 4E	.	.	4C 4E 4G 4c 4e	.	C major	2C	.	.	8gL	f	.	2cc	mp	.	2cc	mf	.	2ee	mp	.	8gL	f	.
.	.	.	.	.	.	.	.	.	.	.	.	8a	.	.	.	.	.	.	.	.	.	.	.	8a	.	.
8CCL	.	.	4GG 4C 4E	.	.	8CL 8E 8G 8c 8e	.	.	.	.	.	8bJ	.	.	.	.	.	.	.	.	.	.	.	8bJ	.	.
8CCJ	.	.	.	.	.	8CJ 8E 8G 8c 8e	.	.	.	.	.	4dd	.	.	.	.	.	.	.	.	.	.	.	4dd	.	.
4DD	.	.	8DL 8F#	.	.	4D 4A 4d 4f#	.	D major	2D	.	.	.	.	.	2dd	.	.	2dd	.	.	2ff#	.	.	.	.	.
.	.	.	8AA	.	.	.	.	.	.	.	.	8gL	.	.	.	.	.	.	.	.	.	.	.	8gL	.	.
4DD	.	.	8D 8A	.	.	8DL 8A 8d 8f#	.	.	.	.	.	8f#	.	.	.	.	.	.	.	.	.	.	.	8f#	.	.
.	.	.	8AAJ	.	.	16DL 16A 16d 16f#	.	.	.	.	.	[8gJ	.	.	.	.	.	.	.	.	.	.	.	[8gJ	.	.
.	.	.	.	.	.	16AJJ 16d	.	.	.	.	.	.	.	.	.	.	.	.	.	.	.	.	.	.	.	.
=37	=37	=37	=37	=37	=37	=37	=37	=37	=37	=37	=37	=37	=37	=37	=37	=37	=37	=37	=37	=37	=37	=37	=37	=37	=37	=37
4EE	.	.	4BB 4E	.	.	4EE 4BB 4E 4G 4B 4e	.	E minor	4r	.	.	2g]	.	.	2ee	.	.	4ee	.	.	2gg	.	.	2g]	.	.
8EEL	.	.	4G	.	.	4EE 4BB 4E 4G 4B 4e	.	.	8GL	.	.	.	.	.	.	.	.	4dd	.	.	.	.	.	.	.	.
8BBJ	.	.	.	.	.	.	.	.	8AJ	.	.	.	.	.	.	.	.	.	.	.	.	.	.	.	.	.
4GG	.	.	4Fn	.	.	4GG 4BB 4D 4G 4B 4fn	.	G dominant	16BLL	.	.	4r	.	.	2b	.	.	4b	.	.	2ffn	.	.	4r	.	.
.	.	.	.	.	.	.	.	.	16AJ	.	.	.	.	.	.	.	.	.	.	.	.	.	.	.	.	.
.	.	.	.	.	.	.	.	.	[8GJ	.	.	.	.	.	.	.	.	.	.	.	.	.	.	.	.	.
4GG	.	.	8DL	.	.	8GGL 8BB 8D 8G 8B 8f	.	.	4G]	.	.	8r	.	.	.	.	.	4g	.	.	.	.	.	8r	.	.
.	.	.	8BBJ	.	.	16GGL 16BB 16D 16G 16B 16f	.	.	.	.	.	16eeLL	.	.	.	.	.	.	.	.	.	.	.	16eeLL	.	.
.	.	.	.	.	.	16GJJ 16B	.	.	.	.	.	[16ddJJ	.	.	.	.	.	.	.	.	.	.	.	[16ddJJ	.	.
=38	=38	=38	=38	=38	=38	=38	=38	=38	=38	=38	=38	=38	=38	=38	=38	=38	=38	=38	=38	=38	=38	=38	=38	=38	=38	=38
4CC	.	.	4C 4E	.	.	8CL 8E 8G 8c 8e	.	C major	2C	.	.	4dd]	.	.	2cc	.	.	2e	.	.	2ee	.	.	4dd]	.	.
.	.	.	.	.	.	8GJ 8c	.	.	.	.	.	.	.	.	.	.	.	.	.	.	.	.	.	.	.	.
8CCL	.	.	4GG 4C 4E	.	.	8CL 8E 8G 8c 8e	.	.	.	.	.	16r	.	.	.	.	.	.	.	.	.	.	.	16r	.	.
.	.	.	.	.	.	.	.	.	.	.	.	16dLL	.	.	.	.	.	.	.	.	.	.	.	16dLL	.	.
8CCJ	.	.	.	.	.	16CL 16E 16G 16c 16e	.	.	.	.	.	16eeJJ	.	.	.	.	.	.	.	.	.	.	.	16eeJJ	.	.
.	.	.	.	.	.	16GJJ 16c	.	.	.	.	.	4.dd	.	.	.	.	.	.	.	.	.	.	.	4.dd	.	.
4DD	.	.	8DL 8F#	.	.	8DL 8A 8d 8f#	.	D major	2D	.	.	.	.	.	2dd	.	.	2f#	.	.	2ff#	.	.	.	.	.
.	.	.	8AA	.	.	8AJ 8d	.	.	.	.	.	.	.	.	.	.	.	.	.	.	.	.	.	.	.	.
4DD	.	.	8D 8A	.	.	8DL 8A 8d 8f#	.	.	.	.	.	.	.	.	.	.	.	.	.	.	.	.	.	.	.	.
.	.	.	.	.	.	.	.	.	.	.	.	16gLL	.	.	.	.	.	.	.	.	.	.	.	16gLL	.	.
.	.	.	8AAJ	.	.	16DL 16A 16d 16f#	.	.	.	.	.	16f#	.	.	.	.	.	.	.	.	.	.	.	16f#	.	.
.	.	.	.	.	.	16AJJ 16d	.	.	.	.	.	[16gJJ	.	.	.	.	.	.	.	.	.	.	.	[16gJJ	.	.
=39	=39	=39	=39	=39	=39	=39	=39	=39	=39	=39	=39	=39	=39	=39	=39	=39	=39	=39	=39	=39	=39	=39	=39	=39	=39	=39
8GGL	.	.	4BB 4D 4G	.	.	8GGL 8BB 8D 8G 8B 8g	.	G major	1G	.	.	16g]	.	.	2.ee	.	.	2.g	.	.	2.gg	.	.	16g]	.	.
.	.	.	.	.	.	.	.	.	.	.	.	8r	.	.	.	.	.	.	.	.	.	.	.	8r	.	.
8GGJ	.	.	.	.	.	8GG 8BB 8D 8G 8B 8g	.	.	.	.	.	.	.	.	.	.	.	.	.	.	.	.	.	.	.	.
.	.	.	.	.	.	.	.	.	.	.	.	16d	.	.	.	.	.	.	.	.	.	.	.	16d	.	.
4GG	.	.	8BBL 8D 8G	.	.	8GG 8BB 8D 8G 8B 8g	.	.	.	.	.	8dL	.	.	.	.	.	.	.	.	.	.	.	8dL	.	.
.	.	.	8BBJ	.	.	8GGJ 8BB 8D 8G 8B 8g	.	.	.	.	.	8gJ	.	.	.	.	.	.	.	.	.	.	.	8gJ	.	.
2GG	.	.	2BB 2D 2Fn	.	.	2GG: 2BB: 2D: 2G: 2B: 2fn:	.	G dominant	.	.	.	8ccL	.	.	.	.	.	.	.	.	.	.	.	8ccL	.	.
.	.	.	.	.	.	.	.	.	.	.	.	8bJ	.	.	.	.	.	.	.	.	.	.	.	8bJ	.	.
.	.	.	.	.	.	.	.	.	.	.	.	16aLL	.	.	8r	.	.	8r	.	.	8r	.	.	16aLL	.	.
.	.	.	.	.	.	.	.	.	.	.	.	16bJJ	.	.	.	.	.	.	.	.	.	.	.	16bJJ	.	.
.	.	.	.	.	.	.	.	.	.	.	.	8r	.	.	16gLL	f	.	8r	.	.	16ggLL	f	.	8r	.	.
.	.	.	.	.	.	.	.	.	.	.	.	.	.	.	16bJJ	.	.	.	.	.	16bbJJ	.	.	.	.	.
=40	=40	=40	=40	=40	=40	=40	=40	=40	=40	=40	=40	=40	=40	=40	=40	=40	=40	=40	=40	=40	=40	=40	=40	=40	=40	=40
*	*	*	*	*	*	*	*	*	*	*	*	*	*	*	*	*	*	*	*	*	*^	*	*	*	*	*
8CCL	f	.	16CLL	f	.	8CL 8E 8G 8c 8e	mf	C major	8CL	f	.	8cL 8g	f	.	2ee	.	.	16eeLL	ff	.	2ccc	16ccLL	.	.	16eeLL	ff	.
.	.	.	16E	.	.	.	.	.	.	.	.	.	.	.	.	.	.	16ee	.	.	.	16cc	.	.	16ee	.	.
8CC	.	.	16G	.	.	8GJ 8c	.	.	8EJ	.	.	8cJ 8g	.	.	.	.	.	16ee	.	.	.	16cc	.	.	16ee	.	.
.	.	.	16cJJ	.	.	.	.	.	.	.	.	.	.	.	.	.	.	16eeJJ	.	.	.	16ccJJ	.	.	16eeJJ	.	.
8CC	.	.	16eLL	.	.	8CL 8E 8G 8c 8e	.	.	16ELL	.	.	4c 4g	.	.	.	.	.	16eeLL	.	.	.	16ccLL	.	.	16eeLL	.	.
.	.	.	16c	.	.	.	.	.	16cJ	.	.	.	.	.	.	.	.	16cc	.	.	.	16g	.	.	16cc	.	.
8CCJ	.	.	16GJJ	.	.	16CL 16E 16G 16c 16e	.	.	8EJ	.	.	.	.	.	.	.	.	16cc	.	.	.	16g	.	.	16cc	.	.
.	.	.	16r	.	.	16GJJ 16c	.	.	.	.	.	.	.	.	.	.	.	16ggJJ	.	.	.	16eeJJ	.	.	16ggJJ	.	.
8DDL	.	.	16DLL	.	.	8DL 8A 8d 8f#	.	D major	8F#L	.	.	2d 2a	.	.	2ff#	.	.	8ff#L	.	.	2r	8ddL	.	.	8ff#L	.	.
.	.	.	16A	.	.	.	.	.	.	.	.	.	.	.	.	.	.	.	.	.	.	.	.	.	.	.	.
8DD	.	.	16d	.	.	8AJ 8d	.	.	8d	.	.	.	.	.	.	.	.	16ggK	.	.	.	16eeK	.	.	16ggK	.	.
.	.	.	16f#JJ	.	.	.	.	.	.	.	.	.	.	.	.	.	.	8.aa	.	.	.	8.ff#	.	.	8.aa	.	.
8DD	.	.	16aLL	.	.	8DL 8A 8d 8f#	.	.	8f#	.	.	.	.	.	.	.	.	.	.	.	.	.	.	.	.	.	.
.	.	.	16d	.	.	.	.	.	.	.	.	.	.	.	.	.	.	.	.	.	.	.	.	.	.	.	.
8AAJ	.	.	16AJJ	.	.	16DL 16A 16d 16f#	.	.	8dJ	.	.	.	.	.	.	.	.	8ff#J	.	.	.	8ddJ	.	.	8ff#J	.	.
.	.	.	16r	.	.	16AJJ 16d	.	.	.	.	.	.	.	.	.	.	.	.	.	.	.	.	.	.	.	.	.
=41	=41	=41	=41	=41	=41	=41	=41	=41	=41	=41	=41	=41	=41	=41	=41	=41	=41	=41	=41	=41	=41	=41	=41	=41	=41	=41	=41
2GG	.	.	16BBLL	.	.	8GGL 8BB 8D 8G 8B 8g	.	G major	16BBLL	.	.	4.G	.	.	4ff#	.	.	8ddL	.	.	4r	8bL	.	.	8ddL	.	.
.	.	.	16D	.	.	.	.	.	16DJ	.	.	.	.	.	.	.	.	.	.	.	.	.	.	.	.	.	.
.	.	.	16G	.	.	8GJ 8B	.	.	8GJ	.	.	.	.	.	.	.	.	16aaK	.	.	.	16ff#K	.	.	16aaK	.	.
.	.	.	16BJJ	.	.	.	.	.	.	.	.	.	.	.	.	.	.	8.gg	.	.	.	8.ee	.	.	8.gg	.	.
.	.	.	16gLL	.	.	8GGL 8BB 8D 8G 8B 8g	.	.	16GLL	.	.	.	.	.	4aa	.	.	.	.	.	4aa	.	.	.	.	.	.
.	.	.	16B	.	.	.	.	.	16DJ	.	.	.	.	.	.	.	.	.	.	.	.	.	.	.	.	.	.
.	.	.	16GJJ	.	.	16GGL 16BB 16D 16G 16B 16g	.	.	8BBJ	.	.	8G	.	.	.	.	.	16ff#Jk	.	.	.	16ddJk	.	.	16ff#Jk	.	.
.	.	.	16r	.	.	16GJJ 16B	.	.	.	.	.	.	.	.	.	.	.	4.gg	.	.	.	4.ee	.	.	4.gg	.	.
8EEL	.	.	16EELL	.	.	16EELL 16BB 16E 16G 16B 16e	.	E minor	8EL	.	.	8GL	.	.	4gg	.	.	.	.	.	4gg	.	.	.	.	.	.
.	.	.	16BB	.	.	16EEJ 16BB 16E 16G 16B 16e	.	.	.	.	.	.	.	.	.	.	.	.	.	.	.	.	.	.	.	.	.
8EE	.	.	16G	.	.	8GJ 8B	.	.	8B	.	.	(16eL	.	.	.	.	.	.	.	.	.	.	.	.	.	.	.
.	.	.	16BJJ	.	.	.	.	.	.	.	.	16dJJ)	.	.	.	.	.	.	.	.	.	.	.	.	.	.	.
8EE	.	.	16eLL	.	.	8EEL 8BB 8E 8G 8B 8e	.	.	8e	.	.	16BLL	.	.	4dd	.	.	.	.	.	4ddd	.	.	.	.	.	.
.	.	.	16G	.	.	.	.	.	.	.	.	16AJ	.	.	.	.	.	8r	.	.	.	8r	.	.	8r	.	.
8BBBJ	.	.	16EJJ	.	.	16EEL 16BB 16E 16G 16B 16e	.	.	8BJ	.	.	8GJ	.	.	.	.	.	.	.	.	.	.	.	.	.	.	.
.	.	.	16r	.	.	16GJJ 16B	.	.	.	.	.	.	.	.	.	.	.	16g	.	.	.	16g	.	.	16g	.	.
=42	=42	=42	=42	=42	=42	=42	=42	=42	=42	=42	=42	=42	=42	=42	=42	=42	=42	=42	=42	=42	=42	=42	=42	=42	=42	=42	=42
4CC	.	.	16CLL	.	.	8CL 8E 8G 8c 8e	.	C major	8.CL	.	.	2c 2g	.	.	2cc	.	.	16ccLL	.	.	2eee	16ccLL	.	.	16ccLL	.	.
.	.	.	16E	.	.	.	.	.	.	.	.	.	.	.	.	.	.	16cc	.	.	.	16cc	.	.	16cc	.	.
.	.	.	16G	.	.	8GJ 8c	.	.	.	.	.	.	.	.	.	.	.	16cc	.	.	.	16cc	.	.	16cc	.	.
.	.	.	16cJJ	.	.	.	.	.	16CJk	.	.	.	.	.	.	.	.	16ccJJ	.	.	.	16ccJJ	.	.	16ccJJ	.	.
8CCL	.	.	16eLL	.	.	8CL 8E 8G 8c 8e	.	.	16ELL	.	.	.	.	.	.	.	.	16ccLL	.	.	.	16ccLL	.	.	16ccLL	.	.
.	.	.	16c	.	.	.	.	.	16GJ	.	.	.	.	.	.	.	.	16cc	.	.	.	16cc	.	.	16cc	.	.
16GGGL	.	.	16GJJ	.	.	16CL 16E 16G 16c 16e	.	.	8EJ	.	.	.	.	.	.	.	.	16gg	.	.	.	16gg	.	.	16gg	.	.
16CCJJ	.	.	16r	.	.	16GJJ 16c	.	.	.	.	.	.	.	.	.	.	.	16ggJJ	.	.	.	16ggJJ	.	.	16ggJJ	.	.
8DDL	.	.	16DLL	.	.	16DLL 16A 16d 16f#	.	D major	8DL	.	.	2d 2a	.	.	2dd	.	.	16ff#KL	.	.	2r	16ff#KL	.	.	16ff#KL	.	.
.	.	.	16A	.	.	16DJ 16A 16d 16f#	.	.	.	.	.	.	.	.	.	.	.	8gg	.	.	.	8gg	.	.	8gg	.	.
8DDJ	.	.	16d	.	.	8AJ 8d	.	.	8AJ	.	.	.	.	.	.	.	.	.	.	.	.	.	.	.	.	.	.
.	.	.	16f#JJ	.	.	.	.	.	.	.	.	.	.	.	.	.	.	8aa	.	.	.	8aa	.	.	8aa	.	.
4DD	.	.	16aLL	.	.	8DL 8A 8d 8f#	.	.	8F#L	.	.	.	.	.	.	.	.	.	.	.	.	.	.	.	.	.	.
.	.	.	16d	.	.	.	.	.	.	.	.	.	.	.	.	.	.	16eeL	.	.	.	16eeL	.	.	16eeL	.	.
.	.	.	16AJJ	.	.	16DL 16A 16d 16f#	.	.	16F#L	.	.	.	.	.	.	.	.	16ee	.	.	.	16ee	.	.	16ee	.	.
.	.	.	16r	.	.	16AJJ 16d	.	.	16DJJ	.	.	.	.	.	.	.	.	16eeJJ	.	.	.	16eeJJ	.	.	16eeJJ	.	.
=43	=43	=43	=43	=43	=43	=43	=43	=43	=43	=43	=43	=43	=43	=43	=43	=43	=43	=43	=43	=43	=43	=43	=43	=43	=43	=43	=43
4GGG	.	.	16BBLL	.	.	8GGL 8BB 8D 8G 8B 8g	.	G major	8GL	.	.	8.BL	.	.	2gg	.	.	2.dd	.	.	4gg	2.dd	.	.	2.dd	.	.
.	.	.	16D	.	.	.	.	.	.	.	.	.	.	.	.	.	.	.	.	.	.	.	.	.	.	.	.
.	.	.	16G	.	.	8GJ 8B	.	.	8BB	.	.	.	.	.	.	.	.	.	.	.	.	.	.	.	.	.	.
.	.	.	16BJJ	.	.	.	.	.	.	.	.	16GJk	.	.	.	.	.	.	.	.	.	.	.	.	.	.	.
8GGL	.	.	16gLL	.	.	8GGL 8BB 8D 8G 8B 8g	.	.	8G	.	.	16BLL	.	.	.	.	.	.	.	.	4aa	.	.	.	.	.	.
.	.	.	16B	.	.	.	.	.	.	.	.	16A	.	.	.	.	.	.	.	.	.	.	.	.	.	.	.
8DDJ	.	.	16GJJ	.	.	16GGL 16BB 16D 16G 16B 16g	.	.	8BBJ	.	.	16B	.	.	.	.	.	.	.	.	.	.	.	.	.	.	.
.	.	.	16r	.	.	16GJJ 16B	.	.	.	.	.	16AJJ	.	.	.	.	.	.	.	.	.	.	.	.	.	.	.
8GG	.	.	16BBLL	.	.	8GGL 8BB 8D 8G 8B 8fn	.	G dominant	8FnL	.	.	16BLL	.	.	2dd	.	.	.	.	.	4bb	.	.	.	.	.	.
.	.	.	16D	.	.	.	.	.	.	.	.	16eJ	.	.	.	.	.	.	.	.	.	.	.	.	.	.	.
4GG	.	.	16G	.	.	8GJ 8B	.	.	8BB	.	.	[8dJ	.	.	.	.	.	.	.	.	.	.	.	.	.	.	.
.	.	.	16BJJ	.	.	.	.	.	.	.	.	.	.	.	.	.	.	.	.	.	.	.	.	.	.	.	.
.	.	.	16fnLL	.	.	8GGL 8BB 8D 8G 8B 8f	.	.	8F	.	.	4d]	.	.	.	.	.	16r	.	.	4gg	16r	.	.	16r	.	.
.	.	.	16B	.	.	.	.	.	.	.	.	.	.	.	.	.	.	16bLL	.	.	.	16gLL	.	.	16bLL	.	.
8DD	.	.	16GJJ	.	.	16GGL 16BB 16D 16G 16B 16f	.	.	8BBJ	.	.	.	.	.	.	.	.	16b	.	.	.	16g	.	.	16b	.	.
.	.	.	16r	.	.	16GJJ 16B	.	.	.	.	.	.	.	.	.	.	.	16ddJJ	.	.	.	16bJJ	.	.	16ddJJ	.	.
=44	=44	=44	=44	=44	=44	=44	=44	=44	=44	=44	=44	=44	=44	=44	=44	=44	=44	=44	=44	=44	=44	=44	=44	=44	=44	=44	=44
4.CC	.	.	16CLL	.	.	8CL 8E 8G 8c 8e	.	C major	4c	.	.	2c 2g	.	.	2ee	.	.	16eeLL	.	.	2eee	16ccLL	.	.	16eeLL	.	.
.	.	.	16E	.	.	.	.	.	.	.	.	.	.	.	.	.	.	16ee	.	.	.	16cc	.	.	16ee	.	.
.	.	.	16G	.	.	8GJ 8c	.	.	.	.	.	.	.	.	.	.	.	16ee	.	.	.	16cc	.	.	16ee	.	.
.	.	.	16cJJ	.	.	.	.	.	.	.	.	.	.	.	.	.	.	16eeJJ	.	.	.	16ccJJ	.	.	16eeJJ	.	.
.	.	.	16eLL	.	.	8CL 8E 8G 8c 8e	.	.	4G	.	.	.	.	.	.	.	.	16eeLL	.	.	.	16ccLL	.	.	16eeLL	.	.
.	.	.	16c	.	.	.	.	.	.	.	.	.	.	.	.	.	.	16cc	.	.	.	16g	.	.	16cc	.	.
16GGGLL	.	.	16GJJ	.	.	16CL 16E 16G 16c 16e	.	.	.	.	.	.	.	.	.	.	.	16cc	.	.	.	16g	.	.	16cc	.	.
16CCJJ	.	.	16r	.	.	16GJJ 16c	.	.	.	.	.	.	.	.	.	.	.	16ggJJ	.	.	.	16eeJJ	.	.	16ggJJ	.	.
4DD	.	.	16DLL	.	.	8DL 8A 8d 8f#	.	D major	8DL	.	.	2d 2a	.	.	2ff#	.	.	8ff#L	.	.	2fff#	8ddL	.	.	8ff#L	.	.
.	.	.	16A	.	.	.	.	.	.	.	.	.	.	.	.	.	.	.	.	.	.	.	.	.	.	.	.
.	.	.	16d	.	.	8AJ 8d	.	.	8F#	.	.	.	.	.	.	.	.	16ggK	.	.	.	16eeK	.	.	16ggK	.	.
.	.	.	16f#JJ	.	.	.	.	.	.	.	.	.	.	.	.	.	.	8.aa	.	.	.	8.ff#	.	.	8.aa	.	.
4CC	.	.	16aLL	.	.	8DL 8A 8d 8f#	.	.	8d	.	.	.	.	.	.	.	.	.	.	.	.	.	.	.	.	.	.
.	.	.	16d	.	.	.	.	.	.	.	.	.	.	.	.	.	.	.	.	.	.	.	.	.	.	.	.
.	.	.	16AJJ	.	.	16DL 16A 16d 16f#	.	.	8f#J	.	.	.	.	.	.	.	.	16ff#L	.	.	.	16ddL	.	.	16ff#L	.	.
.	.	.	16r	.	.	16AJJ 16d	.	.	.	.	.	.	.	.	.	.	.	[16ddJJ	.	.	.	[16bJJ	.	.	[16ddJJ	.	.
=45	=45	=45	=45	=45	=45	=45	=45	=45	=45	=45	=45	=45	=45	=45	=45	=45	=45	=45	=45	=45	=45	=45	=45	=45	=45	=45	=45
4BBB	.	.	16BBLL	.	.	8BBL 8F# 8B 8d 8f#	.	B minor	4BB	.	.	4F# 4A	.	.	4dd 4ff#	.	.	16ddLL]	.	.	4ff#	16bLL]	.	.	16ddLL]	.	.
.	.	.	16F#	.	.	.	.	.	.	.	.	.	.	.	.	.	.	16dd	.	.	.	16b	.	.	16dd	.	.
.	.	.	16B	.	.	8BB 8F# 8B 8d 8f#	.	.	.	.	.	.	.	.	.	.	.	16aaJ	.	.	.	16ff#J	.	.	16aaJ	.	.
.	.	.	16dJJ	.	.	.	.	.	.	.	.	.	.	.	.	.	.	8.gg	.	.	.	8.ee	.	.	8.gg	.	.
4DD#X	.	.	16BBLL	.	.	8BB 8F# 8A 8d#X 8f#	.	B dominant	4D#X	.	.	4d#X	.	.	4ff# 4aa	.	.	.	.	.	4aa	.	.	.	.	.	.
.	.	.	16A	.	.	.	.	.	.	.	.	.	.	.	.	.	.	.	.	.	.	.	.	.	.	.	.
.	.	.	16d#X	.	.	8BBJ 8F# 8A 8d# 8f#	.	.	.	.	.	.	.	.	.	.	.	16ff#K	.	.	.	16dd#XK	.	.	16ff#K	.	.
.	.	.	16f#JJ	.	.	.	.	.	.	.	.	.	.	.	.	.	.	8.ggJ	.	.	.	8eeJ	.	.	8.ggJ	.	.
8EEL	.	.	16ELL	.	.	8EEL 8BB 8E 8G 8B 8e	.	E minor	8EL	.	.	8eL	.	.	8eeL 8gg	.	.	.	.	.	8ggL	.	.	.	.	.	.
.	.	.	16G	.	.	.	.	.	.	.	.	.	.	.	.	.	.	.	.	.	.	8r	.	.	.	.	.
8EE	.	.	16B	.	.	8GJ 8B	.	.	8F#J	.	.	8f#	.	.	8ff#J 8aa	.	.	16r	.	.	8aaJ	.	.	.	16r	.	.
.	.	.	16eJJ	.	.	.	.	.	.	.	.	.	.	.	.	.	.	16b	.	.	.	16b	.	.	16b	.	.
8EE	.	.	16gLL	.	.	8EEL 8BB 8E 8G 8B 8e	.	.	8GL	.	.	8g	.	.	4gg 4bb	.	.	8ddL	.	.	4bb	8ddnL	.	.	8ddL	.	.
.	.	.	16b	.	.	.	.	.	.	.	.	.	.	.	.	.	.	.	.	.	.	.	.	.	.	.	.
8DDnJ	.	.	16ddJJ	.	.	16EEL 16BB 16E 16G 16B 16e	.	.	16EL	.	.	8dnJ	.	.	.	.	.	16eeL	.	.	.	16eeL	.	.	16eeL	.	.
.	.	.	16r	.	.	16GJJ 16B	.	.	16DnJJ	.	.	.	.	.	.	.	.	[16ggJJ	.	.	.	[16ggJJ	.	.	[16ggJJ	.	.
=46	=46	=46	=46	=46	=46	=46	=46	=46	=46	=46	=46	=46	=46	=46	=46	=46	=46	=46	=46	=46	=46	=46	=46	=46	=46	=46	=46
4CC	.	.	16CLL	.	.	8CL 8E 8G 8c 8e	.	C major	8.CL	.	.	2c	.	.	1ccc	.	.	4.gg]	.	.	2.ccc	4.gg]	.	.	4.gg]	.	.
.	.	.	16E	.	.	.	.	.	.	.	.	.	.	.	.	.	.	.	.	.	.	.	.	.	.	.	.
.	.	.	16G	.	.	8C 8E 8G 8c 8e	.	.	.	.	.	.	.	.	.	.	.	.	.	.	.	.	.	.	.	.	.
.	.	.	16cJJ	.	.	.	.	.	16CJk	.	.	.	.	.	.	.	.	.	.	.	.	.	.	.	.	.	.
8.CCL	.	.	4e	.	.	8C 8E 8G 8c 8e	.	.	16CLL	.	.	.	.	.	.	.	.	.	.	.	.	.	.	.	.	.	.
.	.	.	.	.	.	.	.	.	16EJ	.	.	.	.	.	.	.	.	.	.	.	.	.	.	.	.	.	.
.	.	.	.	.	.	8CJ 8E 8G 8c 8e	.	.	8GJ	.	.	.	.	.	.	.	.	16eeKL	.	.	.	16eeKL	.	.	16eeKL	.	.
16GGGJk	.	.	.	.	.	.	.	.	.	.	.	.	.	.	.	.	.	8gg	.	.	.	8gg	.	.	8gg	.	.
16CC	.	.	8CL 8E 8G 8c 8e	.	.	8CL 8E 8G 8c 8e	.	.	4G	.	.	4G	.	.	.	.	.	.	.	.	.	.	.	.	.	.	.
16r	.	.	.	.	.	.	.	.	.	.	.	.	.	.	.	.	.	16aaL	.	.	.	16aaL	.	.	16aaL	.	.
[8CC	.	.	8C 8E 8G 8c 8e	.	.	8CJ 8E 8G 8c 8e	.	.	.	.	.	.	.	.	.	.	.	16bbJ	.	.	.	16bbJ	.	.	16bbJ	.	.
.	.	.	.	.	.	.	.	.	.	.	.	.	.	.	.	.	.	8aa	.	.	.	8aa	.	.	8aa	.	.
8CCL]	.	.	8C 8E 8G 8c 8e	.	.	8CL 8E 8G 8c 8e	.	.	4C	.	.	16GLL	.	.	.	.	.	.	.	.	8gggL	.	.	.	.	.	.
.	.	.	.	.	.	.	.	.	.	.	.	16AJ	.	.	.	.	.	16ggL	.	.	.	16ggL	.	.	16ggL	.	.
8CCJ	.	.	8CJ 8E 8G 8c 8e	.	.	16CL 16E 16G 16c 16e	.	.	.	.	.	8cJ	.	.	.	.	.	16gg	.	.	8cccJ	16gg	.	.	16gg	.	.
.	.	.	.	.	.	16GJJ 16c	.	.	.	.	.	.	.	.	.	.	.	[16aaJJ	.	.	.	[16aaJJ	.	.	[16aaJJ	.	.
=47	=47	=47	=47	=47	=47	=47	=47	=47	=47	=47	=47	=47	=47	=47	=47	=47	=47	=47	=47	=47	=47	=47	=47	=47	=47	=47	=47
4DD	.	.	16DLL	.	.	8DL 8A 8d 8g	.	D suspended-fourth	8dL	.	.	4G	.	.	1ddd	.	.	4aa]	.	.	1ddd	4aa]	.	.	4aa]	.	.
.	.	.	16A	.	.	.	.	.	.	.	.	.	.	.	.	.	.	.	.	.	.	.	.	.	.	.	.
.	.	.	16d	.	.	8D 8A 8d 8g	.	.	8G	.	.	.	.	.	.	.	.	.	.	.	.	.	.	.	.	.	.
.	.	.	16gJJ	.	.	.	.	.	.	.	.	.	.	.	.	.	.	.	.	.	.	.	.	.	.	.	.
8DDL	.	.	4d	.	.	8D 8A 8d 8g	.	.	8D	.	.	4A	.	.	.	.	.	16r	.	.	.	16r	.	.	16r	.	.
.	.	.	.	.	.	.	.	.	.	.	.	.	.	.	.	.	.	16ddLL	.	.	.	16ddLL	.	.	16ddLL	.	.
16DDL	.	.	.	.	.	8DJ 8A 8d 8g	.	.	8GJ	.	.	.	.	.	.	.	.	16dd	.	.	.	16dd	.	.	16dd	.	.
16AAJJ	.	.	.	.	.	.	.	.	.	.	.	.	.	.	.	.	.	16ddJJ	.	.	.	16ddJJ	.	.	16ddJJ	.	.
[4D	.	.	8DL 8A 8d 8f#	.	.	8DL 8A 8d 8f#	.	D major	2F#	.	.	2d	.	.	.	.	.	8ddL	.	.	.	8ddL	.	.	8ddL	.	.
.	.	.	8DJ 8A 8d 8f#	.	.	8DJ 8A 8d 8f#	.	.	.	.	.	.	.	.	.	.	.	8ff#	.	.	.	8ff#	.	.	8ff#	.	.
8.DL]	.	.	8DL 8A 8d 8f#	.	.	8DL 8A 8d 8f#	.	.	.	.	.	.	.	.	.	.	.	8aa	.	.	.	8aa	.	.	8aa	.	.
.	.	.	16DL 16A 16d 16f#	.	.	16DL 16A 16d 16f#	.	.	.	.	.	.	.	.	.	.	.	8aaJ	.	.	.	8aaJ	.	.	8aaJ	.	.
16GGGJk	.	.	16AJJ 16d	.	.	16AJJ 16d	.	.	.	.	.	.	.	.	.	.	.	.	.	.	.	.	.	.	.	.	.
*	*	*	*	*	*	*	*	*	*	*	*	*	*	*	*	*	*	*	*	*	*v	*v	*	*	*	*	*
=48	=48	=48	=48	=48	=48	=48	=48	=48	=48	=48	=48	=48	=48	=48	=48	=48	=48	=48	=48	=48	=48	=48	=48	=48	=48	=48
8GGGL	.	.	4.BB 4.D 4.G	.	.	8GGL 8BB 8D 8G 8B 8g	.	G major	8G'L	.	.	8DL	.	.	8g'L	.	.	16ggLL	.	.	8gg'L	.	.	16ggLL	.	.
.	.	.	.	.	.	.	.	.	.	.	.	.	.	.	.	.	.	16ff#JJ	.	.	.	.	.	16ff#JJ	.	.
8GGG	.	.	.	.	.	8GG 8BB 8D 8G 8B 8g	.	.	8G'	.	.	8G	.	.	8g'	.	.	2gg	.	.	8gg'	.	.	2gg	.	.
8GGG	.	.	.	.	.	8GG 8BB 8D 8G 8B 8g	.	.	8G'	.	.	8B	.	.	8g'	.	.	.	.	.	8gg'	.	.	.	.	.
8DDJ	.	.	8BB 8D 8G	.	.	8GGJ 8BB 8D 8G 8B 8g	.	.	8G'J	.	.	8dJ	.	.	8g'J	.	.	.	.	.	8gg'J	.	.	.	.	.
8GGL	.	.	8BBL 8D 8G	.	.	8GGL 8BB 8D 8G 8B 8g	.	.	8G'L	.	.	8gL	.	.	8g'L	.	.	.	.	.	8gg'L	.	.	.	.	.
8GGJ	.	.	8BBJ 8D 8G	.	.	8GGJ 8BB 8D 8G 8B 8g	.	.	8G'J	.	.	8bJ	.	.	8g'J	.	.	8r	.	.	8gg'J	.	.	8r	.	.
16GGKL	.	.	16BBKL 16D 16G	.	.	16GGKL 16BB 16D 16G 16B 16g	.	.	16GKL	.	.	16gKL	.	.	16gKL	.	.	4r	.	.	16ggKL	.	.	4r	.	.
8.FF#J	.	.	8.AAJ 8.D 8.F#	.	.	8.DJ 8.A 8.d 8.f#	.	D major	8.F#J	.	.	8f#	.	.	8a	.	.	.	.	.	8.aaJ	.	.	.	.	.
.	.	.	.	.	.	.	.	.	.	.	.	16DJk	f	.	16dJk	f	.	.	.	.	.	.	.	.	.	.
=49	=49	=49	=49	=49	=49	=49	=49	=49	=49	=49	=49	=49	=49	=49	=49	=49	=49	=49	=49	=49	=49	=49	=49	=49	=49	=49
4.EE	f	.	8bL	f	.	8EEL 8BB 8E 8G 8B 8e	mf	E minor	4.E	f	.	16BLL	.	.	16bLL	.	.	2.bb	f	.	16eLL	f	.	16bLL	.	.
.	.	.	.	.	.	.	.	.	.	.	.	16A	.	.	16a	.	.	.	.	.	16g	.	.	16a	.	.
.	.	.	8gJ	.	.	16EEL 16BB 16E 16G 16B 16e	.	.	.	.	.	16B	.	.	16b	.	.	.	.	.	16eJ	.	.	16b	.	.
.	.	.	.	.	.	16EEJJ 16BB 16E 16G 16B 16e	.	.	.	.	.	16AJJ	.	.	16aJJ	.	.	.	.	.	8.b	.	.	16aJJ	.	.
.	.	.	16eLL	.	.	8EEL 8BB 8E 8G 8B 8e	.	.	.	.	.	16BLL	.	.	16bLL	.	.	.	.	.	.	.	.	16bLL	.	.
.	.	.	16dJ	.	.	.	.	.	.	.	.	16A	.	.	16a	.	.	.	.	.	.	.	.	16a	.	.
[8DD	.	.	[8dJ [8f# [8a	.	.	[8DJ [8A [8d [8f#	.	D major	[8D	.	.	16B	.	.	16b	.	.	.	.	.	16dL	.	.	16b	.	.
.	.	.	.	.	.	.	.	.	.	.	.	16AJJ	.	.	16aJJ	.	.	.	.	.	16aJJ	.	.	16aJJ	.	.
4.DD]	.	.	8dL] 8f#] 8a]	.	.	8DL] 8A] 8d] 8f#]	.	.	2D]	.	.	16BLL	.	.	16bLL	.	.	.	.	.	16dKL	.	.	16bLL	.	.
.	.	.	.	.	.	.	.	.	.	.	.	16A	.	.	16a	.	.	.	.	.	8.ddJ	.	.	16a	.	.
.	.	.	16gL	.	.	8DJ 8A 8d 8f#	.	.	.	.	.	16AJ	.	.	16aJ	.	.	.	.	.	.	.	.	16aJ	.	.
.	.	.	16f#JJ	.	.	.	.	.	.	.	.	8G	.	.	8g	.	.	.	.	.	.	.	.	8g	.	.
.	.	.	16gLL	.	.	8DL 8A 8d 8f#	.	.	.	.	.	.	.	.	.	.	.	4ccc	.	.	8aL	.	.	.	.	.
.	.	.	16f#J	.	.	.	.	.	.	.	.	8A	.	.	8a	.	.	.	.	.	.	.	.	8a	.	.
16DDLL	.	.	8dJ	.	.	16DL 16A 16d 16f#	.	.	.	.	.	.	.	.	.	.	.	.	.	.	8ddJ	.	.	.	.	.
16EEJJ	.	.	.	.	.	16AJJ 16d	.	.	.	.	.	16DJk	.	.	16dJk	.	.	.	.	.	.	.	.	16dJk	.	.
=50	=50	=50	=50	=50	=50	=50	=50	=50	=50	=50	=50	=50	=50	=50	=50	=50	=50	=50	=50	=50	=50	=50	=50	=50	=50	=50
8.CCL	.	.	8cL	.	.	8CL 8E 8G 8c 8e	.	C major	4.C	.	.	16BLL	.	.	16bLL	.	.	8bbL	.	.	8gL	.	.	16bLL	.	.
.	.	.	.	.	.	.	.	.	.	.	.	16A	.	.	16a	.	.	.	.	.	.	.	.	16a	.	.
.	.	.	8e	.	.	16CL 16E 16G 16c 16e	.	.	.	.	.	16B	.	.	16b	.	.	8gg	.	.	8eeJ	.	.	16b	.	.
16CCJk	.	.	.	.	.	16CJJ 16E 16G 16c 16e	.	.	.	.	.	16AJJ	.	.	16aJJ	.	.	.	.	.	.	.	.	16aJJ	.	.
8CCL	.	.	8g	.	.	8CL 8E 8G 8c 8e	.	.	.	.	.	8BL	.	.	8bL	.	.	8ee	.	.	16eeLL	.	.	8bL	.	.
.	.	.	.	.	.	.	.	.	.	.	.	.	.	.	.	.	.	.	.	.	16ccJ	.	.	.	.	.
8GGGJ	.	.	[8BJ [8d [8g	.	.	[8GGJ [8BB [8D [8G [8B [8g	.	G major	[8G	.	.	16eK	.	.	16eeK	.	.	[8ddJ	.	.	8.gg	.	.	16eeK	.	.
.	.	.	.	.	.	.	.	.	.	.	.	8d	.	.	8dd	.	.	.	.	.	.	.	.	8dd	.	.
8GGL	.	.	8BL] 8d] 8g]	.	.	8GGL] 8BB] 8D] 8G] 8B] 8g]	.	.	2G]	.	.	.	.	.	.	.	.	2dd]	.	.	.	.	.	.	.	.
.	.	.	.	.	.	.	.	.	.	.	.	8c	.	.	8cc	.	.	.	.	.	8.cc	.	.	8cc	.	.
8GG	.	.	16BL	.	.	8GGJ 8BB 8D 8G 8B 8g	.	.	.	.	.	.	.	.	.	.	.	.	.	.	.	.	.	.	.	.
.	.	.	16dJJ	.	.	.	.	.	.	.	.	8B	.	.	8b	.	.	.	.	.	.	.	.	8b	.	.
8GG	.	.	16dLL	.	.	8GGL 8BB 8D 8G 8B 8g	.	.	.	.	.	.	.	.	.	.	.	.	.	.	8dd	.	.	.	.	.
.	.	.	16eJ	.	.	.	.	.	.	.	.	16AL	.	.	16aL	.	.	.	.	.	.	.	.	16aL	.	.
8FF#J	.	.	8gJ	.	.	16GGL 16BB 16D 16G 16B 16g	.	.	.	.	.	[16G	.	.	[16g	.	.	.	.	.	8ggJ	.	.	[16g	.	.
.	.	.	.	.	.	16GJJ 16B	.	.	.	.	.	16GJJ]	.	.	16gJJ]	.	.	.	.	.	.	.	.	16gJJ]	.	.
=51	=51	=51	=51	=51	=51	=51	=51	=51	=51	=51	=51	=51	=51	=51	=51	=51	=51	=51	=51	=51	=51	=51	=51	=51	=51	=51
4.EE	.	.	8eL 8g	.	.	8EEL 8BB 8E 8G 8B 8e	.	E minor	4.E	.	.	16r	.	.	16r	.	.	2.bb	.	.	2.gg	.	.	16r	.	.
.	.	.	.	.	.	.	.	.	.	.	.	16DLL	.	.	16dLL	.	.	.	.	.	.	.	.	16dLL	.	.
.	.	.	8eJ	.	.	16EEL 16BB 16E 16G 16B 16e	.	.	.	.	.	16B	.	.	16b	.	.	.	.	.	.	.	.	16b	.	.
.	.	.	.	.	.	16EEJJ 16BB 16E 16G 16B 16e	.	.	.	.	.	16AJJ	.	.	16aJJ	.	.	.	.	.	.	.	.	16aJJ	.	.
.	.	.	16bLL	.	.	8EEL 8BB 8E 8G 8B 8e	.	.	.	.	.	16BLL	.	.	16bLL	.	.	.	.	.	.	.	.	16bLL	.	.
.	.	.	16aJ	.	.	.	.	.	.	.	.	16A	.	.	16a	.	.	.	.	.	.	.	.	16a	.	.
8DD	.	.	[8dJ [8f# [8a	.	.	[8DJ [8A [8d [8f#	.	D major	[8D	.	.	16B	.	.	16b	.	.	.	.	.	.	.	.	16b	.	.
.	.	.	.	.	.	.	.	.	.	.	.	16AJJ	.	.	16aJJ	.	.	.	.	.	.	.	.	16aJJ	.	.
8DDL	.	.	8dL] 8f#] 8a]	.	.	8DL] 8A] 8d] 8f#]	.	.	2D]	.	.	16BLL	.	.	16bLL	.	.	.	.	.	.	.	.	16bLL	.	.
.	.	.	.	.	.	.	.	.	.	.	.	16A	.	.	16a	.	.	.	.	.	.	.	.	16a	.	.
8DDJ	.	.	8dJ	.	.	8DJ 8A 8d 8f#	.	.	.	.	.	16AJ	.	.	16aJ	.	.	.	.	.	.	.	.	16aJ	.	.
.	.	.	.	.	.	.	.	.	.	.	.	8G	.	.	8g	.	.	.	.	.	.	.	.	8g	.	.
16DDLL	.	.	4dd	.	.	8DL 8A 8d 8f#	.	.	.	.	.	.	.	.	.	.	.	4ccc	.	.	4aa	.	.	.	.	.
16AAJ	.	.	.	.	.	.	.	.	.	.	.	8A	.	.	8a	.	.	.	.	.	.	.	.	8a	.	.
8DJ	.	.	.	.	.	16DL 16A 16d 16f#	.	.	.	.	.	.	.	.	.	.	.	.	.	.	.	.	.	.	.	.
.	.	.	.	.	.	16AJJ 16d	.	.	.	.	.	16GJk	.	.	16gJk	.	.	.	.	.	.	.	.	16gJk	.	.
=52	=52	=52	=52	=52	=52	=52	=52	=52	=52	=52	=52	=52	=52	=52	=52	=52	=52	=52	=52	=52	=52	=52	=52	=52	=52	=52
8CL	.	.	8eL 8g	.	.	8CL 8E 8G 8c 8e	.	C major	4.C	.	.	8.GL	.	.	8.gL	.	.	8dddL	.	.	8bbL	.	.	8.gL	.	.
8GG	.	.	8ccJ	.	.	16CL 16E 16G 16c 16e	.	.	.	.	.	.	.	.	.	.	.	8ccc	.	.	8aa	.	.	.	.	.
.	.	.	.	.	.	16CJJ 16E 16G 16c 16e	.	.	.	.	.	16EJk	.	.	16eJk	.	.	.	.	.	.	.	.	16eJk	.	.
8CC	.	.	16gLL	.	.	8CL 8E 8G 8c 8e	.	.	.	.	.	8.GL	.	.	8.gL	.	.	8bb	.	.	8gg	.	.	8.gL	.	.
.	.	.	16f#J	.	.	.	.	.	.	.	.	.	.	.	.	.	.	.	.	.	.	.	.	.	.	.
[8GGGJ	.	.	[8dJ [8g	.	.	[8GGJ [8BB [8D [8G [8B [8g	.	G major	[8G	.	.	.	.	.	.	.	.	[8ggJ	.	.	[8eeJ	.	.	.	.	.
.	.	.	.	.	.	.	.	.	.	.	.	16AJk	.	.	16aJk	.	.	.	.	.	.	.	.	16aJk	.	.
16GGGLL]	.	.	8dL] 8g]	.	.	8GGL] 8BB] 8D] 8G] 8B] 8g]	.	.	2G]	.	.	8.BL	.	.	8.bL	.	.	4gg]	.	.	4ee]	.	.	8.bL	.	.
16GGJ	.	.	.	.	.	.	.	.	.	.	.	.	.	.	.	.	.	.	.	.	.	.	.	.	.	.
8GGJ	.	.	8dd	.	.	8GGJ 8BB 8D 8G 8B 8g	.	.	.	.	.	.	.	.	.	.	.	.	.	.	.	.	.	.	.	.
.	.	.	.	.	.	.	.	.	.	.	.	16eJk	.	.	16eeJk	.	.	.	.	.	.	.	.	16eeJk	.	.
8GGL	.	.	8b	.	.	8GGL 8BB 8D 8G 8B 8g	.	.	.	.	.	16eKL	.	.	16eeKL	.	.	4bb	.	.	4gg	.	.	16eeKL	.	.
.	.	.	.	.	.	.	.	.	.	.	.	8dJ	.	.	8ddJ	.	.	.	.	.	.	.	.	8ddJ	.	.
8FF#J	.	.	8gJ	.	.	16GGL 16BB 16D 16G 16B 16g	.	.	.	.	.	.	.	.	.	.	.	.	.	.	.	.	.	.	.	.
.	.	.	.	.	.	16GJJ 16B	.	.	.	.	.	16r	.	.	16r	.	.	.	.	.	.	.	.	16r	.	.
=53	=53	=53	=53	=53	=53	=53	=53	=53	=53	=53	=53	=53	=53	=53	=53	=53	=53	=53	=53	=53	=53	=53	=53	=53	=53	=53
8.EEL	.	.	8eL 8g	.	.	8EEL 8BB 8E 8G 8B 8e	.	E minor	4.E	.	.	16r	.	.	16r	.	.	8eL	.	.	2.bb	.	.	16r	.	.
.	.	.	.	.	.	.	.	.	.	.	.	8gL	.	.	8ggL	.	.	.	.	.	.	.	.	8ggL	.	.
.	.	.	16eL	.	.	16EEL 16BB 16E 16G 16B 16e	.	.	.	.	.	.	.	.	.	.	.	16eK	.	.	.	.	.	.	.	.
16FF#Jk	.	.	16gJJ	.	.	16EEJJ 16BB 16E 16G 16B 16e	.	.	.	.	.	16gJk	.	.	16ggJk	.	.	8.b	.	.	.	.	.	16ggJk	.	.
8EEL	.	.	16eLL	.	.	8EEL 8BB 8E 8G 8B 8e	.	.	.	.	.	16gLL	.	.	16ggLL	.	.	.	.	.	.	.	.	16ggLL	.	.
.	.	.	16dJ	.	.	.	.	.	.	.	.	16g	.	.	16gg	.	.	.	.	.	.	.	.	16gg	.	.
8DDJ	.	.	8dJ 8f# 8a	.	.	[8DJ [8A [8d [8f#	.	D major	[8D	.	.	16g	.	.	16gg	.	.	16dL	.	.	.	.	.	16gg	.	.
.	.	.	.	.	.	.	.	.	.	.	.	16gJJ	.	.	16ggJJ	.	.	16aJJ	.	.	.	.	.	16ggJJ	.	.
16DDLL	.	.	16dKL	.	.	8DL] 8A] 8d] 8f#]	.	.	2D]	.	.	8gL	.	.	8ggL	.	.	16dKL	.	.	.	.	.	8ggL	.	.
16DDJ	.	.	8a	.	.	.	.	.	.	.	.	.	.	.	.	.	.	8.ddJ	.	.	.	.	.	.	.	.
8DDJ	.	.	.	.	.	8DJ 8A 8d 8f#	.	.	.	.	.	16f#K	.	.	16ff#K	.	.	.	.	.	.	.	.	16ff#K	.	.
.	.	.	16dJk	.	.	.	.	.	.	.	.	8e	.	.	8ee	.	.	.	.	.	.	.	.	8ee	.	.
8DDL	.	.	8aL	.	.	8DL 8A 8d 8f#	.	.	.	.	.	.	.	.	.	.	.	8aL	.	.	4eee	.	.	.	.	.
.	.	.	.	.	.	.	.	.	.	.	.	16dL	.	.	16ddL	.	.	.	.	.	.	.	.	16ddL	.	.
16DDL	.	.	16cL	.	.	16DL 16A 16d 16f#	.	.	.	.	.	16d	.	.	16dd	.	.	8ddJ	.	.	.	.	.	16dd	.	.
16EEJJ	.	.	16gJJ	.	.	16AJJ 16d	.	.	.	.	.	16dJJ	.	.	16ddJJ	.	.	.	.	.	.	.	.	16ddJJ	.	.
=54	=54	=54	=54	=54	=54	=54	=54	=54	=54	=54	=54	=54	=54	=54	=54	=54	=54	=54	=54	=54	=54	=54	=54	=54	=54	=54
8CCL	.	.	16gLL	.	.	8CL 8E 8G 8c 8e	.	C major	4.C	.	.	8eL	.	.	8eeL	.	.	8cccL	.	.	8eeeL	.	.	8eeL	.	.
.	.	.	16c	.	.	.	.	.	.	.	.	.	.	.	.	.	.	.	.	.	.	.	.	.	.	.
16CCL	.	.	16g	.	.	16CL 16E 16G 16c 16e	.	.	.	.	.	16f#K	.	.	16ff#K	.	.	8bb	.	.	8ddd	.	.	16ff#K	.	.
16CCJJ	.	.	16gJJ	.	.	16CJJ 16E 16G 16c 16e	.	.	.	.	.	8g	.	.	8gg	.	.	.	.	.	.	.	.	8gg	.	.
8CCL	.	.	16cKL	.	.	8CL 8E 8G 8c 8e	.	.	.	.	.	.	.	.	.	.	.	8aa	.	.	8ccc	.	.	.	.	.
.	.	.	8a	.	.	.	.	.	.	.	.	16dJk	.	.	16ddJk	.	.	.	.	.	.	.	.	16ddJk	.	.
[8GGGJ	.	.	.	.	.	[8GGJ [8BB [8D [8G [8B [8g	.	G major	[8G	.	.	4.b	.	.	4.bb	.	.	[8bbJ	.	.	[8dddJ	.	.	4.bb	.	.
.	.	.	16BJk	.	.	.	.	.	.	.	.	.	.	.	.	.	.	.	.	.	.	.	.	.	.	.
8GGGL]	.	.	8gL	.	.	8GGL] 8BB] 8D] 8G] 8B] 8g]	.	.	2G]	.	.	.	.	.	.	.	.	8bbL]	.	.	8dddL]	.	.	.	.	.
8GGG	.	.	16BL	.	.	8GGJ 8BB 8D 8G 8B 8g	.	.	.	.	.	.	.	.	.	.	.	8aa	.	.	8ccc	.	.	.	.	.
.	.	.	16gJJ	.	.	.	.	.	.	.	.	.	.	.	.	.	.	.	.	.	.	.	.	.	.	.
8GG	.	.	16gLL	.	.	8GGL 8BB 8D 8G 8B 8g	.	.	.	.	.	16r	.	.	16r	.	.	8gg	.	.	8bb	.	.	16r	.	.
.	.	.	16bJ	.	.	.	.	.	.	.	.	16BLL	.	.	16bLL	.	.	.	.	.	.	.	.	16bLL	.	.
8DDJ	.	.	8bJ	.	.	16GGL 16BB 16D 16G 16B 16g	.	.	.	.	.	16B	.	.	16b	.	.	8eeJ	.	.	8ggJ	.	.	16b	.	.
.	.	.	.	.	.	16GJJ 16B	.	.	.	.	.	16BJJ	.	.	16bJJ	.	.	.	.	.	.	.	.	16bJJ	.	.
=55	=55	=55	=55	=55	=55	=55	=55	=55	=55	=55	=55	=55	=55	=55	=55	=55	=55	=55	=55	=55	=55	=55	=55	=55	=55	=55
8AAAL	.	.	8g 8dd	.	.	8AAL 8E 8G 8c 8e	.	A minor-seventh	2A	.	.	8cL	.	.	8ccL	.	.	2gg	.	.	2ccc	.	.	8ccL	.	.
8AAAJ	.	.	[4.g [4.cc	.	.	8AAJ 8E 8G 8c 8e	.	.	.	.	.	16dK	.	.	16ddK	.	.	.	.	.	.	.	.	16ddK	.	.
.	.	.	.	.	.	.	.	.	.	.	.	8e	.	.	8ee	.	.	.	.	.	.	.	.	8ee	.	.
8AAAL	.	.	.	.	.	8AAL 8E 8G 8c 8e	.	.	.	.	.	.	.	.	.	.	.	.	.	.	.	.	.	.	.	.
.	.	.	.	.	.	.	.	.	.	.	.	16dJk	.	.	16ddJk	.	.	.	.	.	.	.	.	16ddJk	.	.
16EEL	.	.	.	.	.	16AAL 16E 16G 16c 16e	.	.	.	.	.	4d	.	.	4dd	.	.	.	.	.	.	.	.	4dd	.	.
16EEJJ	.	.	.	.	.	16AAJJ 16E 16G 16c 16e	.	.	.	.	.	.	.	.	.	.	.	.	.	.	.	.	.	.	.	.
8GGL	.	.	8gL] 8cc]	.	.	8AAL 8E 8G 8d 8e	.	A minor-seventh/G	2G	.	.	.	.	.	.	.	.	4ee	.	.	4gg	.	.	.	.	.
8GG	.	.	8g 8b	.	.	8AAJ 8E 8G 8d 8e	.	.	.	.	.	16cKL	.	.	16ccKL	.	.	.	.	.	.	.	.	16ccKL	.	.
.	.	.	.	.	.	.	.	.	.	.	.	8B	.	.	8b	.	.	.	.	.	.	.	.	8b	.	.
8GG	.	.	8g 8cc	.	.	8AAL 8E 8G 8d 8e	.	.	.	.	.	.	.	.	.	.	.	4cc	.	.	4ee	.	.	.	.	.
.	.	.	.	.	.	.	.	.	.	.	.	16AK	.	.	16aK	.	.	.	.	.	.	.	.	16aK	.	.
8GGJ	.	.	8gJ 8dd	.	.	16AAL 16E 16G 16d 16e	.	.	.	.	.	[8AJ	.	.	[8aJ	.	.	.	.	.	.	.	.	[8aJ	.	.
.	.	.	.	.	.	16GJJ 16d	.	.	.	.	.	.	.	.	.	.	.	.	.	.	.	.	.	.	.	.
=56	=56	=56	=56	=56	=56	=56	=56	=56	=56	=56	=56	=56	=56	=56	=56	=56	=56	=56	=56	=56	=56	=56	=56	=56	=56	=56
8DDL	.	.	1f# 1a	.	.	8DL 8A 8d 8g	.	D suspended-fourth	1D	.	.	2A]	.	.	2a]	.	.	2dd	.	.	2gg	.	.	2a]	.	.
8DDJ	.	.	.	.	.	8D 8A 8d 8g	.	.	.	.	.	.	.	.	.	.	.	.	.	.	.	.	.	.	.	.
8DDL	.	.	.	.	.	8D 8A 8d 8g	.	.	.	.	.	.	.	.	.	.	.	.	.	.	.	.	.	.	.	.
16AAAL	.	.	.	.	.	8DJ 8A 8d 8g	.	.	.	.	.	.	.	.	.	.	.	.	.	.	.	.	.	.	.	.
16DDJJ	.	.	.	.	.	.	.	.	.	.	.	.	.	.	.	.	.	.	.	.	.	.	.	.	.	.
2DD	.	.	.	.	.	2D 2A 2d 2f#	.	D major	.	.	.	2r	.	.	2r	.	.	2ff#	.	.	2aa	.	.	2r	.	.
=57	=57	=57	=57	=57	=57	=57	=57	=57	=57	=57	=57	=57	=57	=57	=57	=57	=57	=57	=57	=57	=57	=57	=57	=57	=57	=57
2CC	mp <	.	1r	.	.	2C: 2E: 2G: 2c: 2e:	mp <	C major	2C	mp <	.	1r	.	.	2c	mp <	.	8gL	mf <	.	2.g	mp <	.	8gL	mf <	.
.	.	.	.	.	.	.	.	.	.	.	.	.	.	.	.	.	.	8a	.	.	.	.	.	8a	.	.
.	.	.	.	.	.	.	.	.	.	.	.	.	.	.	.	.	.	8bJ	.	.	.	.	.	8bJ	.	.
.	.	.	.	.	.	.	.	.	.	.	.	.	.	.	.	.	.	4dd	.	.	.	.	.	4dd	.	.
2DD	[[	.	.	.	.	2D: 2A: 2d: 2f#:	[[	D major	2D	[[	.	.	.	.	2d	[[	.	.	.	.	.	.	.	.	.	.
.	.	.	.	.	.	.	.	.	.	.	.	.	.	.	.	.	.	8gL	.	.	.	.	.	8gL	.	.
.	.	.	.	.	.	.	.	.	.	.	.	.	.	.	.	.	.	8f#	.	.	4a	[[	.	8f#	.	.
.	.	.	.	.	.	.	.	.	.	.	.	.	.	.	.	.	.	[8gJ	[[	.	.	.	.	[8gJ	[[	.
=58	=58	=58	=58	=58	=58	=58	=58	=58	=58	=58	=58	=58	=58	=58	=58	=58	=58	=58	=58	=58	=58	=58	=58	=58	=58	=58
4GG^	.	.	4GG^ 4BB 4D 4G 4B 4g	.	G major	4GG^ 4BB 4D 4G 4B 4g	.	G major	4G^	.	.	4G^	.	.	4d^	.	.	2g]	.	.	4gg^	.	.	2g]	.	.
4FF#^	.	.	4D^ 4A 4d 4f#	.	D major	4D^ 4A 4d 4f#	.	D major	4F#^	.	.	4F#^	.	.	4d^	.	.	.	.	.	4ff#^	.	.	.	.	.
4FFn^	.	.	4FFn^ 4C 4Fn 4A 4c 4fn	.	F major	4FFn^ 4C 4Fn 4A 4c 4fn	.	F major	4Fn^	.	.	4Fn^	.	.	4c^	.	.	4r	.	.	4ffn^	.	.	4r	.	.
4EE^	.	.	4EE^ 4BB 4E 4A 4B	.	E suspended-fourth	4EE^ 4BB 4E 4A 4B	.	E suspended-fourth	4E^	.	.	4E^	.	.	4B^	.	.	8r	.	.	4ee^	.	.	8r	.	.
.	.	.	.	.	.	.	.	.	.	.	.	.	.	.	.	.	.	16eeLL	f	.	.	.	.	16eeLL	f	.
.	.	.	.	.	.	.	.	.	.	.	.	.	.	.	.	.	.	[16ddJJ	.	.	.	.	.	[16ddJJ	.	.
=59	=59	=59	=59	=59	=59	=59	=59	=59	=59	=59	=59	=59	=59	=59	=59	=59	=59	=59	=59	=59	=59	=59	=59	=59	=59	=59
8CCL	f	.	4GG 4C 4E	f	.	8CL 8E 8G 8c 8e	mf	.	2C	f	.	4.C	f	.	2G	f	.	4.dd]	.	.	2cc	f	.	4.dd]	.	.
8CCJ	.	.	.	.	.	8CJ 8E 8G 8c 8e	.	C major	.	.	.	.	.	.	.	.	.	.	.	.	.	.	.	.	.	.
4CC	.	.	4GG 4C 4E	.	.	8CL 8E 8G 8c 8e	.	.	.	.	.	.	.	.	.	.	.	.	.	.	.	.	.	.	.	.
.	.	.	.	.	.	16CL 16E 16G 16c 16e	.	.	.	.	.	8c	.	.	.	.	.	16ee	.	.	.	.	.	16ee	.	.
.	.	.	.	.	.	16GJJ 16c	.	.	.	.	.	.	.	.	.	.	.	4.dd	.	.	.	.	.	4.dd	.	.
8DDL	.	.	4AA 4D 4F#	.	.	8DL 8A 8d 8f#	.	D major	2D	.	.	4.D	.	.	2A	.	.	.	.	.	2dd	.	.	.	.	.
8DD	.	.	.	.	.	8DJ 8A 8d 8f#	.	.	.	.	.	.	.	.	.	.	.	.	.	.	.	.	.	.	.	.
8DD	.	.	4AA 4D 4F#	.	.	8DL 8A 8d 8f#	.	.	.	.	.	.	.	.	.	.	.	.	.	.	.	.	.	.	.	.
.	.	.	.	.	.	.	.	.	.	.	.	.	.	.	.	.	.	16gLL	.	.	.	.	.	16gLL	.	.
8AAAJ	.	.	.	.	.	16DL 16A 16d 16f#	.	.	.	.	.	8d	.	.	.	.	.	16f#	.	.	.	.	.	16f#	.	.
.	.	.	.	.	.	16AJJ 16d	.	.	.	.	.	.	.	.	.	.	.	[16gJJ	.	.	.	.	.	[16gJJ	.	.
=60	=60	=60	=60	=60	=60	=60	=60	=60	=60	=60	=60	=60	=60	=60	=60	=60	=60	=60	=60	=60	=60	=60	=60	=60	=60	=60
*M5/4	*	*	*M5/4	*	*	*M5/4	*	*	*M5/4	*	*	*M5/4	*	*	*M5/4	*	*	*M5/4	*	*	*M5/4	*	*	*M5/4	*	*
8GGGL	.	.	2BB 2D 2G	.	.	8GGL 8BB 8D 8G 8B 8g	.	G major	2G	.	.	2G	.	.	2G	.	.	16g]	.	.	2dd	.	.	16g]	.	.
.	.	.	.	.	.	.	.	.	.	.	.	.	.	.	.	.	.	8r	.	.	.	.	.	8r	.	.
8GGG	.	.	.	.	.	8GG 8BB 8D 8G 8B 8g	.	.	.	.	.	.	.	.	.	.	.	.	.	.	.	.	.	.	.	.
.	.	.	.	.	.	.	.	.	.	.	.	.	.	.	.	.	.	16dKL	.	.	.	.	.	16dKL	.	.
8GGG	.	.	.	.	.	8GG 8BB 8D 8G 8B 8g	.	.	.	.	.	.	.	.	.	.	.	8d	.	.	.	.	.	8d	.	.
16DDL	.	.	.	.	.	16GGL 16BB 16D 16G 16B 16g	.	.	.	.	.	.	.	.	.	.	.	8g	.	.	.	.	.	8g	.	.
16GGJ	.	.	.	.	.	16GGJ 16BB 16D 16G 16B 16g	.	.	.	.	.	.	.	.	.	.	.	.	.	.	.	.	.	.	.	.
8GG	.	.	8BBL 8D 8Fn	.	.	8GG 8BB 8D 8G 8B 8fn	.	G dominant	4G	.	.	8GL	.	.	4fn	.	.	8cc	.	.	4b	.	.	8cc	.	.
8GGJ	.	.	8BBJ 8D 8F	.	.	8GGJ 8BB 8D 8G 8B 8f	.	.	.	.	.	8GJ	.	.	.	.	.	8bJ	.	.	.	.	.	8bJ	.	.
16GGLL	.	.	16BBLL 16D 16F	.	.	16GGLL 16BB 16D 16G 16B 16f	.	.	16GLL	.	.	16GLL	.	.	16fLL	.	.	16aLL	.	.	16bLL	.	.	16aLL	.	.
16GGJJ	.	.	16BBJJ 16D 16F	.	.	16GGJJ 16BB 16D 16G 16B 16f	.	.	16GJJ	.	.	16GJJ	.	.	16fJJ	.	.	16bJJ	.	.	16ddJJ	.	.	16bJJ	.	.
8r	.	.	8r	.	.	8r	.	.	8r	.	.	8r	.	.	8r	.	.	4r	.	.	8r	.	.	4r	.	.
4r	.	.	4r	.	.	4r	.	.	4r	.	.	4r	.	.	4r	.	.	.	.	.	4r	.	.	.	.	.
.	.	.	.	.	.	.	.	.	.	.	.	.	.	.	.	.	.	8r	.	.	.	.	.	8r	.	.
=61	=61	=61	=61	=61	=61	=61	=61	=61	=61	=61	=61	=61	=61	=61	=61	=61	=61	=61	=61	=61	=61	=61	=61	=61	=61	=61
*M4/4	*	*	*M4/4	*	*	*M4/4	*	*	*M4/4	*	*	*M4/4	*	*	*M4/4	*	*	*M4/4	*	*	*M4/4	*	*	*M4/4	*	*
1r	.	.	1r	.	.	4C: 4E: 4G: 4c: 4e:	mp	C major	1r	.	.	1r	.	.	2ccc	mf	.	1r	.	.	16eeLL	mf	solo.	16eeLL	mf	solo.
.	.	.	.	.	.	.	.	.	.	.	.	.	.	.	.	.	.	.	.	.	16ee	.	.	16ee	.	.
.	.	.	.	.	.	.	.	.	.	.	.	.	.	.	.	.	.	.	.	.	16ee	.	.	16ee	.	.
.	.	.	.	.	.	.	.	.	.	.	.	.	.	.	.	.	.	.	.	.	16eeJJ	.	.	16eeJJ	.	.
.	.	.	.	.	.	8CL 8E 8G 8c 8e	.	.	.	.	.	.	.	.	.	.	.	.	.	.	16eeLL	.	.	16eeLL	.	.
.	.	.	.	.	.	.	.	.	.	.	.	.	.	.	.	.	.	.	.	.	16cc	.	.	16cc	.	.
.	.	.	.	.	.	16CL 16E 16G 16c 16e	.	.	.	.	.	.	.	.	.	.	.	.	.	.	16cc	.	.	16cc	.	.
.	.	.	.	.	.	16GJJ 16c	.	.	.	.	.	.	.	.	.	.	.	.	.	.	16ggJJ	.	.	16ggJJ	.	.
.	.	.	.	.	.	16DLL 16A 16d 16f#	.	D major	.	.	.	.	.	.	2ddd	.	.	.	.	.	8ff#L	.	.	8ff#L	.	.
.	.	.	.	.	.	16DJ 16A 16d 16f#	.	.	.	.	.	.	.	.	.	.	.	.	.	.	.	.	.	.	.	.
.	.	.	.	.	.	8DJ 8A 8d 8f#	.	.	.	.	.	.	.	.	.	.	.	.	.	.	16ggK	.	.	16ggK	.	.
.	.	.	.	.	.	.	.	.	.	.	.	.	.	.	.	.	.	.	.	.	8aa	.	.	8aa	.	.
.	.	.	.	.	.	8DL 8A 8d 8f#	.	.	.	.	.	.	.	.	.	.	.	.	.	.	.	.	.	.	.	.
.	.	.	.	.	.	.	.	.	.	.	.	.	.	.	.	.	.	.	.	.	16ff#L	.	.	16ff#L	.	.
.	.	.	.	.	.	16DL 16A 16d 16f#	.	.	.	.	.	.	.	.	.	.	.	.	.	.	16ff#	.	.	16ff#	.	.
.	.	.	.	.	.	16AJJ 16d	.	.	.	.	.	.	.	.	.	.	.	.	.	.	[16ddJJ	.	.	[16ddJJ	.	.
=62	=62	=62	=62	=62	=62	=62	=62	=62	=62	=62	=62	=62	=62	=62	=62	=62	=62	=62	=62	=62	=62	=62	=62	=62	=62	=62
1r	.	.	1r	.	.	8GGL 8BB 8D 8G 8B 8g	.	G major	1r	.	.	1r	.	.	4bb	.	.	1r	.	.	8ddL]	.	.	8ddL]	.	.
.	.	.	.	.	.	8GJ 8B	.	.	.	.	.	.	.	.	.	.	.	.	.	.	16aaL	.	.	16aaL	.	.
.	.	.	.	.	.	.	.	.	.	.	.	.	.	.	.	.	.	.	.	.	[16ggJJ	.	.	[16ggJJ	.	.
.	.	.	.	.	.	8GGL 8BB 8D 8G 8B 8g	.	.	.	.	.	.	.	.	4ddd	.	.	.	.	.	8ggL]	.	.	8ggL]	.	.
.	.	.	.	.	.	16GGL 16BB 16D 16G 16B 16g	.	.	.	.	.	.	.	.	.	.	.	.	.	.	16ff#Jk	.	.	16ff#Jk	.	.
.	.	.	.	.	.	16GJJ 16B	.	.	.	.	.	.	.	.	.	.	.	.	.	.	4.gg	.	.	4.gg	.	.
.	.	.	.	.	.	16EELL 16BB 16E 16G 16B 16e	.	E minor	.	.	.	.	.	.	4eee	.	.	.	.	.	.	.	.	.	.	.
.	.	.	.	.	.	16EEJ 16BB 16E 16G 16B 16e	.	.	.	.	.	.	.	.	.	.	.	.	.	.	.	.	.	.	.	.
.	.	.	.	.	.	8GJ 8B	.	.	.	.	.	.	.	.	.	.	.	.	.	.	.	.	.	.	.	.
.	.	.	.	.	.	8EEL 8BB 8E 8G 8B 8e	.	.	.	.	.	.	.	.	4bb	.	.	.	.	.	.	.	.	.	.	.
.	.	.	.	.	.	.	.	.	.	.	.	.	.	.	.	.	.	.	.	.	8r	.	.	8r	.	.
.	.	.	.	.	.	16EEL 16BB 16E 16G 16B 16e	.	.	.	.	.	.	.	.	.	.	.	.	.	.	.	.	.	.	.	.
.	.	.	.	.	.	16GJJ 16B	.	.	.	.	.	.	.	.	.	.	.	.	.	.	16g	.	.	16g	.	.
=63	=63	=63	=63	=63	=63	=63	=63	=63	=63	=63	=63	=63	=63	=63	=63	=63	=63	=63	=63	=63	=63	=63	=63	=63	=63	=63
1r	.	.	1r	.	.	8CL 8E 8G 8c 8e	.	C major	1r	.	.	1r	.	.	2ccc	.	.	1r	.	.	16ccLL	.	.	16ccLL	.	.
.	.	.	.	.	.	.	.	.	.	.	.	.	.	.	.	.	.	.	.	.	16cc	.	.	16cc	.	.
.	.	.	.	.	.	8GJ 8c	.	.	.	.	.	.	.	.	.	.	.	.	.	.	16cc	.	.	16cc	.	.
.	.	.	.	.	.	.	.	.	.	.	.	.	.	.	.	.	.	.	.	.	16ccJJ	.	.	16ccJJ	.	.
.	.	.	.	.	.	8CL 8E 8G 8c 8e	.	.	.	.	.	.	.	.	.	.	.	.	.	.	16ccLL	.	.	16ccLL	.	.
.	.	.	.	.	.	.	.	.	.	.	.	.	.	.	.	.	.	.	.	.	16cc	.	.	16cc	.	.
.	.	.	.	.	.	16CL 16E 16G 16c 16e	.	.	.	.	.	.	.	.	.	.	.	.	.	.	16gg	.	.	16gg	.	.
.	.	.	.	.	.	16GJJ 16c	.	.	.	.	.	.	.	.	.	.	.	.	.	.	16ggJJ	.	.	16ggJJ	.	.
.	.	.	.	.	.	16DLL 16A 16d 16f#	.	D major	.	.	.	.	.	.	2ddd	.	.	.	.	.	8ff#L	.	.	8ff#L	.	.
.	.	.	.	.	.	16DJ 16A 16d 16f#	.	.	.	.	.	.	.	.	.	.	.	.	.	.	.	.	.	.	.	.
.	.	.	.	.	.	8AJ 8d	.	.	.	.	.	.	.	.	.	.	.	.	.	.	16ggK	.	.	16ggK	.	.
.	.	.	.	.	.	.	.	.	.	.	.	.	.	.	.	.	.	.	.	.	8aa	.	.	8aa	.	.
.	.	.	.	.	.	8DL 8A 8d 8f#	.	.	.	.	.	.	.	.	.	.	.	.	.	.	.	.	.	.	.	.
.	.	.	.	.	.	.	.	.	.	.	.	.	.	.	.	.	.	.	.	.	16eeL	.	.	16eeL	.	.
.	.	.	.	.	.	16DL 16A 16d 16f#	.	.	.	.	.	.	.	.	.	.	.	.	.	.	16ee	.	.	16ee	.	.
.	.	.	.	.	.	16AJJ 16d	.	.	.	.	.	.	.	.	.	.	.	.	.	.	16eeJJ	.	.	16eeJJ	.	.
=64	=64	=64	=64	=64	=64	=64	=64	=64	=64	=64	=64	=64	=64	=64	=64	=64	=64	=64	=64	=64	=64	=64	=64	=64	=64	=64
1r	.	.	1r	.	.	8GGL 8BB 8D 8G 8B 8g	.	G major	1G	p < [[	.	1r	.	.	2bb	.	.	16gLL	p <	.	2.dd	.	.	2.dd	.	.
.	.	.	.	.	.	.	.	.	.	.	.	.	.	.	.	.	.	16a	.	.	.	.	.	.	.	.
.	.	.	.	.	.	8GJ 8B	.	.	.	.	.	.	.	.	.	.	.	16b	.	.	.	.	.	.	.	.
.	.	.	.	.	.	.	.	.	.	.	.	.	.	.	.	.	.	16ddJJ	.	.	.	.	.	.	.	.
.	.	.	.	.	.	8GGL 8BB 8D 8G 8B 8g	.	.	.	.	.	.	.	.	.	.	.	16gLL	.	.	.	.	.	.	.	.
.	.	.	.	.	.	.	.	.	.	.	.	.	.	.	.	.	.	16a	.	.	.	.	.	.	.	.
.	.	.	.	.	.	16GGL 16BB 16D 16G 16B 16g	.	.	.	.	.	.	.	.	.	.	.	16b	.	.	.	.	.	.	.	.
.	.	.	.	.	.	16GJJ 16B	.	.	.	.	.	.	.	.	.	.	.	16ddJJ	.	.	.	.	.	.	.	.
.	.	.	.	.	.	8GGL 8BB 8D 8G 8B 8fn	.	G dominant	.	.	.	.	.	.	4gg	.	.	16fnLL	.	.	.	.	.	.	.	.
.	.	.	.	.	.	.	.	.	.	.	.	.	.	.	.	.	.	16g	.	.	.	.	.	.	.	.
.	.	.	.	.	.	8GJ 8B	.	.	.	.	.	.	.	.	.	.	.	16b	.	.	.	.	.	.	.	.
.	.	.	.	.	.	.	.	.	.	.	.	.	.	.	.	.	.	16ddJJ	.	.	.	.	.	.	.	.
.	.	.	.	.	.	8GGL 8BB 8D 8G 8B 8f	.	.	.	.	.	.	.	.	4bb	.	.	16fLL	.	.	16r	.	.	16r	.	.
.	.	.	.	.	.	.	.	.	.	.	.	.	.	.	.	.	.	16g	.	.	16bLL	.	.	16bLL	.	.
.	.	.	.	.	.	16GGL 16BB 16D 16G 16B 16f	.	.	.	.	.	.	.	.	.	.	.	16b	.	.	16b	.	.	16b	.	.
.	.	.	.	.	.	16GJJ 16B	.	.	.	.	.	.	.	.	.	.	.	16ddJJ	[[	.	16ddJJ	.	.	16ddJJ	.	.
=65	=65	=65	=65	=65	=65	=65	=65	=65	=65	=65	=65	=65	=65	=65	=65	=65	=65	=65	=65	=65	=65	=65	=65	=65	=65	=65
2C	mf	.	1r	.	.	8CL 8E 8G 8c 8e	.	C major	2C	mf	.	1r	.	.	8eL	mf	.	8ccL	mf	.	16eeLL	.	.	16eeLL	.	.
.	.	.	.	.	.	.	.	.	.	.	.	.	.	.	.	.	.	.	.	.	16ee	.	.	16ee	.	.
.	.	.	.	.	.	8GJ 8c	.	.	.	.	.	.	.	.	8c	.	.	8g	.	.	16ee	.	.	16ee	.	.
.	.	.	.	.	.	.	.	.	.	.	.	.	.	.	.	.	.	.	.	.	16eeJJ	.	.	16eeJJ	.	.
.	.	.	.	.	.	8CL 8E 8G 8c 8e	.	.	.	.	.	.	.	.	8g	.	.	8ee	.	.	8eeL	.	.	8eeL	.	.
.	.	.	.	.	.	16CL 16E 16G 16c 16e	.	.	.	.	.	.	.	.	8cJ	.	.	8ccJ	.	.	16ccL	.	.	16ccL	.	.
.	.	.	.	.	.	16GJJ 16c	.	.	.	.	.	.	.	.	.	.	.	.	.	.	16ggJJ	.	.	16ggJJ	.	.
4D	.	.	.	.	.	16DLL 16A 16d 16f#	.	D major	4D	.	.	.	.	.	8f#L	.	.	8ddL	.	.	8ff#L	.	.	8ff#L	.	.
.	.	.	.	.	.	16DJ 16A 16d 16f#	.	.	.	.	.	.	.	.	.	.	.	.	.	.	.	.	.	.	.	.
.	.	.	.	.	.	8AJ 8d	.	.	.	.	.	.	.	.	8d	.	.	8a	.	.	16ggK	.	.	16ggK	.	.
.	.	.	.	.	.	.	.	.	.	.	.	.	.	.	.	.	.	.	.	.	8.aa	.	.	8.aa	.	.
4C	.	.	.	.	.	8DL 8A 8d 8f#	.	.	4A	.	.	.	.	.	8a	.	.	8ff#	.	.	.	.	.	.	.	.
.	.	.	.	.	.	16DL 16A 16d 16f#	.	.	.	.	.	.	.	.	8dJ	.	.	8aJ	.	.	16ff#L	.	.	16ff#L	.	.
.	.	.	.	.	.	16AJJ 16d	.	.	.	.	.	.	.	.	.	.	.	.	.	.	[16ddJJ	.	.	[16ddJJ	.	.
=66	=66	=66	=66	=66	=66	=66	=66	=66	=66	=66	=66	=66	=66	=66	=66	=66	=66	=66	=66	=66	=66	=66	=66	=66	=66	=66
4BB	.	.	1r	.	.	8BBL 8F# 8B 8d 8f#	.	B minor	4D	.	.	4d	mf	.	4d	.	.	4dd	.	.	8ddL]	.	.	8ddL]	.	.
.	.	.	.	.	.	16BBL 16F# 16B 16d 16f#	.	.	.	.	.	.	.	.	.	.	.	.	.	.	16aaK	.	.	16aaK	.	.
.	.	.	.	.	.	16BJJ 16d	.	.	.	.	.	.	.	.	.	.	.	.	.	.	8.gg	.	.	8.gg	.	.
4D#X	.	.	.	.	.	8BBL 8F# 8A 8d#X 8f#	.	B dominant	4D#X	.	.	4d#X	.	.	4f#	.	.	4aa	.	.	.	.	.	.	.	.
.	.	.	.	.	.	16BBL 16F# 16A 16d# 16f#	.	.	.	.	.	.	.	.	.	.	.	.	.	.	16ff#Jk	.	.	16ff#Jk	.	.
.	.	.	.	.	.	16AJJ 16d#	.	.	.	.	.	.	.	.	.	.	.	.	.	.	4gg	.	.	4gg	.	.
2E	.	.	.	.	.	8EEL 8BB 8E 8G 8B 8e	.	E minor	2E	.	.	8eL	.	.	2e	.	.	8ggL	.	.	.	.	.	.	.	.
.	.	.	.	.	.	8GJ 8B	.	.	.	.	.	8f#	.	.	.	.	.	8aaJ	.	.	.	.	.	.	.	.
.	.	.	.	.	.	.	.	.	.	.	.	.	.	.	.	.	.	.	.	.	16r	.	.	16r	.	.
.	.	.	.	.	.	8EEL 8BB 8E 8G 8B 8e	.	.	.	.	.	8g	.	.	.	.	.	4bb	.	.	16.ddLL	f	.	16.ddLL	f	.
.	.	.	.	.	.	.	.	.	.	.	.	.	.	.	.	.	.	.	.	.	16.ee	.	.	16.ee	.	.
.	.	.	.	.	.	16EEL 16BB 16E 16G 16B 16e	.	.	.	.	.	8dnJ	.	.	.	.	.	.	.	.	.	.	.	.	.	.
.	.	.	.	.	.	16GJJ 16B	.	.	.	.	.	.	.	.	.	.	.	.	.	.	[16ggJJ	.	.	[16ggJJ	.	.
=67	=67	=67	=67	=67	=67	=67	=67	=67	=67	=67	=67	=67	=67	=67	=67	=67	=67	=67	=67	=67	=67	=67	=67	=67	=67	=67
8CCL	f <	.	16ELL	mf <	.	8CL 8E 8G 8c 8e	mf <	C major	4C	f <	.	4E 4c	f <	.	4g	f <	.	2.ccc	f <	.	4gg]	<	.	4gg]	<	.
.	.	.	16G	.	.	.	.	.	.	.	.	.	.	.	.	.	.	.	.	.	.	.	.	.	.	.
8CC	.	.	16c	.	.	8GJ 8c	.	.	.	.	.	.	.	.	.	.	.	.	.	.	.	.	.	.	.	.
.	.	.	16eJJ	.	.	.	.	.	.	.	.	.	.	.	.	.	.	.	.	.	.	.	.	.	.	.
8CC	.	.	16ELL	.	.	8CL 8E 8G 8c 8e	.	.	8CL	.	.	8EL 8c	.	.	8gL	.	.	.	.	.	8r	.	.	8r	.	.
.	.	.	16G	.	.	.	.	.	.	.	.	.	.	.	.	.	.	.	.	.	.	.	.	.	.	.
8CCJ	.	.	16c	.	.	16CL 16E 16G 16c 16e	.	.	8CJ	.	.	8EJ 8c	.	.	8gJ	.	.	.	.	.	16eeKL	.	.	16eeKL	.	.
.	.	.	16eJJ	.	.	16GJJ 16c	.	.	.	.	.	.	.	.	.	.	.	.	.	.	8gg	.	.	8gg	.	.
8CCL	.	.	16ELL	.	.	8CL 8E 8G 8c 8e	.	.	8CL	.	.	8EL 8c	.	.	8gL	.	.	.	.	.	.	.	.	.	.	.
.	.	.	16G	.	.	.	.	.	.	.	.	.	.	.	.	.	.	.	.	.	16aaL	.	.	16aaL	.	.
8CC	.	.	16c	.	.	8C 8E 8G 8c 8e	.	.	8C	.	.	8EJ 8c	.	.	8g	.	.	.	.	.	16bbJ	.	.	16bbJ	.	.
.	.	.	16eJJ	.	.	.	.	.	.	.	.	.	.	.	.	.	.	.	.	.	8aa	.	.	8aa	.	.
8CC	.	.	8gL	.	.	8C 8E 8G 8c 8e	.	.	8C	.	.	16GLL	.	.	8g	.	.	16ggLL	.	.	.	.	.	.	.	.
.	.	.	.	.	.	.	.	.	.	.	.	16AJ	.	.	.	.	.	16aaJ	.	.	16ggL	.	.	16ggL	.	.
8CCJ	.	.	8eJ	.	.	8CJ 8E 8G 8c 8e	.	.	8CJ	.	.	8cJ	.	.	8gJ	.	.	8cccJ	.	.	16gg	.	.	16gg	.	.
.	.	.	.	.	.	.	.	.	.	.	.	.	.	.	.	.	.	.	.	.	16ggJJ	.	.	16ggJJ	.	.
=68	=68	=68	=68	=68	=68	=68	=68	=68	=68	=68	=68	=68	=68	=68	=68	=68	=68	=68	=68	=68	=68	=68	=68	=68	=68	=68
8DDL	.	.	8DL 8A 8d 8g	.	D suspended-fourth	8DL 8A 8d 8g	.	D suspended-fourth	8DL	.	.	4d 4g	.	.	8gL	.	.	2.ddd	.	.	4.aa	.	.	4.aa	.	.
8DDJ	.	.	8DJ 8A 8d 8g	.	.	8DJ 8A 8d 8g	.	.	8D	.	.	.	.	.	8g	.	.	.	.	.	.	.	.	.	.	.
4DD	.	.	8DL 8A 8d 8g	.	.	8DL 8A 8d 8g	.	.	8D	.	.	4a	.	.	8g	.	.	.	.	.	.	.	.	.	.	.
.	.	.	16DL 16A 16d 16g	.	.	16DL 16A 16d 16g	.	.	8DJ	.	.	.	.	.	8gJ	.	.	.	.	.	16bbLL	.	.	16bbLL	.	.
.	.	.	16DJJ 16A 16d 16g	.	.	16DJJ 16A 16d 16g	.	.	.	.	.	.	.	.	.	.	.	.	.	.	32aaL	.	.	32aaL	.	.
.	.	.	.	.	.	.	.	.	.	.	.	.	.	.	.	.	.	.	.	.	32bbJJJ	.	.	32bbJJJ	.	.
16DDLL	.	.	16DLL 16A 16d 16f#	.	D major	16DLL 16A 16d 16f#	.	D major	16DLL	.	.	4d	.	.	16gLL	.	.	.	.	.	4aa	.	.	4aa	.	.
16DD	.	.	16D 16A 16d 16f#	.	.	16D 16A 16d 16f#	.	.	16D	.	.	.	.	.	16g	.	.	.	.	.	.	.	.	.	.	.
16DD	.	.	16D 16A 16d 16f#	.	.	16D 16A 16d 16f#	.	.	16D	.	.	.	.	.	16g	.	.	.	.	.	.	.	.	.	.	.
16DDJJ	.	.	16DJJ 16A 16d 16f#	.	.	16DJJ 16A 16d 16f#	.	.	16DJJ	.	.	.	.	.	16gJJ	.	.	.	.	.	.	.	.	.	.	.
16r	[	.	16r	[	.	16r	[	.	16r	[	.	16r	[	.	16r	[	.	16r	[	.	16r	[	.	16r	[	.
8.CC#X^	.	.	8.C#X^ 8.E#X 8.G#X 8.c#X 8.e#X	.	C# major	8.C#X^ 8.E#X 8.G#X 8.c#X 8.e#X	.	C# major	8.C#X^	.	.	8.c#X^	.	.	8.fn^	.	.	8.ccc#X^	.	.	8.cc#X^	.	.	8.cc#X^	.	.
=69	=69	=69	=69	=69	=69	=69	=69	=69	=69	=69	=69	=69	=69	=69	=69	=69	=69	=69	=69	=69	=69	=69	=69	=69	=69	=69
4r	.	.	4r	.	.	4r	.	.	4r	.	.	4r	.	.	4r	.	.	16ccLL	ff	.	16eeLL	fff	.	16eeLL	fff	.
.	.	.	.	.	.	.	.	.	.	.	.	.	.	.	.	.	.	16cc	.	.	16ee	.	.	16ee	.	.
.	.	.	.	.	.	.	.	.	.	.	.	.	.	.	.	.	.	16cc	.	.	16ee	.	.	16ee	.	.
.	.	.	.	.	.	.	.	.	.	.	.	.	.	.	.	.	.	16ccJJ	.	.	16eeJJ	.	.	16eeJJ	.	.
*	*	*	*	*	*	*	*	*	*	*	*	*	*	*	*	*	*	*^	*	*	*	*	*	*	*	*
4CC^	ff	.	4C^ 4E 4G 4c 4e	ff	C major	4C^ 4E 4G 4c 4e	f	C major	4C^	ff	.	2e^	ff	.	4eee^	ff	.	16ccLL	4g^	.	.	16eeLL	.	.	16eeLL	.	.
.	.	.	.	.	.	.	.	.	.	.	.	.	.	.	.	.	.	16g	.	.	.	16cc	.	.	16cc	.	.
.	.	.	.	.	.	.	.	.	.	.	.	.	.	.	.	.	.	16g	.	.	.	16cc	.	.	16cc	.	.
.	.	.	.	.	.	.	.	.	.	.	.	.	.	.	.	.	.	16eeJJ	.	.	.	16ggJJ	.	.	16ggJJ	.	.
4DD	.	.	16DLL	.	.	8DL 8A 8d 8f#	.	D major	8DL	.	.	.	.	.	4eee	.	.	8ddL	2a	.	.	8ff#L	.	.	8ff#L	.	.
.	.	.	16A	.	.	.	.	.	.	.	.	.	.	.	.	.	.	.	.	.	.	.	.	.	.	.	.
.	.	.	16d	.	.	8DJ 8A 8d 8f#	.	.	8F#	.	.	.	.	.	.	.	.	16eeK	.	.	.	16ggK	.	.	16ggK	.	.
.	.	.	16f#JJ	.	.	.	.	.	.	.	.	.	.	.	.	.	.	8.ff#	.	.	.	8.aa	.	.	8.aa	.	.
4DD	.	.	16aLL	.	.	8DL 8A 8d 8f#	.	.	8A	.	.	8dL	.	.	4ddd	.	.	.	.	.	.	.	.	.	.	.	.
.	.	.	16d	.	.	.	.	.	.	.	.	.	.	.	.	.	.	.	.	.	.	.	.	.	.	.	.
.	.	.	16AJJ	.	.	16DL 16A 16d 16f#	.	.	8F#J	.	.	8AJ	.	.	.	.	.	8ddJ	.	.	.	8ff#J	.	.	8ff#J	.	.
.	.	.	16r	.	.	16AJJ 16d	.	.	.	.	.	.	.	.	.	.	.	.	.	.	.	.	.	.	.	.	.
=70	=70	=70	=70	=70	=70	=70	=70	=70	=70	=70	=70	=70	=70	=70	=70	=70	=70	=70	=70	=70	=70	=70	=70	=70	=70	=70	=70
8GGGL	.	.	16BBLL	.	.	8GGL 8BB 8D 8G 8B 8g	.	G major	4.G	.	.	16GLL	.	.	4bb	.	.	8bL	2g	.	.	8ddL	.	.	8ddL	.	.
.	.	.	16D	.	.	.	.	.	.	.	.	16BJ	.	.	.	.	.	.	.	.	.	.	.	.	.	.	.
8GGG	.	.	16G	.	.	8GJ 8B	.	.	.	.	.	8dJ	.	.	.	.	.	16ff#K	.	.	.	16aaK	.	.	16aaK	.	.
.	.	.	16BJJ	.	.	.	.	.	.	.	.	.	.	.	.	.	.	8.ee	.	.	.	8.gg	.	.	8.gg	.	.
8GGG	.	.	16gLL	.	.	8GGL 8BB 8D 8G 8B 8g	.	.	.	.	.	8gL	.	.	[4ddd	.	.	.	.	.	.	.	.	.	.	.	.
.	.	.	16B	.	.	.	.	.	.	.	.	.	.	.	.	.	.	.	.	.	.	.	.	.	.	.	.
8GGGJ	.	.	16GJJ	.	.	16GGL 16BB 16D 16G 16B 16g	.	.	8G	.	.	8dJ	.	.	.	.	.	16ddJk	.	.	.	16ff#Jk	.	.	16ff#Jk	.	.
.	.	.	16r	.	.	16GJJ 16B	.	.	.	.	.	.	.	.	.	.	.	4.ee	.	.	.	4.gg	.	.	4.gg	.	.
8EEEL	.	.	16EELL	.	.	16EELL 16BB 16E 16G 16B 16e	.	E minor	8GL	.	.	16ELL	.	.	4ddd]	.	.	.	2e	.	.	.	.	.	.	.	.
.	.	.	16BB	.	.	16EEJ 16BB 16E 16G 16B 16e	.	.	.	.	.	16G	.	.	.	.	.	.	.	.	.	.	.	.	.	.	.
8EEE	.	.	16G	.	.	8GJ 8B	.	.	(16eL	.	.	16B	.	.	.	.	.	.	.	.	.	.	.	.	.	.	.
.	.	.	16BJJ	.	.	.	.	.	16dJJ)	.	.	16eJJ	.	.	.	.	.	.	.	.	.	.	.	.	.	.	.
8EEE	.	.	16eLL	.	.	8EEL 8BB 8E 8G 8B 8e	.	.	16BLL	.	.	8BL	.	.	8bbL	.	.	.	.	.	.	.	.	.	.	.	.
.	.	.	16G	.	.	.	.	.	16AJ	.	.	.	.	.	.	.	.	8r	.	.	.	8r	.	.	8r	.	.
8AAAJ	.	.	16EJJ	.	.	16EEL 16BB 16E 16G 16B 16e	.	.	8GJ	.	.	8GJ	.	.	8ggJ	.	.	.	.	.	.	.	.	.	.	.	.
.	.	.	16r	.	.	16GJJ 16B	.	.	.	.	.	.	.	.	.	.	.	16g	.	.	.	16g	.	.	16g	.	.
=71	=71	=71	=71	=71	=71	=71	=71	=71	=71	=71	=71	=71	=71	=71	=71	=71	=71	=71	=71	=71	=71	=71	=71	=71	=71	=71	=71
4CC	.	.	16CLL	.	.	8CL 8E 8G 8c 8e	.	C major	8.CL	.	.	16EKL	.	.	2ccc	.	.	16ccLL	2g	.	.	16ccLL	.	.	16ccLL	.	.
.	.	.	16E	.	.	.	.	.	.	.	.	8G	.	.	.	.	.	16cc	.	.	.	16cc	.	.	16cc	.	.
.	.	.	16G	.	.	8GJ 8c	.	.	.	.	.	.	.	.	.	.	.	16cc	.	.	.	16cc	.	.	16cc	.	.
.	.	.	16cJJ	.	.	.	.	.	16CJk	.	.	16cJk	.	.	.	.	.	16ccJJ	.	.	.	16ccJJ	.	.	16ccJJ	.	.
8CCL	.	.	16eLL	.	.	8CL 8E 8G 8c 8e	.	.	16ELL	.	.	8eL	.	.	.	.	.	8ccL	.	.	.	8ccL	.	.	8ccL	.	.
.	.	.	16c	.	.	.	.	.	16GJ	.	.	.	.	.	.	.	.	.	.	.	.	.	.	.	.	.	.
16GGGL	.	.	16GJJ	.	.	16CL 16E 16G 16c 16e	.	.	8EJ	.	.	8gJ	.	.	.	.	.	16ggL	.	.	.	16ggL	.	.	16ggL	.	.
16CCJJ	.	.	16r	.	.	16GJJ 16c	.	.	.	.	.	.	.	.	.	.	.	16ggJJ	.	.	.	16ggJJ	.	.	16ggJJ	.	.
8DDL	.	.	16DLL	.	.	16DLL 16A 16d 16f#	.	D major	8DL	.	.	8dL	.	.	2ddd	.	.	16ff#KL	2a	.	.	16ff#KL	.	.	16ff#KL	.	.
.	.	.	16A	.	.	16DJ 16A 16d 16f#	.	.	.	.	.	.	.	.	.	.	.	8gg	.	.	.	8gg	.	.	8gg	.	.
8DDJ	.	.	16d	.	.	8AJ 8d	.	.	8AJ	.	.	8f#J	.	.	.	.	.	.	.	.	.	.	.	.	.	.	.
.	.	.	16f#JJ	.	.	.	.	.	.	.	.	.	.	.	.	.	.	8aa	.	.	.	8aa	.	.	8aa	.	.
4DD	.	.	16aLL	.	.	8DL 8A 8d 8f#	.	.	8f#L	.	.	16dLL	.	.	.	.	.	.	.	.	.	.	.	.	.	.	.
.	.	.	16d	.	.	.	.	.	.	.	.	16AJ	.	.	.	.	.	16eeL	.	.	.	16eeL	.	.	16eeL	.	.
.	.	.	16AJJ	.	.	16DL 16A 16d 16f#	.	.	16F#L	.	.	8DJ	.	.	.	.	.	16ee	.	.	.	16ee	.	.	16ee	.	.
.	.	.	16r	.	.	16AJJ 16d	.	.	16DJJ	.	.	.	.	.	.	.	.	16eeJJ	.	.	.	16eeJJ	.	.	16eeJJ	.	.
=72	=72	=72	=72	=72	=72	=72	=72	=72	=72	=72	=72	=72	=72	=72	=72	=72	=72	=72	=72	=72	=72	=72	=72	=72	=72	=72	=72
8GGL	.	.	16BBLL	.	.	8GGL 8BB 8D 8G 8B 8g	.	G major	8.BL	.	.	8BL	.	.	2bb	.	.	2.dd	2g	.	.	2.dd	.	.	2.dd	.	.
.	.	.	16D	.	.	.	.	.	.	.	.	.	.	.	.	.	.	.	.	.	.	.	.	.	.	.	.
8GG	.	.	16G	.	.	8GJ 8B	.	.	.	.	.	16gL	.	.	.	.	.	.	.	.	.	.	.	.	.	.	.
.	.	.	16BJJ	.	.	.	.	.	16GJk	.	.	16dJJ	.	.	.	.	.	.	.	.	.	.	.	.	.	.	.
8GG	.	.	16gLL	.	.	8GGL 8BB 8D 8G 8B 8g	.	.	16BLL	.	.	8BL	.	.	.	.	.	.	.	.	.	.	.	.	.	.	.
.	.	.	16B	.	.	.	.	.	16A	.	.	.	.	.	.	.	.	.	.	.	.	.	.	.	.	.	.
8DDJ	.	.	16GJJ	.	.	16GGL 16BB 16D 16G 16B 16g	.	.	16B	.	.	8GJ	.	.	.	.	.	.	.	.	.	.	.	.	.	.	.
.	.	.	16r	.	.	16GJJ 16B	.	.	16AJJ	.	.	.	.	.	.	.	.	.	.	.	.	.	.	.	.	.	.
8GGL	.	.	16BBLL	.	.	8GGL 8BB 8D 8G 8B 8fn	.	G dominant	16BLL	.	.	8BL	.	.	16bbLL	.	.	.	2fn	.	.	.	.	.	.	.	.
.	.	.	16D	.	.	.	.	.	16eJ	.	.	.	.	.	16aaJ	.	.	.	.	.	.	.	.	.	.	.	.
8GGJ	.	.	16G	.	.	8GJ 8B	.	.	[8dJ	.	.	8fnJ	.	.	[8ggJ	.	.	.	.	.	.	.	.	.	.	.	.
.	.	.	16BJJ	.	.	.	.	.	.	.	.	.	.	.	.	.	.	.	.	.	.	.	.	.	.	.	.
8GGL	.	.	16fnLL	.	.	8GGL 8BB 8D 8G 8B 8f	.	.	4d]	.	.	16dLL	.	.	8ggL]	.	.	16r	.	.	.	16r	.	.	16r	.	.
.	.	.	16B	.	.	.	.	.	.	.	.	16BJ	.	.	.	.	.	16gLL	.	.	.	16bLL	.	.	16bLL	.	.
16DDL	.	.	16GJJ	.	.	16GGL 16BB 16D 16G 16B 16f	.	.	.	.	.	8GJ	.	.	16aaL	.	.	16g	.	.	.	16b	.	.	16b	.	.
16DDJJ	.	.	16r	.	.	16GJJ 16B	.	.	.	.	.	.	.	.	16bbJJ	.	.	16bJJ	.	.	.	16ddJJ	.	.	16ddJJ	.	.
=73	=73	=73	=73	=73	=73	=73	=73	=73	=73	=73	=73	=73	=73	=73	=73	=73	=73	=73	=73	=73	=73	=73	=73	=73	=73	=73	=73
8CCL	.	.	16CLL	.	.	8CL 8E 8G 8c 8e	.	C major	4c	.	.	8cL	.	.	8cccL	.	.	8ccL	2g	.	.	8eeL	.	.	8eeL	.	.
.	.	.	16E	.	.	.	.	.	.	.	.	.	.	.	.	.	.	.	.	.	.	.	.	.	.	.	.
8CCJ	.	.	16G	.	.	8GJ 8c	.	.	.	.	.	8E	.	.	8ggJ	.	.	16ccK	.	.	.	16eeK	.	.	16eeK	.	.
.	.	.	16cJJ	.	.	.	.	.	.	.	.	.	.	.	.	.	.	8cc	.	.	.	8ee	.	.	8ee	.	.
8CCL	.	.	16eLL	.	.	8CL 8E 8G 8c 8e	.	.	4G	.	.	8G	.	.	[4eee	.	.	.	.	.	.	.	.	.	.	.	.
.	.	.	16c	.	.	.	.	.	.	.	.	.	.	.	.	.	.	16gL	.	.	.	16ccL	.	.	16ccL	.	.
16GGGL	.	.	16GJJ	.	.	16CL 16E 16G 16c 16e	.	.	.	.	.	8cJ	.	.	.	.	.	16g	.	.	.	16cc	.	.	16cc	.	.
16CCJJ	.	.	16r	.	.	16GJJ 16c	.	.	.	.	.	.	.	.	.	.	.	16eeJJ	.	.	.	16ggJJ	.	.	16ggJJ	.	.
8DDL	.	.	16DLL	.	.	8DL 8A 8d 8f#	.	D major	8DL	.	.	4f#	.	.	4eee]	.	.	8ddL	2a	.	.	8ff#L	.	.	8ff#L	.	.
.	.	.	16A	.	.	.	.	.	.	.	.	.	.	.	.	.	.	.	.	.	.	.	.	.	.	.	.
8DDJ	.	.	16d	.	.	8AJ 8d	.	.	8F#	.	.	.	.	.	.	.	.	16eeK	.	.	.	16ggK	.	.	16ggK	.	.
.	.	.	16f#JJ	.	.	.	.	.	.	.	.	.	.	.	.	.	.	8.ff#	.	.	.	8.aa	.	.	8.aa	.	.
4CC	.	.	16aLL	.	.	8DL 8A 8d 8f#	.	.	8d	.	.	4d	.	.	8dddL	.	.	.	.	.	.	.	.	.	.	.	.
.	.	.	16d	.	.	.	.	.	.	.	.	.	.	.	.	.	.	.	.	.	.	.	.	.	.	.	.
.	.	.	16AJJ	.	.	16DL 16A 16d 16f#	.	.	8f#J	.	.	.	.	.	8cccJ	.	.	8ddJ	.	.	.	8ff#J	.	.	8ff#J	.	.
.	.	.	16r	.	.	16AJJ 16d	.	.	.	.	.	.	.	.	.	.	.	.	.	.	.	.	.	.	.	.	.
=74	=74	=74	=74	=74	=74	=74	=74	=74	=74	=74	=74	=74	=74	=74	=74	=74	=74	=74	=74	=74	=74	=74	=74	=74	=74	=74	=74
4BBB	.	.	16BBLL	.	.	8BBL 8F# 8B 8d 8f#	.	B minor	4BB	.	.	4d	.	.	4bb	.	.	8bL	4d	.	.	8ddL	.	.	8ddL	.	.
.	.	.	16F#	.	.	.	.	.	.	.	.	.	.	.	.	.	.	.	.	.	.	.	.	.	.	.	.
.	.	.	16B	.	.	8BB 8F# 8B 8d 8f#	.	.	.	.	.	.	.	.	.	.	.	16ff#K	.	.	.	16aaK	.	.	16aaK	.	.
.	.	.	16dJJ	.	.	.	.	.	.	.	.	.	.	.	.	.	.	8.ee	.	.	.	8.gg	.	.	8.gg	.	.
4DD#X	.	.	16BBLL	.	.	8BB 8F# 8A 8d#X 8f#	.	B dominant	4D#X	.	.	4f#	.	.	4ddd#X	.	.	.	4f#	.	.	.	.	.	.	.	.
.	.	.	16A	.	.	.	.	.	.	.	.	.	.	.	.	.	.	.	.	.	.	.	.	.	.	.	.
.	.	.	16d#X	.	.	8BBJ 8F# 8A 8d# 8f#	.	.	.	.	.	.	.	.	.	.	.	16dd#XK	.	.	.	16ff#K	.	.	16ff#K	.	.
.	.	.	16f#JJ	.	.	.	.	.	.	.	.	.	.	.	.	.	.	8eeJ	.	.	.	8ggJ	.	.	8ggJ	.	.
8EEL	.	.	16ELL	.	.	8EEL 8BB 8E 8G 8B 8e	.	E minor	8EL	.	.	4g	.	.	16eeeLL	.	.	.	2e	.	.	.	.	.	.	.	.
.	.	.	16G	.	.	.	.	.	.	.	.	.	.	.	16bb	.	.	8r	.	.	.	8r	.	.	8r	.	.
8EE	.	.	16B	.	.	8GJ 8B	.	.	8F#J	.	.	.	.	.	16aa	.	.	.	.	.	.	.	.	.	.	.	.
.	.	.	16eJJ	.	.	.	.	.	.	.	.	.	.	.	16ggJJ	.	.	16b	.	.	.	16b	.	.	16b	.	.
8EE	.	.	16gLL	.	.	8EEL 8BB 8E 8G 8B 8e	.	.	8GL	.	.	4b	.	.	16bbLL	.	.	8ddnL	.	.	.	8ddL	.	.	8ddL	.	.
.	.	.	16b	.	.	.	.	.	.	.	.	.	.	.	16ggJ	.	.	.	.	.	.	.	.	.	.	.	.
8DDnJ	.	.	16ddJJ	.	.	16EEL 16BB 16E 16G 16B 16e	.	.	16EL	.	.	.	.	.	8ggJ	.	.	16eeL	.	.	.	16eeL	.	.	16eeL	.	.
.	.	.	16r	.	.	16GJJ 16B	.	.	16DnJJ	.	.	.	.	.	.	.	.	[16ggJJ	.	.	.	[16ggJJ	.	.	[16ggJJ	.	.
=75	=75	=75	=75	=75	=75	=75	=75	=75	=75	=75	=75	=75	=75	=75	=75	=75	=75	=75	=75	=75	=75	=75	=75	=75	=75	=75	=75
8CCL	.	.	16CLL	.	.	8CL 8E 8G 8c 8e	.	C major	4C	.	.	8cL	.	.	1ccc	.	.	4.gg]	1g	.	.	4.gg]	.	.	4.gg]	.	.
.	.	.	16E	.	.	.	.	.	.	.	.	.	.	.	.	.	.	.	.	.	.	.	.	.	.	.	.
8CCJ	.	.	16G	.	.	8C 8E 8G 8c 8e	.	.	.	.	.	8e	.	.	.	.	.	.	.	.	.	.	.	.	.	.	.
.	.	.	16cJJ	.	.	.	.	.	.	.	.	.	.	.	.	.	.	.	.	.	.	.	.	.	.	.	.
8CCL	.	.	4e	.	.	8C 8E 8G 8c 8e	.	.	8.CL	.	.	8G	.	.	.	.	.	.	.	.	.	.	.	.	.	.	.
16CCL	.	.	.	.	.	8CJ 8E 8G 8c 8e	.	.	.	.	.	8CJ	.	.	.	.	.	16eeKL	.	.	.	16eeKL	.	.	16eeKL	.	.
16GGGJJ	.	.	.	.	.	.	.	.	16GGJk	.	.	.	.	.	.	.	.	8gg	.	.	.	8gg	.	.	8gg	.	.
16CC	.	.	8CL 8E 8G 8c 8e	.	.	8CL 8E 8G 8c 8e	.	.	16C	.	.	16CLL	.	.	.	.	.	.	.	.	.	.	.	.	.	.	.
16r	.	.	.	.	.	.	.	.	16r	.	.	16EJ	.	.	.	.	.	16aaL	.	.	.	16aaL	.	.	16aaL	.	.
8CC	.	.	8C 8E 8G 8c 8e	.	.	8CJ 8E 8G 8c 8e	.	.	8C	.	.	8GJ	.	.	.	.	.	16bbJ	.	.	.	16bbJ	.	.	16bbJ	.	.
.	.	.	.	.	.	.	.	.	.	.	.	.	.	.	.	.	.	8aa	.	.	.	8aa	.	.	8aa	.	.
8CCL	.	.	8C 8E 8G 8c 8e	.	.	8CL 8E 8G 8c 8e	.	.	16GLL	.	.	8cL	.	.	.	.	.	.	.	.	.	.	.	.	.	.	.
.	.	.	.	.	.	.	.	.	16AJ	.	.	.	.	.	.	.	.	16ggL	.	.	.	16ggL	.	.	16ggL	.	.
8CCJ	.	.	8CJ 8E 8G 8c 8e	.	.	16CL 16E 16G 16c 16e	.	.	8cJ	.	.	8GJ	.	.	.	.	.	16gg	.	.	.	16gg	.	.	16gg	.	.
.	.	.	.	.	.	16GJJ 16c	.	.	.	.	.	.	.	.	.	.	.	[16aaJJ	.	.	.	[16aaJJ	.	.	[16aaJJ	.	.
=76	=76	=76	=76	=76	=76	=76	=76	=76	=76	=76	=76	=76	=76	=76	=76	=76	=76	=76	=76	=76	=76	=76	=76	=76	=76	=76	=76
8DDL	.	.	16DLL	.	.	8DL 8A 8d 8g	.	D suspended-fourth	4G	.	.	8gL	.	.	[1ddd	.	.	4aa]	[1a	.	.	4aa]	.	.	4aa]	.	.
.	.	.	16A	.	.	.	.	.	.	.	.	.	.	.	.	.	.	.	.	.	.	.	.	.	.	.	.
8DDJ	.	.	16d	.	.	8D 8A 8d 8g	.	.	.	.	.	8d	.	.	.	.	.	.	.	.	.	.	.	.	.	.	.
.	.	.	16gJJ	.	.	.	.	.	.	.	.	.	.	.	.	.	.	.	.	.	.	.	.	.	.	.	.
8DDL	.	.	4d	.	.	8D 8A 8d 8g	.	.	4A	.	.	8A	.	.	.	.	.	16r	.	.	.	16r	.	.	16r	.	.
.	.	.	.	.	.	.	.	.	.	.	.	.	.	.	.	.	.	16ddLL	.	.	.	16ddLL	.	.	16ddLL	.	.
16DDL	.	.	.	.	.	8DJ 8A 8d 8g	.	.	.	.	.	8DJ	.	.	.	.	.	16dd	.	.	.	16dd	.	.	16dd	.	.
16AAJJ	.	.	.	.	.	.	.	.	.	.	.	.	.	.	.	.	.	16ddJJ	.	.	.	16ddJJ	.	.	16ddJJ	.	.
[2D	.	.	[2D [2A [2d [2f#	.	.	[2D [2A [2d [2f#	.	D major	[2d	.	.	[2d	.	.	.	.	.	8ddL	.	.	.	8ddL	.	.	8ddL	.	.
.	.	.	.	.	.	.	.	.	.	.	.	.	.	.	.	.	.	8ggJ	.	.	.	8ggJ	.	.	8ggJ	.	.
.	.	.	.	.	.	.	.	.	.	.	.	.	.	.	.	.	.	8ff#L	.	.	.	8ff#L	.	.	8ff#L	.	.
.	.	.	.	.	.	.	.	.	.	.	.	.	.	.	.	.	.	16ff#L	.	.	.	16ff#L	.	.	16ff#L	.	.
.	.	.	.	.	.	.	.	.	.	.	.	.	.	.	.	.	.	[16ggJJ	.	.	.	[16ggJJ	.	.	[16ggJJ	.	.
*	*	*	*	*	*	*	*	*	*	*	*	*	*	*	*	*	*	*v	*v	*	*	*	*	*	*	*	*
=77	=77	=77	=77	=77	=77	=77	=77	=77	=77	=77	=77	=77	=77	=77	=77	=77	=77	=77	=77	=77	=77	=77	=77	=77	=77	=77
*M2/4	*	*	*M2/4	*	*	*M2/4	*	*	*M2/4	*	*	*M2/4	*	*	*M2/4	*	*	*M2/4	*	*	*M2/4	*	*	*M2/4	*	*
*	*	*	*	*	*	*	*	*	*	*	*	*	*	*	*	*	*	*^	*	*	*	*	*	*	*	*
2D]	.	.	2D] 2A] 2d] 2f#]	.	.	2D] 2A] 2d] 2f#]	.	.	2d]	.	.	2d]	.	.	2ddd]	.	.	2gg]	2a]	.	.	2gg]	.	.	2gg]	.	.
*	*	*	*	*	*	*	*	*	*	*	*	*	*	*	*	*	*	*v	*v	*	*	*	*	*	*	*	*
=78	=78	=78	=78	=78	=78	=78	=78	=78	=78	=78	=78	=78	=78	=78	=78	=78	=78	=78	=78	=78	=78	=78	=78	=78	=78	=78
*M4/4	*	*	*M4/4	*	*	*M4/4	*	*	*M4/4	*	*	*M4/4	*	*	*M4/4	*	*	*M4/4	*	*	*M4/4	*	*	*M4/4	*	*
*	*	*	*	*	*	*	*	*	*	*	*	*	*	*	*	*	*	*	*	*	*8va	*	*	*	*	*
1r	.	.	4D 4G	mp	.	8BL	mp	.	2G	mp	.	2G	mp	.	[1ddd	mp	.	8bL	mp	.	8bbL	p	.	1r	.	.
.	.	.	.	.	.	8c	.	.	.	.	.	.	.	.	.	.	.	8cc	.	.	8ccc	.	.	.	.	.
.	.	.	4D 4G 4B	.	.	8d	.	.	.	.	.	.	.	.	.	.	.	8dd	.	.	8ddd	.	.	.	.	.
.	.	.	.	.	.	8BJ	.	.	.	.	.	.	.	.	.	.	.	8eeJ	.	.	8eeeJ	.	.	.	.	.
.	.	.	2D 2F# 2A	.	.	4d	.	.	2F#	.	.	2F#	.	.	.	.	.	4dd	.	.	4ddd	.	.	.	.	.
.	.	.	.	.	.	4A	.	.	.	.	.	.	.	.	.	.	.	4f#	.	.	4aa	.	.	.	.	.
=79	=79	=79	=79	=79	=79	=79	=79	=79	=79	=79	=79	=79	=79	=79	=79	=79	=79	=79	=79	=79	=79	=79	=79	=79	=79	=79
1r	.	.	4.Fn 4.A 4.d	.	.	4d	.	.	2Fn	.	.	2Fn	.	.	1ddd]	.	.	4dd	.	.	4ddd	.	.	1r	.	.
.	.	.	.	.	.	4A	.	.	.	.	.	.	.	.	.	.	.	4a	.	.	4aa	.	.	.	.	.
.	.	.	8C	.	.	.	.	.	.	.	.	.	.	.	.	.	.	.	.	.	.	.	.	.	.	.
.	.	.	8G#XL	.	.	8cL	.	.	2E	.	.	4E	.	.	.	.	.	8ccL	.	.	8cccL	.	.	.	.	.
.	.	.	8BJ	.	.	8B	.	.	.	.	.	.	.	.	.	.	.	8b	.	.	8bb	.	.	.	.	.
.	.	.	4E	.	.	8A	.	.	.	.	.	4G#X	.	.	.	.	.	8a	.	.	8aa	.	.	.	.	.
.	.	.	.	.	.	8G#XJ	.	.	.	.	.	.	.	.	.	.	.	8g#XJ	.	.	8gg#XJ	.	.	.	.	.
=80	=80	=80	=80	=80	=80	=80	=80	=80	=80	=80	=80	=80	=80	=80	=80	=80	=80	=80	=80	=80	=80	=80	=80	=80	=80	=80
1r	.	.	8AL	.	.	4B	.	.	2..AA	.	.	1A	.	.	4bb	.	.	[4e 4b	.	.	4bb	.	.	1r	.	.
.	.	.	8AA	.	.	.	.	.	.	.	.	.	.	.	.	.	.	.	.	.	.	.	.	.	.	.
.	.	.	8C	.	.	[4A	.	.	.	.	.	.	.	.	4aa	.	.	2.e] 2.a	.	.	2.aa	.	.	.	.	.
.	.	.	8EJ	.	.	.	.	.	.	.	.	.	.	.	.	.	.	.	.	.	.	.	.	.	.	.
.	.	.	4G	.	.	2A]	.	.	.	.	.	.	.	.	4gg	.	.	.	.	.	.	.	.	.	.	.
.	.	.	4E	.	.	.	.	.	.	.	.	.	.	.	4ee	.	.	.	.	.	.	.	.	.	.	.
.	.	.	.	.	.	.	.	.	8AA	.	.	.	.	.	.	.	.	.	.	.	.	.	.	.	.	.
*	*	*	*	*	*	*	*	*	*	*	*	*	*	*	*	*	*	*	*	*	*X8va	*	*	*	*	*
=81	=81	=81	=81	=81	=81	=81	=81	=81	=81	=81	=81	=81	=81	=81	=81	=81	=81	=81	=81	=81	=81	=81	=81	=81	=81	=81
4.CC	mp	.	2GG: 2C: 2D#X:	.	.	1r	.	.	4.CC	.	.	2D#X	.	.	4dd#X	.	.	4.c	.	.	2G	.	.	1r	.	.
.	.	.	.	.	.	.	.	.	.	.	.	.	.	.	4cc	.	.	.	.	.	.	.	.	.	.	.
8CC	.	.	.	.	.	.	.	.	8C	.	.	.	.	.	.	.	.	8c	.	.	.	.	.	.	.	.
[2DD	.	.	[2AA [2Dn	.	.	.	.	.	[2DD	.	.	[2Dn	.	.	4.a	.	.	[2d	.	.	[2A	.	.	.	.	.
.	.	.	.	.	.	.	.	.	.	.	.	.	.	.	16gLL	.	.	.	.	.	.	.	.	.	.	.
.	.	.	.	.	.	.	.	.	.	.	.	.	.	.	16aJJ	.	.	.	.	.	.	.	.	.	.	.
=82	=82	=82	=82	=82	=82	=82	=82	=82	=82	=82	=82	=82	=82	=82	=82	=82	=82	=82	=82	=82	=82	=82	=82	=82	=82	=82
*M2/4	*	*	*M2/4	*	*	*M2/4	*	*	*M2/4	*	*	*M2/4	*	*	*M2/4	*	*	*M2/4	*	*	*M2/4	*	*	*M2/4	*	*
2DD]	.	rit.	2AA] 2D]	.	rit.	2r	.	rit.	2DD]	.	rit.	2D]	.	rit.	2f#	.	rit.	2d]	.	rit.	2A]	.	rit.	2r	.	.
=83	=83	=83	=83	=83	=83	=83	=83	=83	=83	=83	=83	=83	=83	=83	=83	=83	=83	=83	=83	=83	=83	=83	=83	=83	=83	=83
*M4/4	*	*	*M4/4	*	*	*M4/4	*	*	*M4/4	*	*	*M4/4	*	*	*M4/4	*	*	*M4/4	*	*	*M4/4	*	*	*M4/4	*	*
1GGG	.	.	4.GG 4.C 4.D	.	.	1r	.	.	1GG	.	.	[1D	.	.	[1g	.	.	1c	.	.	1d	.	.	1r	.	.
.	.	.	8C	.	.	.	.	.	.	.	.	.	.	.	.	.	.	.	.	.	.	.	.	.	.	.
.	.	.	2D	.	.	.	.	.	.	.	.	.	.	.	.	.	.	.	.	.	.	.	.	.	.	.
=84	=84	=84	=84	=84	=84	=84	=84	=84	=84	=84	=84	=84	=84	=84	=84	=84	=84	=84	=84	=84	=84	=84	=84	=84	=84	=84
1GGG;	>]	.	1GG;: 1BB: 1D:	>]	.	1GG;: 1BB: 1D: 1G: 1B: 1g:	>]	G major	1GG;	>]	.	1D;]	>]	.	1g;]	>]	.	1B;	>]	.	1d;	>]	.	1r	.	.
==	==	==	==	==	==	==	==	==	==	==	==	==	==	==	==	==	==	==	==	==	==	==	==	==	==	==
*-	*-	*-	*-	*-	*-	*-	*-	*-	*-	*-	*-	*-	*-	*-	*-	*-	*-	*-	*-	*-	*-	*-	*-	*-	*-	*-
